;FLAVOR:Marlin
;TIME:5612
;Filament used: 4.72067m
;Layer height: 0.2
;MINX:30.888
;MINY:21.586
;MINZ:0.2
;MAXX:193.843
;MAXY:164.678
;MAXZ:6
;Generated with Cura_SteamEngine 4.1.0
M140 S60
M105
M190 S60
M104 S215
M105
M109 S215
M82 ;absolute extrusion mode
; Ender 3 Custom Start G-code
G28 ; Home all axes
G92 E0 ; Reset Extruder
G1 Z2.0 F3000 ; Move Z Axis up little to prevent scratching of Heat Bed
G1 X0.1 Y20 Z0.3 F5000.0 ; Move to start position
G1 X0.1 Y200.0 Z0.3 F1500.0 E15 ; Draw the first line
G1 X0.4 Y200.0 Z0.3 F5000.0 ; Move to side a little
G1 X0.4 Y20 Z0.3 F1500.0 E30 ; Draw the second line
G92 E0 ; Reset Extruder
G1 Z2.0 F3000 ; Move Z Axis up little to prevent scratching of Heat Bed
; End of custom start GCode
G92 E0
G92 E0
G1 F1500 E-2
;LAYER_COUNT:30
;LAYER:0
M107
M204 S500
M205 X10 Y10
G0 F3600 X97.428 Y32.197 Z0.2
;TYPE:SKIRT
G1 F1500 E0
G1 F1800 X97.823 Y30.988 E0.0423
G1 X97.85 Y30.909 E0.04508
G1 X98.329 Y29.505 E0.09442
G1 X98.356 Y29.427 E0.09717
G1 X98.805 Y28.165 E0.14172
G1 X98.835 Y28.083 E0.14462
G1 X99.444 Y26.442 E0.20284
G1 X99.497 Y26.303 E0.20779
G1 X99.678 Y25.848 E0.22407
G1 X99.979 Y25.2 E0.24784
G1 X100.351 Y24.588 E0.27166
G1 X100.788 Y24.023 E0.29542
G1 X101.286 Y23.509 E0.31922
G1 X101.838 Y23.054 E0.34301
G1 X102.438 Y22.664 E0.36681
G1 X103.077 Y22.343 E0.3906
G1 X103.748 Y22.095 E0.41439
G1 X104.443 Y21.924 E0.4382
G1 X105.429 Y21.817 E0.47118
G1 X106.181 Y21.794 E0.49621
G1 X106.273 Y21.792 E0.49927
G1 X118.798 Y21.589 E0.9159
G1 X118.884 Y21.588 E0.91876
G1 X119.587 Y21.586 E0.94215
G1 X120.301 Y21.624 E0.96593
G1 X121.007 Y21.741 E0.98973
G1 X121.695 Y21.937 E1.01352
G1 X122.357 Y22.208 E1.03732
G1 X122.984 Y22.551 E1.06109
G1 X123.57 Y22.962 E1.08489
G1 X124.105 Y23.436 E1.10867
G1 X124.585 Y23.966 E1.13245
G1 X125.003 Y24.547 E1.15625
G1 X125.353 Y25.171 E1.18005
G1 X125.586 Y25.709 E1.19955
G1 X125.798 Y26.266 E1.21937
G1 X125.837 Y26.37 E1.22307
G1 X126.35 Y27.791 E1.27331
G1 X126.379 Y27.872 E1.27618
G1 X126.813 Y29.127 E1.32034
G1 X126.837 Y29.199 E1.32287
G1 X127.356 Y30.759 E1.37755
G1 X127.381 Y30.837 E1.38027
G1 X127.753 Y32.005 E1.42104
G1 X127.779 Y32.086 E1.42387
G1 X128.263 Y33.679 E1.47925
G1 X128.286 Y33.759 E1.48202
G1 X128.655 Y35.033 E1.52613
G1 X128.679 Y35.119 E1.5291
G1 X129.104 Y36.666 E1.58246
G1 X129.126 Y36.746 E1.58522
G1 X129.459 Y38.023 E1.62912
G1 X129.479 Y38.102 E1.63183
G1 X129.866 Y39.667 E1.68545
G1 X129.886 Y39.749 E1.68825
G1 X130.18 Y41.009 E1.73129
G1 X130.198 Y41.091 E1.73408
G1 X130.548 Y42.686 E1.78839
G1 X130.565 Y42.767 E1.79114
G1 X130.83 Y44.054 E1.83485
G1 X130.848 Y44.141 E1.8378
G1 X131.14 Y45.665 E1.88941
G1 X131.155 Y45.75 E1.89228
G1 X131.398 Y47.118 E1.9385
G1 X131.412 Y47.2 E1.94126
G1 X131.672 Y48.784 E1.99465
G1 X131.685 Y48.865 E1.99738
G1 X131.878 Y50.142 E2.04034
G1 X131.89 Y50.225 E2.04312
G1 X132.114 Y51.852 E2.09775
G1 X132.125 Y51.933 E2.10047
G1 X132.28 Y53.176 E2.14213
G1 X132.289 Y53.257 E2.14484
G1 X132.741 Y57.303 E2.28025
G1 X133.113 Y59.972 E2.36988
G1 X133.544 Y62.536 E2.45635
G1 X134.061 Y65.156 E2.54518
G1 X134.647 Y67.733 E2.63308
G1 X135.313 Y70.324 E2.72205
G1 X136.038 Y72.847 E2.80936
G1 X136.837 Y75.356 E2.89694
G1 X137.712 Y77.862 E2.98523
G1 X138.658 Y80.339 E3.07342
G1 X139.664 Y82.767 E3.16083
G1 X140.77 Y85.234 E3.25075
G1 X141.906 Y87.589 E3.33772
G1 X143.118 Y89.93 E3.42539
G1 X144.398 Y92.239 E3.5132
G1 X145.747 Y94.517 E3.60126
G1 X147.186 Y96.799 E3.69099
G1 X148.632 Y98.953 E3.77728
G1 X150.189 Y101.139 E3.86654
G1 X151.761 Y103.216 E3.95318
G1 X153.439 Y105.309 E4.0424
G1 X155.143 Y107.316 E4.12997
G1 X156.916 Y109.288 E4.21817
G1 X158.735 Y111.199 E4.30592
G1 X160.629 Y113.079 E4.39468
G1 X162.535 Y114.868 E4.48162
G1 X164.552 Y116.655 E4.57125
G1 X166.537 Y118.317 E4.65736
G1 X168.648 Y119.985 E4.74684
G1 X171.02 Y121.747 E4.84512
G1 X171.508 Y122.098 E4.86511
G1 X171.581 Y122.151 E4.86812
G1 X172.728 Y123 E4.91558
G1 X172.799 Y123.053 E4.91853
G1 X173.887 Y123.882 E4.96402
G1 X173.948 Y123.93 E4.9666
G1 X175.045 Y124.787 E5.0129
G1 X175.117 Y124.844 E5.01596
G1 X176.197 Y125.713 E5.06206
G1 X176.262 Y125.766 E5.06485
G1 X177.357 Y126.671 E5.1121
G1 X177.425 Y126.727 E5.11503
G1 X178.471 Y127.616 E5.16069
G1 X178.536 Y127.673 E5.16356
G1 X179.594 Y128.597 E5.21028
G1 X179.656 Y128.651 E5.21302
G1 X180.66 Y129.551 E5.25786
G1 X180.727 Y129.613 E5.2609
G1 X181.796 Y130.599 E5.30927
G1 X181.858 Y130.656 E5.31207
G1 X182.821 Y131.568 E5.35618
G1 X182.88 Y131.625 E5.35891
G1 X183.937 Y132.652 E5.40793
G1 X184.989 Y133.704 E5.45741
G1 X185.969 Y134.71 E5.50412
G1 X186.026 Y134.769 E5.50685
G1 X186.984 Y135.778 E5.55313
G1 X187.047 Y135.845 E5.55619
G1 X188.05 Y136.932 E5.60538
G1 X188.109 Y136.997 E5.6083
G1 X188.941 Y137.924 E5.64973
G1 X188.995 Y137.985 E5.65244
G1 X189.967 Y139.096 E5.70154
G1 X190.023 Y139.161 E5.70439
G1 X190.9 Y140.191 E5.74939
G1 X190.955 Y140.256 E5.75222
G1 X191.792 Y141.266 E5.79585
G1 X191.843 Y141.329 E5.79854
G1 X192.422 Y142.046 E5.82919
G1 X192.84 Y142.627 E5.853
G1 X193.19 Y143.251 E5.8768
G1 X193.468 Y143.909 E5.90055
G1 X193.671 Y144.595 E5.92435
G1 X193.797 Y145.299 E5.94814
G1 X193.843 Y146.013 E5.97193
G1 X193.809 Y146.728 E5.99574
G1 X193.695 Y147.434 E6.01953
G1 X193.504 Y148.123 E6.04331
G1 X193.1 Y149.06 E6.07725
G1 X192.598 Y150.009 E6.11295
G1 X192.535 Y150.125 E6.11734
G1 X186.607 Y160.79 E6.52318
G1 X186.564 Y160.866 E6.52608
G1 X186.218 Y161.469 E6.5492
G1 X185.828 Y162.069 E6.57301
G1 X185.373 Y162.621 E6.5968
G1 X184.86 Y163.119 E6.62058
G1 X184.294 Y163.557 E6.64438
G1 X183.683 Y163.929 E6.66817
G1 X183.035 Y164.23 E6.69194
G1 X182.356 Y164.457 E6.71575
G1 X181.657 Y164.607 E6.73953
G1 X180.945 Y164.678 E6.76333
G1 X180.23 Y164.669 E6.78711
G1 X179.796 Y164.624 E6.80162
G1 X179.192 Y164.541 E6.8219
G1 X178.935 Y164.501 E6.83055
G1 X177.45 Y164.235 E6.88073
G1 X177.371 Y164.22 E6.8834
G1 X176.064 Y163.969 E6.92767
G1 X175.987 Y163.954 E6.93028
G1 X174.425 Y163.634 E6.98331
G1 X174.342 Y163.616 E6.98613
G1 X173.061 Y163.336 E7.02975
G1 X172.972 Y163.316 E7.03278
G1 X171.367 Y162.941 E7.0876
G1 X171.291 Y162.923 E7.0902
G1 X170.054 Y162.618 E7.13257
G1 X169.972 Y162.597 E7.13539
G1 X168.414 Y162.191 E7.18894
G1 X168.335 Y162.17 E7.19166
G1 X167.059 Y161.82 E7.23566
G1 X166.973 Y161.796 E7.23863
G1 X165.401 Y161.341 E7.29306
G1 X165.324 Y161.318 E7.29574
G1 X164.09 Y160.944 E7.33862
G1 X164.005 Y160.918 E7.34158
G1 X162.465 Y160.428 E7.39533
G1 X162.386 Y160.402 E7.3981
G1 X161.117 Y159.98 E7.44258
G1 X161.038 Y159.953 E7.44535
G1 X159.563 Y159.441 E7.49728
G1 X159.486 Y159.414 E7.5
G1 X158.183 Y158.943 E7.54608
G1 X158.101 Y158.912 E7.549
G1 X156.661 Y158.369 E7.60018
G1 X156.58 Y158.338 E7.60307
G1 X155.291 Y157.832 E7.64912
G1 X155.215 Y157.802 E7.65184
G1 X153.767 Y157.212 E7.70385
G1 X153.693 Y157.181 E7.70652
G1 X152.447 Y156.655 E7.7515
G1 X152.37 Y156.622 E7.75429
G1 X148.637 Y154.988 E7.88982
G1 X146.171 Y153.988 E7.97833
G1 X143.685 Y153.064 E8.06654
G1 X141.212 Y152.223 E8.15342
G1 X138.669 Y151.436 E8.24195
G1 X136.117 Y150.726 E8.33006
G1 X133.544 Y150.087 E8.41824
G1 X130.953 Y149.52 E8.50645
G1 X128.367 Y149.034 E8.59397
G1 X125.74 Y148.613 E8.68246
G1 X123.117 Y148.27 E8.77044
G1 X120.502 Y148.003 E8.85787
G1 X117.821 Y147.806 E8.94728
G1 X115.218 Y147.688 E9.03395
G1 X112.572 Y147.642 E9.12196
G1 X109.898 Y147.672 E9.21091
G1 X107.259 Y147.777 E9.29875
G1 X104.647 Y147.954 E9.38583
G1 X101.958 Y148.213 E9.47568
G1 X99.392 Y148.534 E9.56169
G1 X96.744 Y148.941 E9.65079
G1 X94.127 Y149.42 E9.73928
G1 X91.562 Y149.965 E9.8265
G1 X88.994 Y150.586 E9.91437
G1 X86.429 Y151.285 E10.0028
G1 X83.891 Y152.053 E10.09099
G1 X81.384 Y152.891 E10.17891
G1 X78.903 Y153.798 E10.26677
G1 X76.406 Y154.793 E10.35617
G1 X73.738 Y155.948 E10.45287
G1 X73.238 Y156.173 E10.4711
G1 X73.164 Y156.206 E10.4738
G1 X71.827 Y156.788 E10.5223
G1 X71.745 Y156.823 E10.52526
G1 X70.439 Y157.37 E10.57236
G1 X70.357 Y157.404 E10.57531
G1 X69.053 Y157.929 E10.62206
G1 X68.976 Y157.96 E10.62482
G1 X67.758 Y158.432 E10.66827
G1 X67.681 Y158.461 E10.67101
G1 X66.321 Y158.968 E10.71928
G1 X66.236 Y158.999 E10.72229
G1 X64.961 Y159.454 E10.76732
G1 X64.881 Y159.482 E10.77013
G1 X63.542 Y159.94 E10.8172
G1 X63.46 Y159.967 E10.82007
G1 X62.142 Y160.398 E10.8662
G1 X62.057 Y160.425 E10.86916
G1 X60.735 Y160.837 E10.91522
G1 X60.659 Y160.861 E10.91787
G1 X59.33 Y161.257 E10.96399
G1 X59.245 Y161.281 E10.96693
G1 X57.867 Y161.671 E11.01456
G1 X57.78 Y161.695 E11.01756
G1 X56.492 Y162.04 E11.06191
G1 X56.414 Y162.061 E11.0646
G1 X54.975 Y162.427 E11.11399
G1 X54.891 Y162.447 E11.11686
G1 X53.662 Y162.742 E11.15889
G1 X53.578 Y162.762 E11.16177
G1 X52.161 Y163.082 E11.21008
G1 X52.074 Y163.101 E11.21305
G1 X50.706 Y163.39 E11.25955
G1 X50.621 Y163.407 E11.26243
G1 X49.206 Y163.686 E11.3104
G1 X49.119 Y163.703 E11.31335
G1 X47.85 Y163.935 E11.35626
G1 X47.77 Y163.949 E11.35896
G1 X46.474 Y164.169 E11.40268
G1 X46.414 Y164.179 E11.4047
G1 X45.476 Y164.329 E11.4363
G1 X44.764 Y164.402 E11.4601
G1 X44.049 Y164.395 E11.48388
G1 X43.339 Y164.309 E11.50767
G1 X42.643 Y164.144 E11.53146
G1 X41.97 Y163.902 E11.55525
G1 X41.328 Y163.587 E11.57903
G1 X40.725 Y163.202 E11.60283
G1 X40.169 Y162.753 E11.6266
G1 X39.666 Y162.244 E11.6504
G1 X39.075 Y161.461 E11.68303
G1 X38.888 Y161.169 E11.69456
G1 X38.788 Y161.006 E11.70092
G1 X32.117 Y149.87 E12.13268
G1 X32.076 Y149.801 E12.13535
G1 X31.754 Y149.248 E12.15663
G1 X31.429 Y148.611 E12.18042
G1 X31.178 Y147.942 E12.20418
G1 X31.002 Y147.248 E12.228
G1 X30.905 Y146.54 E12.25177
G1 X30.888 Y145.824 E12.27559
G1 X30.951 Y145.112 E12.29936
G1 X31.093 Y144.411 E12.32315
G1 X31.312 Y143.73 E12.34694
G1 X31.606 Y143.078 E12.37073
G1 X31.97 Y142.463 E12.3945
G1 X32.246 Y142.082 E12.41015
G1 X32.629 Y141.593 E12.43081
G1 X32.778 Y141.411 E12.43863
G1 X33.775 Y140.23 E12.49003
G1 X33.827 Y140.168 E12.49273
G1 X34.636 Y139.234 E12.53382
G1 X34.685 Y139.178 E12.5363
G1 X35.771 Y137.953 E12.59075
G1 X35.829 Y137.889 E12.59362
G1 X36.721 Y136.91 E12.63767
G1 X36.779 Y136.847 E12.64052
G1 X37.86 Y135.692 E12.69314
G1 X37.92 Y135.628 E12.69605
G1 X38.877 Y134.633 E12.74197
G1 X38.933 Y134.576 E12.74463
G1 X40.068 Y133.425 E12.79839
G1 X40.126 Y133.367 E12.80112
G1 X40.99 Y132.513 E12.84153
G1 X41.054 Y132.451 E12.84449
G1 X42.291 Y131.262 E12.90156
G1 X42.352 Y131.204 E12.90436
G1 X43.26 Y130.354 E12.94572
G1 X43.322 Y130.296 E12.94855
G1 X44.555 Y129.172 E13.00404
G1 X44.619 Y129.115 E13.00689
G1 X45.579 Y128.263 E13.04958
G1 X45.643 Y128.207 E13.05241
G1 X46.835 Y127.177 E13.10481
G1 X46.894 Y127.127 E13.10738
G1 X47.965 Y126.224 E13.15397
G1 X48.033 Y126.167 E13.15692
G1 X49.285 Y125.141 E13.21076
G1 X49.351 Y125.088 E13.21358
G1 X50.295 Y124.335 E13.25374
G1 X50.362 Y124.282 E13.25658
G1 X51.685 Y123.255 E13.31229
G1 X51.748 Y123.207 E13.31492
G1 X52.791 Y122.418 E13.35842
G1 X52.857 Y122.369 E13.36115
G1 X56.152 Y119.942 E13.49727
G1 X58.257 Y118.3 E13.58606
G1 X60.301 Y116.608 E13.67431
G1 X62.289 Y114.867 E13.76221
G1 X64.212 Y113.085 E13.8494
G1 X66.123 Y111.211 E13.93843
G1 X67.947 Y109.318 E14.02586
G1 X69.742 Y107.345 E14.11458
G1 X71.472 Y105.333 E14.20283
G1 X73.119 Y103.306 E14.2897
G1 X74.749 Y101.175 E14.37893
G1 X76.275 Y99.062 E14.46562
G1 X77.775 Y96.855 E14.55438
G1 X79.211 Y94.608 E14.64307
G1 X80.576 Y92.333 E14.73131
G1 X81.862 Y90.045 E14.81861
G1 X83.091 Y87.707 E14.90646
G1 X84.259 Y85.322 E14.99479
G1 X85.357 Y82.909 E15.08296
G1 X86.4 Y80.44 E15.17211
G1 X87.344 Y78.007 E15.25891
G1 X88.229 Y75.524 E15.34658
G1 X89.049 Y73.001 E15.43482
G1 X89.799 Y70.448 E15.52332
G1 X90.478 Y67.87 E15.61199
G1 X91.076 Y65.31 E15.69943
G1 X91.601 Y62.724 E15.78719
G1 X92.059 Y60.099 E15.87582
G1 X92.438 Y57.497 E15.96327
G1 X92.77 Y54.632 E16.0592
G1 X92.838 Y53.949 E16.08203
G1 X92.847 Y53.861 E16.08497
G1 X93.002 Y52.502 E16.13047
G1 X93.012 Y52.418 E16.13328
G1 X93.183 Y51.076 E16.17828
G1 X93.195 Y50.988 E16.18123
G1 X93.397 Y49.561 E16.22917
G1 X93.41 Y49.475 E16.23206
G1 X93.619 Y48.13 E16.27733
G1 X93.633 Y48.046 E16.28016
G1 X93.868 Y46.656 E16.32705
G1 X93.881 Y46.577 E16.32971
G1 X94.122 Y45.253 E16.37447
G1 X94.139 Y45.166 E16.37742
G1 X94.422 Y43.724 E16.4263
G1 X94.44 Y43.636 E16.42929
G1 X94.709 Y42.361 E16.47263
G1 X94.727 Y42.277 E16.47548
G1 X95.04 Y40.886 E16.52291
G1 X95.059 Y40.804 E16.5257
G1 X95.382 Y39.452 E16.57194
G1 X95.403 Y39.366 E16.57488
G1 X95.761 Y37.954 E16.62333
G1 X95.781 Y37.877 E16.62598
G1 X96.11 Y36.644 E16.66842
G1 X96.134 Y36.556 E16.67146
G1 X96.549 Y35.085 E16.72229
G1 X96.574 Y35.001 E16.72521
G1 X96.934 Y33.789 E16.76726
G1 X96.957 Y33.712 E16.76993
G1 X97.4 Y32.286 E16.8196
G1 X97.428 Y32.197 E16.8227
G0 F3600 X97.809 Y32.322
G1 F1800 X98.204 Y31.113 E16.865
G1 X98.228 Y31.039 E16.86759
G1 X98.707 Y29.635 E16.91693
G1 X98.733 Y29.561 E16.91954
G1 X99.182 Y28.299 E16.96409
G1 X99.21 Y28.222 E16.96682
G1 X99.819 Y26.581 E17.02503
G1 X99.869 Y26.451 E17.02967
G1 X100.05 Y25.996 E17.04595
G1 X100.343 Y25.369 E17.06897
G1 X100.706 Y24.779 E17.09201
G1 X101.134 Y24.235 E17.11503
G1 X101.623 Y23.744 E17.13808
G1 X102.164 Y23.313 E17.16109
G1 X102.752 Y22.946 E17.18414
G1 X103.378 Y22.65 E17.20717
G1 X104.034 Y22.429 E17.2302
G1 X104.712 Y22.284 E17.25326
G1 X105.442 Y22.217 E17.27764
G1 X106.194 Y22.194 E17.30266
G1 X106.28 Y22.192 E17.30552
G1 X118.805 Y21.989 E17.72216
G1 X118.885 Y21.988 E17.72482
G1 X119.588 Y21.986 E17.7482
G1 X120.279 Y22.024 E17.77122
G1 X120.962 Y22.141 E17.79427
G1 X121.626 Y22.337 E17.8173
G1 X122.264 Y22.607 E17.84034
G1 X122.866 Y22.949 E17.86337
G1 X123.425 Y23.359 E17.88642
G1 X123.932 Y23.83 E17.90944
G1 X124.382 Y24.356 E17.93246
G1 X124.769 Y24.931 E17.95552
G1 X125.213 Y25.852 E17.98952
G1 X125.425 Y26.409 E18.00934
G1 X125.46 Y26.506 E18.01277
G1 X125.973 Y27.927 E18.06302
G1 X126.001 Y28.003 E18.06572
G1 X126.435 Y29.258 E18.10988
G1 X126.457 Y29.325 E18.11223
G1 X126.976 Y30.885 E18.16691
G1 X127 Y30.958 E18.16947
G1 X127.372 Y32.126 E18.21024
G1 X127.396 Y32.203 E18.21292
G1 X127.88 Y33.796 E18.26829
G1 X127.902 Y33.871 E18.27089
G1 X128.271 Y35.145 E18.31501
G1 X128.294 Y35.225 E18.31778
G1 X128.719 Y36.772 E18.37114
G1 X128.739 Y36.847 E18.37372
G1 X129.072 Y38.124 E18.41761
G1 X129.091 Y38.198 E18.42015
G1 X129.478 Y39.763 E18.47377
G1 X129.496 Y39.84 E18.4764
G1 X129.79 Y41.1 E18.51944
G1 X129.808 Y41.177 E18.52207
G1 X130.158 Y42.772 E18.57638
G1 X130.174 Y42.848 E18.57896
G1 X130.439 Y44.135 E18.62267
G1 X130.455 Y44.216 E18.62541
G1 X130.747 Y45.74 E18.67702
G1 X130.762 Y45.82 E18.67973
G1 X131.005 Y47.188 E18.72594
G1 X131.018 Y47.265 E18.72854
G1 X131.278 Y48.849 E18.78193
G1 X131.29 Y48.924 E18.78445
G1 X131.483 Y50.201 E18.82741
G1 X131.494 Y50.28 E18.83006
G1 X131.718 Y51.907 E18.88469
G1 X131.728 Y51.983 E18.88724
G1 X131.883 Y53.226 E18.9289
G1 X131.892 Y53.302 E18.93145
G1 X132.346 Y57.367 E19.06749
G1 X132.715 Y60.017 E19.15648
G1 X133.158 Y62.649 E19.24525
G1 X133.665 Y65.217 E19.33231
G1 X134.262 Y67.841 E19.42182
G1 X134.92 Y70.405 E19.50986
G1 X135.656 Y72.964 E19.59842
G1 X136.464 Y75.504 E19.68707
G1 X137.336 Y78 E19.77501
G1 X138.274 Y80.455 E19.86242
G1 X139.306 Y82.947 E19.95213
G1 X140.396 Y85.379 E20.04077
G1 X141.548 Y87.767 E20.12896
G1 X142.764 Y90.116 E20.21693
G1 X144.068 Y92.468 E20.30638
G1 X145.417 Y94.745 E20.39441
G1 X146.832 Y96.989 E20.48264
G1 X148.306 Y99.186 E20.57064
G1 X149.86 Y101.366 E20.65968
G1 X151.462 Y103.484 E20.74801
G1 X153.12 Y105.552 E20.83617
