;FLAVOR:Marlin
;TIME:9195
;Filament used: 6.27171m
;Layer height: 0.2
;MINX:76.598
;MINY:65.271
;MINZ:0.2
;MAXX:196.509
;MAXY:164.546
;MAXZ:24
;Generated with Cura_SteamEngine 4.1.0
M140 S60
M105
M190 S60
M104 S200
M105
M109 S200
M82 ;absolute extrusion mode
; Ender 3 Custom Start G-code
G28 ; Home all axes
G92 E0 ; Reset Extruder
G1 Z2.0 F3000 ; Move Z Axis up little to prevent scratching of Heat Bed
G1 X0.1 Y20 Z0.3 F5000.0 ; Move to start position
G1 X0.1 Y200.0 Z0.3 F1500.0 E15 ; Draw the first line
G1 X0.4 Y200.0 Z0.3 F5000.0 ; Move to side a little
G1 X0.4 Y20 Z0.3 F1500.0 E30 ; Draw the second line
G92 E0 ; Reset Extruder
G1 Z2.0 F3000 ; Move Z Axis up little to prevent scratching of Heat Bed
; End of custom start GCode
G92 E0
G92 E0
G1 F2400 E-5
;LAYER_COUNT:120
;LAYER:0
M107
M204 S500
M205 X10 Y10
G0 F3600 X98.464 Y68.431 Z0.2
;TYPE:SKIRT
G1 F2400 E0
G1 F1800 X98.878 Y67.847 E0.02381
G1 X99.353 Y67.313 E0.04758
G1 X99.78 Y66.922 E0.06684
G1 X99.927 Y66.799 E0.07321
G1 X100.5 Y66.371 E0.097
G1 X101.118 Y66.01 E0.1208
G1 X101.772 Y65.72 E0.1446
G1 X102.454 Y65.505 E0.16838
G1 X103.279 Y65.352 E0.19629
G1 X103.599 Y65.314 E0.20701
G1 X104.511 Y65.271 E0.23738
G1 X104.838 Y65.279 E0.24825
G1 X105.55 Y65.336 E0.27201
G1 X106.297 Y65.484 E0.29734
G1 X106.596 Y65.562 E0.30762
G1 X107.276 Y65.781 E0.33138
G1 X108.026 Y66.126 E0.35884
G1 X108.366 Y66.31 E0.37169
G1 X108.691 Y66.499 E0.3842
G1 X108.875 Y66.613 E0.3914
G1 X109.62 Y67.152 E0.42198
G1 X109.784 Y67.289 E0.42909
G1 X111.845 Y68.977 E0.5177
G1 X113.945 Y70.599 E0.60595
G1 X116.093 Y72.162 E0.69431
G1 X118.257 Y73.645 E0.78156
G1 X120.508 Y75.097 E0.87065
G1 X122.747 Y76.453 E0.95771
G1 X125.061 Y77.765 E1.04619
G1 X127.39 Y79.001 E1.13388
G1 X129.776 Y80.182 E1.22243
G1 X132.598 Y81.474 E1.32566
G1 X133.565 Y81.897 E1.36077
G1 X133.723 Y81.969 E1.36654
G1 X134.012 Y82.105 E1.37716
G1 X134.101 Y82.148 E1.38045
G1 X135.967 Y83.061 E1.44955
G1 X138.369 Y84.154 E1.53732
G1 X140.845 Y85.198 E1.62669
G1 X143.303 Y86.149 E1.71435
G1 X145.789 Y87.035 E1.80213
G1 X148.301 Y87.85 E1.88997
G1 X150.819 Y88.589 E1.97725
G1 X153.425 Y89.274 E2.06687
G1 X156 Y89.875 E2.15482
G1 X158.569 Y90.396 E2.242
G1 X161.161 Y90.847 E2.32951
G1 X163.822 Y91.233 E2.41894
G1 X166.403 Y91.532 E2.50536
G1 X169.075 Y91.767 E2.59457
G1 X171.721 Y91.924 E2.68273
G1 X174.356 Y92.005 E2.77041
G1 X177.001 Y92.012 E2.85839
G1 X179.64 Y91.945 E2.94619
G1 X182.321 Y91.799 E3.03549
G1 X184.941 Y91.584 E3.12293
G1 X187.256 Y91.332 E3.20038
G1 X187.724 Y91.298 E3.21598
G1 X188.294 Y91.278 E3.23495
G1 X189.157 Y91.306 E3.26367
G1 X189.426 Y91.333 E3.27266
G1 X190.133 Y91.444 E3.29647
G1 X190.511 Y91.538 E3.30942
G1 X190.704 Y91.592 E3.31609
G1 X191.381 Y91.823 E3.33988
G1 X192.026 Y92.126 E3.36358
G1 X192.366 Y92.31 E3.37644
G1 X192.975 Y92.685 E3.40023
G1 X193.315 Y92.939 E3.41434
G1 X193.678 Y93.229 E3.4298
G1 X194.211 Y93.706 E3.45359
G1 X194.687 Y94.239 E3.47736
G1 X195.068 Y94.77 E3.49909
G1 X195.366 Y95.234 E3.51743
G1 X195.718 Y95.857 E3.54123
G1 X196.031 Y96.605 E3.5682
G1 X196.148 Y96.944 E3.58013
G1 X196.343 Y97.632 E3.60391
G1 X196.483 Y98.594 E3.63625
G1 X196.509 Y98.973 E3.64888
G1 X196.499 Y99.976 E3.68224
G1 X196.404 Y101.047 E3.71801
G1 X196.38 Y101.272 E3.72553
G1 X195.861 Y105.445 E3.8654
G1 X195.861 Y105.447 E3.86546
G1 X190.393 Y149.29 E5.33498
G1 X190.38 Y149.384 E5.33814
G1 X190.271 Y150.164 E5.36433
G1 X190.133 Y150.865 E5.3881
G1 X189.917 Y151.547 E5.41189
G1 X189.627 Y152.201 E5.43569
G1 X189.265 Y152.818 E5.45948
G1 X188.836 Y153.391 E5.48329
G1 X188.347 Y153.912 E5.50705
G1 X187.802 Y154.376 E5.53086
G1 X187.209 Y154.776 E5.55465
G1 X186.575 Y155.107 E5.57844
G1 X185.908 Y155.366 E5.60224
G1 X185.217 Y155.548 E5.626
G1 X184.238 Y155.671 E5.65882
G1 X183.945 Y155.685 E5.66858
G1 X183.834 Y155.689 E5.67227
G1 X181.978 Y155.745 E5.73403
G1 X179.351 Y155.899 E5.82155
G1 X176.706 Y156.13 E5.90986
G1 X174.04 Y156.438 E5.99912
G1 X171.477 Y156.808 E6.08525
G1 X168.846 Y157.265 E6.17407
G1 X166.244 Y157.792 E6.26237
G1 X163.669 Y158.39 E6.35029
G1 X161.123 Y159.059 E6.43785
G1 X158.563 Y159.807 E6.52656
G1 X156.048 Y160.623 E6.6145
G1 X155.1 Y160.96 E6.64796
G1 X155.022 Y160.987 E6.65071
G1 X154.018 Y161.33 E6.68599
G1 X153.329 Y161.523 E6.70979
G1 X152.623 Y161.638 E6.73358
G1 X152.056 Y161.673 E6.75248
G1 X151.215 Y161.687 E6.78045
G1 X151.108 Y161.688 E6.78401
G1 X150.709 Y161.688 E6.79728
G1 X150.618 Y161.687 E6.80031
G1 X149.915 Y161.677 E6.82369
G1 X149.201 Y161.627 E6.8475
G1 X148.498 Y161.498 E6.87127
G1 X147.813 Y161.291 E6.89507
G1 X147.156 Y161.008 E6.91887
G1 X146.535 Y160.655 E6.94262
G1 X145.919 Y160.203 E6.96804
G1 X145.057 Y159.488 E7.00529
G1 X142.944 Y157.783 E7.09559
G1 X140.835 Y156.178 E7.18374
G1 X138.694 Y154.641 E7.2714
G1 X136.496 Y153.157 E7.35961
G1 X134.261 Y151.738 E7.44766
G1 X131.976 Y150.377 E7.53612
G1 X129.673 Y149.09 E7.62387
G1 X127.339 Y147.872 E7.71143
G1 X124.919 Y146.696 E7.80092
G1 X122.549 Y145.625 E7.88742
G1 X121.488 Y145.163 E7.92591
G1 X120.849 Y144.841 E7.94971
G1 X119.999 Y144.255 E7.98405
G1 X119.075 Y143.502 E8.02369
G1 X116.953 Y141.789 E8.1144
G1 X114.829 Y140.173 E8.20317
G1 X112.694 Y138.641 E8.29057
G1 X110.496 Y137.157 E8.37877
G1 X108.261 Y135.738 E8.46683
G1 X105.976 Y134.377 E8.55529
G1 X103.673 Y133.09 E8.64303
G1 X101.339 Y131.872 E8.7306
G1 X98.936 Y130.704 E8.81946
G1 X96.506 Y129.607 E8.90814
G1 X95.487 Y129.163 E8.94511
G1 X94.848 Y128.841 E8.96891
G1 X94.249 Y128.45 E8.9927
G1 X93.698 Y127.995 E9.01647
G1 X93.2 Y127.481 E9.04027
G1 X92.764 Y126.914 E9.06406
G1 X92.393 Y126.303 E9.08783
G1 X92.092 Y125.653 E9.11166
G1 X91.866 Y124.975 E9.13543
G1 X91.718 Y124.275 E9.15923
G1 X91.647 Y123.556 E9.18326
G1 X91.605 Y122.525 E9.21758
G1 X91.6 Y122.275 E9.22589
G1 X91.592 Y117.416 E9.3875
G1 X91.592 Y117.369 E9.38907
G1 X91.603 Y115.411 E9.45419
G1 X91.596 Y112.272 E9.5586
G1 X91.596 Y112.233 E9.55989
G1 X91.603 Y110.464 E9.61873
G1 X91.596 Y109.13 E9.6631
G1 X91.596 Y109.041 E9.66606
G1 X91.602 Y108.369 E9.68841
G1 X91.65 Y107.645 E9.71254
G1 X91.762 Y106.734 E9.74307
G1 X91.773 Y106.648 E9.74596
G1 X91.877 Y105.888 E9.77147
G1 X91.994 Y104.941 E9.80321
G1 X92.009 Y104.83 E9.80693
G1 X92.179 Y103.627 E9.84734
G1 X92.183 Y103.597 E9.84835
G1 X92.831 Y99.165 E9.99732
G1 X92.838 Y99.122 E9.99877
G1 X93.639 Y93.89 E10.17482
G1 X93.647 Y93.839 E10.17654
G1 X93.784 Y92.99 E10.20514
G1 X93.79 Y92.95 E10.20648
G1 X97.371 Y71.633 E10.92542
G1 X97.387 Y71.544 E10.92843
G1 X97.516 Y70.837 E10.95233
G1 X97.683 Y70.142 E10.97611
G1 X98.044 Y69.213 E11.00926
G1 X98.119 Y69.057 E11.01502
G1 X98.464 Y68.431 E11.03879
G0 F3600 X98.815 Y68.624
G1 F1800 X99.218 Y68.061 E11.06182
G1 X99.684 Y67.548 E11.08487
G1 X100.037 Y67.228 E11.10072
G1 X100.184 Y67.105 E11.10709
G1 X100.74 Y66.692 E11.13013
G1 X101.339 Y66.346 E11.15313
G1 X101.975 Y66.071 E11.17618
G1 X102.638 Y65.872 E11.1992
G1 X103.326 Y65.749 E11.22245
G1 X103.646 Y65.711 E11.23317
G1 X104.501 Y65.671 E11.26164
G1 X104.828 Y65.679 E11.27252
G1 X105.518 Y65.736 E11.29554
G1 X106.196 Y65.871 E11.31854
G1 X106.495 Y65.949 E11.32881
G1 X107.153 Y66.162 E11.35182
G1 X107.836 Y66.478 E11.37685
G1 X108.176 Y66.662 E11.38971
G1 X108.48 Y66.839 E11.40141
G1 X108.664 Y66.953 E11.4086
G1 X109.363 Y67.459 E11.43731
G1 X109.48 Y67.557 E11.44238
G1 X111.614 Y69.304 E11.53411
G1 X113.705 Y70.919 E11.62199
G1 X115.86 Y72.487 E11.71063
G1 X118.035 Y73.978 E11.79833
G1 X120.289 Y75.433 E11.88756
G1 X122.548 Y76.8 E11.97538
G1 X124.871 Y78.117 E12.0642
G1 X127.231 Y79.37 E12.15307
G1 X129.597 Y80.541 E12.24088
G1 X132.428 Y81.836 E12.34442
G1 X133.405 Y82.264 E12.3799
G1 X133.553 Y82.331 E12.3853
G1 X133.842 Y82.467 E12.39592
G1 X133.925 Y82.507 E12.39899
G1 X135.791 Y83.42 E12.46808
G1 X138.227 Y84.528 E12.55709
G1 X140.694 Y85.569 E12.64615
G1 X143.16 Y86.524 E12.7341
G1 X145.647 Y87.409 E12.8219
G1 X148.193 Y88.235 E12.91093
G1 X150.719 Y88.976 E12.99848
G1 X153.295 Y89.653 E13.08707
G1 X155.942 Y90.271 E13.17748
G1 X158.492 Y90.789 E13.26402
G1 X161.101 Y91.242 E13.3521
G1 X163.76 Y91.628 E13.44146
G1 X166.39 Y91.933 E13.52952
G1 X169.052 Y92.167 E13.6184
G1 X171.684 Y92.323 E13.7061
G1 X174.343 Y92.405 E13.79458
G1 X177.01 Y92.412 E13.88328
G1 X179.671 Y92.344 E13.97182
G1 X182.305 Y92.201 E14.05955
G1 X184.978 Y91.981 E14.14876
G1 X187.299 Y91.729 E14.22641
G1 X187.738 Y91.698 E14.24105
G1 X188.308 Y91.678 E14.26002
G1 X189.117 Y91.704 E14.28694
G1 X189.386 Y91.731 E14.29593
G1 X190.404 Y91.923 E14.33039
G1 X190.597 Y91.977 E14.33705
G1 X191.252 Y92.202 E14.36009
G1 X191.836 Y92.478 E14.38157
G1 X192.176 Y92.662 E14.39443
G1 X192.765 Y93.026 E14.41746
G1 X193.065 Y93.251 E14.42993
G1 X193.428 Y93.541 E14.44538
G1 X193.943 Y94.004 E14.46842
G1 X194.402 Y94.523 E14.49146
G1 X194.731 Y94.987 E14.51038
G1 X195.029 Y95.451 E14.52872
G1 X195.369 Y96.054 E14.55175
G1 X195.653 Y96.736 E14.57632
G1 X195.77 Y97.075 E14.58825
G1 X195.957 Y97.741 E14.61125
G1 X196.084 Y98.621 E14.64083
G1 X196.11 Y99 E14.65346
G1 X196.101 Y99.941 E14.68476
G1 X196.006 Y101.012 E14.72052
G1 X195.983 Y101.223 E14.72758
G1 X195.464 Y105.396 E14.86744
G1 X195.464 Y105.398 E14.86751
G1 X189.996 Y149.241 E16.33703
G1 X189.984 Y149.328 E16.33995
G1 X189.875 Y150.108 E16.36615
G1 X189.74 Y150.788 E16.38921
G1 X189.527 Y151.447 E16.41224
G1 X189.24 Y152.077 E16.43527
G1 X188.882 Y152.67 E16.45831
G1 X188.459 Y153.217 E16.48131
G1 X187.974 Y153.713 E16.50438
G1 X187.437 Y154.149 E16.52738
G1 X186.852 Y154.52 E16.55042
G1 X186.228 Y154.822 E16.57348
G1 X185.574 Y155.049 E16.59651
G1 X184.898 Y155.2 E16.61955
G1 X184.219 Y155.271 E16.64225
G1 X183.926 Y155.285 E16.65201
G1 X183.822 Y155.289 E16.65547
G1 X181.978 Y155.345 E16.71683
G1 X179.292 Y155.502 E16.80632
G1 X176.662 Y155.732 E16.89413
G1 X174.008 Y156.038 E16.98298
G1 X171.423 Y156.412 E17.06986
G1 X168.77 Y156.872 E17.15941
G1 X166.18 Y157.397 E17.24731
G1 X163.55 Y158.008 E17.33711
G1 X161.014 Y158.674 E17.42432
G1 X158.455 Y159.422 E17.51299
G1 X155.906 Y160.248 E17.60211
G1 X154.966 Y160.583 E17.6353
G1 X154.893 Y160.609 E17.63788
G1 X153.889 Y160.952 E17.67317
G1 X153.222 Y161.137 E17.69619
G1 X152.537 Y161.245 E17.71926
G1 X152.049 Y161.273 E17.73551
G1 X151.208 Y161.287 E17.76349
G1 X151.108 Y161.288 E17.76682
G1 X150.709 Y161.288 E17.78009
G1 X150.624 Y161.287 E17.78291
G1 X149.921 Y161.277 E17.8063
G1 X149.23 Y161.228 E17.82934
G1 X148.55 Y161.099 E17.85236
G1 X147.889 Y160.892 E17.8754
G1 X147.256 Y160.611 E17.89843
G1 X146.66 Y160.258 E17.92147
G1 X146.174 Y159.895 E17.94165
G1 X145.263 Y159.139 E17.98102
G1 X143.214 Y157.486 E18.06858
G1 X141.064 Y155.85 E18.15844
G1 X138.905 Y154.301 E18.24682
G1 X136.729 Y152.831 E18.33416
G1 X134.459 Y151.389 E18.42361
G1 X132.197 Y150.042 E18.51117
G1 X129.861 Y148.737 E18.60017
G1 X127.505 Y147.508 E18.68855
G1 X125.109 Y146.343 E18.77716
G1 X122.655 Y145.234 E18.86673
G1 X121.648 Y144.796 E18.90325
G1 X121.03 Y144.483 E18.92629
G1 X120.251 Y143.945 E18.95778
G1 X119.303 Y143.172 E18.99847
G1 X117.185 Y141.461 E19.08903
G1 X115.099 Y139.875 E19.17618
G1 X112.905 Y138.301 E19.26599
G1 X110.729 Y136.831 E19.35333
G1 X108.459 Y135.389 E19.44278
G1 X106.197 Y134.042 E19.53034
G1 X103.861 Y132.737 E19.61934
G1 X101.505 Y131.508 E19.70772
G1 X99.097 Y130.337 E19.79678
G1 X96.682 Y129.247 E19.88491
G1 X95.647 Y128.796 E19.92246
G1 X95.029 Y128.483 E19.9455
G1 X94.451 Y128.102 E19.96852
G1 X93.921 Y127.656 E19.99156
G1 X93.446 Y127.152 E20.0146
G1 X93.032 Y126.597 E20.03763
G1 X92.685 Y125.997 E20.06068
G1 X92.409 Y125.362 E20.08371
G1 X92.209 Y124.699 E20.10674
G1 X92.086 Y124.018 E20.12976
G1 X92.047 Y123.539 E20.14574
G1 X92.005 Y122.508 E20.18006
G1 X92 Y122.274 E20.18785
G1 X91.992 Y117.415 E20.34946
G1 X91.992 Y117.371 E20.35092
G1 X92.003 Y115.413 E20.41605
G1 X91.996 Y112.271 E20.52055
G1 X91.996 Y112.234 E20.52178
G1 X92.003 Y110.465 E20.58062
G1 X91.996 Y109.128 E20.62509
G1 X91.996 Y109.044 E20.62788
G1 X92.002 Y108.372 E20.65023
G1 X92.047 Y107.694 E20.67283
G1 X92.159 Y106.783 E20.70336
G1 X92.169 Y106.702 E20.70607
G1 X92.282 Y105.876 E20.7338
G1 X92.391 Y104.99 E20.76349
G1 X92.405 Y104.886 E20.76698
G1 X92.575 Y103.683 E20.80739
G1 X92.579 Y103.655 E20.80833
G1 X93.227 Y99.223 E20.95731
G1 X93.233 Y99.183 E20.95866
G1 X94.034 Y93.951 E21.1347
G1 X94.042 Y93.903 E21.13632
G1 X94.179 Y93.054 E21.16492
G1 X94.185 Y93.016 E21.1662
G1 X97.766 Y71.699 E21.88514
G1 X97.78 Y71.616 E21.88794
G1 X97.909 Y70.909 E21.91185
G1 X98.073 Y70.236 E21.93488
G1 X98.404 Y69.386 E21.96522
G1 X98.479 Y69.23 E21.97098
G1 X98.815 Y68.624 E21.99403
G0 F3600 X99.165 Y68.819
G1 F1800 X99.558 Y68.277 E22.01629
G1 X100.013 Y67.786 E22.03856
G1 X100.293 Y67.535 E22.05107
G1 X100.44 Y67.412 E22.05744
G1 X100.978 Y67.014 E22.0797
G1 X101.56 Y66.683 E22.10197
G1 X102.176 Y66.424 E22.12419
G1 X102.82 Y66.24 E22.14647
G1 X103.374 Y66.146 E22.16516
G1 X103.694 Y66.108 E22.17588
G1 X104.491 Y66.071 E22.20241
G1 X104.818 Y66.079 E22.21329
G1 X105.485 Y66.135 E22.23556
G1 X106.095 Y66.258 E22.25625
G1 X106.394 Y66.336 E22.26653
G1 X107.03 Y66.544 E22.28879
G1 X107.645 Y66.83 E22.31135
G1 X107.985 Y67.014 E22.3242
G1 X108.269 Y67.179 E22.33513
G1 X108.453 Y67.293 E22.34233
G1 X109.106 Y67.765 E22.36913
G1 X109.281 Y67.912 E22.37673
G1 X111.34 Y69.598 E22.46524
G1 X113.477 Y71.247 E22.55502
G1 X115.621 Y72.808 E22.64323
G1 X117.814 Y74.312 E22.73167
G1 X120.071 Y75.768 E22.821
G1 X122.35 Y77.147 E22.9096
G1 X124.693 Y78.476 E22.99919
G1 X127.018 Y79.71 E23.08674
G1 X129.446 Y80.912 E23.17685
G1 X132.252 Y82.196 E23.27948
G1 X133.244 Y82.63 E23.3155
G1 X133.382 Y82.693 E23.32054
G1 X133.671 Y82.829 E23.33117
G1 X133.749 Y82.866 E23.33404
G1 X135.628 Y83.786 E23.40362
G1 X138.085 Y84.903 E23.49339
G1 X140.519 Y85.93 E23.58126
G1 X143.031 Y86.902 E23.67084
G1 X145.495 Y87.78 E23.75784
G1 X148.072 Y88.616 E23.84795
G1 X150.634 Y89.367 E23.93675
G1 X153.217 Y90.046 E24.02558
G1 X155.836 Y90.658 E24.11503
G1 X158.416 Y91.181 E24.20259
G1 X161.052 Y91.64 E24.29158
G1 X163.688 Y92.022 E24.38017
G1 X166.345 Y92.33 E24.46914
G1 X169.027 Y92.566 E24.55869
G1 X171.685 Y92.724 E24.64725
G1 X174.329 Y92.805 E24.73523
G1 X177.02 Y92.812 E24.82473
G1 X179.669 Y92.744 E24.91287
G1 X182.36 Y92.599 E25.0025
G1 X185.018 Y92.38 E25.0912
G1 X187.343 Y92.127 E25.16899
G1 X187.752 Y92.097 E25.18263
G1 X188.322 Y92.077 E25.2016
G1 X189.077 Y92.102 E25.22673
G1 X189.346 Y92.129 E25.23572
G1 X190.296 Y92.308 E25.26787
G1 X190.489 Y92.362 E25.27454
G1 X191.121 Y92.581 E25.29678
G1 X191.645 Y92.83 E25.31608
G1 X191.985 Y93.014 E25.32894
G1 X192.815 Y93.564 E25.36205
G1 X193.178 Y93.854 E25.37751
G1 X193.675 Y94.302 E25.39976
G1 X194.115 Y94.806 E25.42201
G1 X194.395 Y95.203 E25.43817
G1 X194.693 Y95.667 E25.45651
G1 X195.02 Y96.25 E25.47875
G1 X195.275 Y96.866 E25.50092
G1 X195.392 Y97.205 E25.51285
G1 X195.572 Y97.849 E25.53509
G1 X195.685 Y98.649 E25.56196
G1 X195.711 Y99.028 E25.5746
G1 X195.702 Y99.906 E25.6038
G1 X195.607 Y100.977 E25.63956
G1 X195.586 Y101.173 E25.64612
G1 X195.067 Y105.346 E25.78598
G1 X195.067 Y105.348 E25.78605
G1 X189.599 Y149.191 E27.25557
G1 X189.588 Y149.273 E27.25832
G1 X189.479 Y150.053 E27.28452
G1 X189.347 Y150.709 E27.30677
G1 X189.138 Y151.344 E27.32901
G1 X188.854 Y151.95 E27.35127
G1 X188.5 Y152.518 E27.37353
G1 X188.081 Y153.04 E27.39579
G1 X187.603 Y153.508 E27.41804
G1 X187.073 Y153.915 E27.44027
G1 X186.497 Y154.256 E27.46253
G1 X185.885 Y154.527 E27.48479
G1 X185.245 Y154.722 E27.50704
