;FLAVOR:Marlin
;TIME:3893
;Filament used: 2.27969m
;Layer height: 0.15
;MINX:103.6
;MINY:31.2
;MINZ:0.2
;MAXX:131.4
;MAXY:83.9
;MAXZ:39.65
;Generated with Cura_SteamEngine 4.1.0
M140 S60
M105
M190 S60
M104 S240
M105
M109 S240
M82 ;absolute extrusion mode
; Ender 3 Custom Start G-code
G28 ; Home all axes
G92 E0 ; Reset Extruder
G1 Z2.0 F3000 ; Move Z Axis up little to prevent scratching of Heat Bed
G1 X0.1 Y20 Z0.3 F5000.0 ; Move to start position
G1 X0.1 Y200.0 Z0.3 F1500.0 E15 ; Draw the first line
G1 X0.4 Y200.0 Z0.3 F5000.0 ; Move to side a little
G1 X0.4 Y20 Z0.3 F1500.0 E30 ; Draw the second line
G92 E0 ; Reset Extruder
G1 Z2.0 F3000 ; Move Z Axis up little to prevent scratching of Heat Bed
; End of custom start GCode
G92 E0
G92 E0
G1 F2400 E-2.5
;LAYER_COUNT:266
;LAYER:0
M107
M204 S500
M205 X10 Y10
G0 F3600 X103.994 Y35.423 Z0.2
;TYPE:SKIRT
G1 F2400 E0
G1 F1200 X104.276 Y34.765 E0.02381
G1 X104.629 Y34.143 E0.0476
G1 X105.05 Y33.565 E0.07138
G1 X105.532 Y33.037 E0.09516
G1 X106.07 Y32.566 E0.11894
G1 X106.658 Y32.158 E0.14275
G1 X107.287 Y31.818 E0.16653
G1 X107.95 Y31.55 E0.19031
G1 X108.64 Y31.358 E0.21413
G1 X109.346 Y31.244 E0.23792
G1 X109.82 Y31.213 E0.25372
G1 X110.125 Y31.204 E0.26387
G1 X110.314 Y31.201 E0.27015
G1 X124.289 Y31.2 E0.73496
G1 X124.38 Y31.201 E0.73799
G1 X125.081 Y31.211 E0.76131
G1 X125.795 Y31.261 E0.78511
G1 X126.498 Y31.39 E0.80889
G1 X127.183 Y31.597 E0.83269
G1 X127.84 Y31.88 E0.85648
G1 X128.462 Y32.233 E0.88027
G1 X129.04 Y32.654 E0.90405
G1 X129.568 Y33.137 E0.92785
G1 X130.038 Y33.676 E0.95164
G1 X130.446 Y34.264 E0.97544
G1 X130.785 Y34.894 E0.99924
G1 X131.052 Y35.557 E1.02301
G1 X131.243 Y36.246 E1.04679
G1 X131.356 Y36.953 E1.0706
G1 X131.388 Y37.431 E1.08654
G1 X131.397 Y37.753 E1.09725
G1 X131.399 Y37.932 E1.1032
G1 X131.4 Y76.764 E2.39476
G1 X131.4 Y76.843 E2.39739
G1 X131.391 Y77.57 E2.42157
G1 X131.342 Y78.284 E2.44537
G1 X131.214 Y78.988 E2.46917
G1 X131.008 Y79.673 E2.49296
G1 X130.727 Y80.33 E2.51673
G1 X130.374 Y80.953 E2.54055
G1 X129.954 Y81.532 E2.56434
G1 X129.472 Y82.06 E2.58812
G1 X128.935 Y82.532 E2.6119
G1 X128.347 Y82.94 E2.6357
G1 X127.718 Y83.281 E2.6595
G1 X127.055 Y83.549 E2.68328
G1 X126.366 Y83.741 E2.70707
G1 X125.66 Y83.856 E2.73086
G1 X125.17 Y83.888 E2.74719
G1 X124.849 Y83.897 E2.75788
G1 X124.67 Y83.9 E2.76383
G1 X110.707 Y83.9 E3.22824
G1 X110.624 Y83.899 E3.231
G1 X109.926 Y83.89 E3.25422
G1 X109.213 Y83.841 E3.27799
G1 X108.509 Y83.713 E3.30179
G1 X107.824 Y83.507 E3.32558
G1 X107.167 Y83.225 E3.34936
G1 X106.545 Y82.872 E3.37315
G1 X105.966 Y82.452 E3.39694
G1 X105.437 Y81.97 E3.42074
G1 X104.966 Y81.432 E3.44452
G1 X104.558 Y80.845 E3.4683
G1 X104.218 Y80.215 E3.49211
G1 X103.95 Y79.552 E3.51589
G1 X103.758 Y78.863 E3.53968
G1 X103.644 Y78.157 E3.56347
G1 X103.611 Y77.664 E3.5799
G1 X103.602 Y77.331 E3.59098
G1 X103.6 Y77.158 E3.59674
G1 X103.6 Y38.285 E4.88966
G1 X103.601 Y38.2 E4.89249
G1 X103.61 Y37.525 E4.91494
G1 X103.659 Y36.811 E4.93874
G1 X103.788 Y36.108 E4.96252
G1 X103.994 Y35.423 E4.98631
G0 F3600 X104.393 Y35.498
G1 F1200 X104.674 Y34.864 E5.00937
G1 X105.026 Y34.268 E5.03239
G1 X105.444 Y33.716 E5.05542
G1 X105.923 Y33.216 E5.07845
G1 X106.457 Y32.775 E5.10149
G1 X107.038 Y32.397 E5.12454
G1 X107.658 Y32.09 E5.14755
G1 X108.31 Y31.856 E5.17059
G1 X108.984 Y31.698 E5.19362
G1 X109.832 Y31.613 E5.22196
G1 X110.137 Y31.604 E5.23211
G1 X110.314 Y31.601 E5.238
G1 X124.289 Y31.6 E5.70281
G1 X124.375 Y31.601 E5.70567
G1 X125.076 Y31.611 E5.72899
G1 X125.766 Y31.66 E5.752
G1 X126.447 Y31.79 E5.77506
G1 X127.108 Y31.996 E5.79808
G1 X127.74 Y32.278 E5.8211
G1 X128.337 Y32.63 E5.84415
G1 X128.888 Y33.049 E5.86718
G1 X129.388 Y33.528 E5.8902
G1 X129.829 Y34.062 E5.91324
G1 X130.205 Y34.644 E5.93629
G1 X130.512 Y35.264 E5.9593
G1 X130.746 Y35.916 E5.98234
G1 X130.903 Y36.591 E6.00539
G1 X130.988 Y37.442 E6.03383
G1 X130.997 Y37.764 E6.04454
G1 X130.999 Y37.932 E6.05013
G1 X131 Y76.764 E7.34169
G1 X131 Y76.838 E7.34415
G1 X130.991 Y77.565 E7.36833
G1 X130.942 Y78.256 E7.39137
G1 X130.814 Y78.937 E7.41442
G1 X130.609 Y79.598 E7.43744
G1 X130.329 Y80.231 E7.46046
G1 X129.977 Y80.828 E7.48351
G1 X129.56 Y81.381 E7.50655
G1 X129.081 Y81.881 E7.52958
G1 X128.548 Y82.323 E7.55261
G1 X127.967 Y82.701 E7.57566
G1 X127.347 Y83.009 E7.59869
G1 X126.696 Y83.244 E7.62171
G1 X126.021 Y83.402 E7.64476
G1 X125.159 Y83.489 E7.67358
G1 X124.838 Y83.498 E7.68426
G1 X124.67 Y83.5 E7.68985
G1 X110.63 Y83.5 E8.15682
G1 X109.932 Y83.491 E8.18004
G1 X109.241 Y83.442 E8.20308
G1 X108.56 Y83.313 E8.22613
G1 X107.899 Y83.108 E8.24915
G1 X107.266 Y82.827 E8.27219
G1 X106.669 Y82.476 E8.29522
G1 X106.117 Y82.058 E8.31825
G1 X105.617 Y81.579 E8.34128
G1 X105.175 Y81.045 E8.36433
G1 X104.798 Y80.465 E8.38734
G1 X104.49 Y79.844 E8.4104
G1 X104.255 Y79.193 E8.43342
G1 X104.098 Y78.518 E8.45647
G1 X104.011 Y77.653 E8.48538
G1 X104.002 Y77.32 E8.49646
G1 X104 Y77.158 E8.50185
G1 X104 Y38.285 E9.79477
G1 X104.001 Y38.205 E9.79743
G1 X104.01 Y37.53 E9.81989
G1 X104.059 Y36.839 E9.84293
G1 X104.187 Y36.159 E9.86594
G1 X104.393 Y35.498 E9.88897
G0 F3600 X104.792 Y35.575
G1 F1200 X105.072 Y34.967 E9.91123
G1 X105.422 Y34.397 E9.93348
G1 X105.838 Y33.873 E9.95573
G1 X106.314 Y33.402 E9.978
G1 X106.842 Y32.992 E10.00024
G1 X107.415 Y32.647 E10.02248
G1 X108.025 Y32.373 E10.04473
G1 X108.664 Y32.174 E10.06699
G1 X109.322 Y32.052 E10.08924
G1 X109.844 Y32.012 E10.10666
G1 X110.149 Y32.003 E10.1168
G1 X110.314 Y32.001 E10.12229
G1 X124.289 Y32 E10.5871
G1 X124.369 Y32.001 E10.58976
G1 X125.07 Y32.011 E10.61308
G1 X125.737 Y32.06 E10.63533
G1 X126.394 Y32.189 E10.6576
G1 X127.03 Y32.395 E10.67983
G1 X127.637 Y32.675 E10.70206
G1 X128.207 Y33.026 E10.72433
G1 X128.731 Y33.443 E10.7466
G1 X129.201 Y33.919 E10.76885
G1 X129.611 Y34.447 E10.79109
G1 X129.955 Y35.021 E10.81334
G1 X130.229 Y35.631 E10.83558
G1 X130.427 Y36.27 E10.85783
G1 X130.548 Y36.928 E10.88009
G1 X130.588 Y37.454 E10.89763
G1 X130.597 Y37.776 E10.90835
G1 X130.599 Y37.932 E10.91353
G1 X130.6 Y76.764 E12.20509
G1 X130.6 Y76.833 E12.20739
G1 X130.591 Y77.56 E12.23157
G1 X130.542 Y78.228 E12.25385
G1 X130.415 Y78.884 E12.27607
G1 X130.21 Y79.521 E12.29833
G1 X129.931 Y80.129 E12.32058
G1 X129.581 Y80.699 E12.34282
G1 X129.165 Y81.224 E12.3651
G1 X128.69 Y81.695 E12.38735
G1 X128.163 Y82.106 E12.40958
G1 X127.59 Y82.452 E12.43184
G1 X126.98 Y82.726 E12.45408
G1 X126.341 Y82.926 E12.47635
G1 X125.683 Y83.048 E12.49861
G1 X125.148 Y83.089 E12.51646
G1 X124.827 Y83.098 E12.52714
G1 X124.67 Y83.1 E12.53236
G1 X110.635 Y83.1 E12.99917
G1 X109.937 Y83.091 E13.02239
G1 X109.27 Y83.042 E13.04463
G1 X108.613 Y82.914 E13.06689
G1 X107.976 Y82.709 E13.08915
G1 X107.368 Y82.429 E13.11141
G1 X106.798 Y82.079 E13.13366
G1 X106.274 Y81.663 E13.15591
G1 X105.803 Y81.188 E13.17816
G1 X105.392 Y80.66 E13.20042
G1 X105.047 Y80.087 E13.22266
G1 X104.773 Y79.477 E13.2449
G1 X104.573 Y78.838 E13.26717
G1 X104.452 Y78.18 E13.28943
G1 X104.411 Y77.642 E13.30737
G1 X104.402 Y77.309 E13.31845
G1 X104.4 Y77.158 E13.32347
G1 X104.4 Y38.21 E14.61889
G1 X104.409 Y37.535 E14.64134
G1 X104.458 Y36.868 E14.66359
G1 X104.586 Y36.211 E14.68585
G1 X104.792 Y35.575 E14.70808
G0 F3600 X105.191 Y35.655
G1 F1200 X105.47 Y35.074 E14.72952
G1 X105.818 Y34.531 E14.75097
G1 X106.231 Y34.036 E14.77241
G1 X106.703 Y33.596 E14.79388
G1 X107.225 Y33.218 E14.81531
G1 X107.79 Y32.907 E14.83676
G1 X108.388 Y32.669 E14.85817
G1 X109.012 Y32.506 E14.87962
G1 X109.856 Y32.412 E14.90786
G1 X110.161 Y32.403 E14.91801
G1 X110.314 Y32.401 E14.9231
G1 X124.289 Y32.4 E15.38791
G1 X124.363 Y32.401 E15.39037
G1 X125.064 Y32.411 E15.41369
G1 X125.707 Y32.46 E15.43514
G1 X126.339 Y32.588 E15.45659
G1 X126.95 Y32.793 E15.47802
G1 X127.531 Y33.073 E15.49947
G1 X128.073 Y33.422 E15.52092
G1 X128.567 Y33.836 E15.54235
G1 X129.007 Y34.307 E15.56379
G1 X129.384 Y34.83 E15.58523
G1 X129.695 Y35.395 E15.60668
G1 X129.933 Y35.994 E15.62812
G1 X130.095 Y36.618 E15.64956
G1 X130.188 Y37.465 E15.67791
G1 X130.197 Y37.787 E15.68862
G1 X130.199 Y37.932 E15.69344
G1 X130.2 Y76.764 E16.985
G1 X130.2 Y76.828 E16.98713
G1 X130.191 Y77.555 E17.01131
G1 X130.143 Y78.198 E17.03276
G1 X130.016 Y78.83 E17.0542
G1 X129.811 Y79.442 E17.07566
G1 X129.533 Y80.023 E17.09709
G1 X129.185 Y80.566 E17.11854
G1 X128.772 Y81.061 E17.13998
G1 X128.301 Y81.501 E17.16142
G1 X127.779 Y81.88 E17.18287
G1 X127.215 Y82.191 E17.20429
G1 X126.616 Y82.43 E17.22574
G1 X125.993 Y82.594 E17.24717
G1 X125.137 Y82.689 E17.27582
G1 X124.816 Y82.698 E17.2865
G1 X124.67 Y82.7 E17.29135
G1 X110.64 Y82.7 E17.75799
G1 X109.942 Y82.691 E17.78121
G1 X109.299 Y82.642 E17.80266
G1 X108.667 Y82.515 E17.8241
G1 X108.056 Y82.31 E17.84553
G1 X107.475 Y82.032 E17.86696
G1 X106.932 Y81.683 E17.88843
G1 X106.437 Y81.27 E17.90987
G1 X105.997 Y80.799 E17.93131
G1 X105.618 Y80.277 E17.95276
G1 X105.307 Y79.713 E17.97418
G1 X105.069 Y79.114 E17.99562
G1 X104.906 Y78.49 E18.01707
G1 X104.811 Y77.631 E18.04582
G1 X104.802 Y77.298 E18.0569
G1 X104.8 Y77.158 E18.06155
G1 X104.8 Y38.216 E19.35677
G1 X104.809 Y37.541 E19.37922
G1 X104.858 Y36.898 E19.40067
G1 X104.986 Y36.266 E19.42212
G1 X105.191 Y35.655 E19.44355
G1 F2400 E16.94355
;MESH:Projet cr??perie cale.STL
G0 F3600 X109.335 Y38.215
G0 X110.614 Y38.215
G0 X110.67 Y76.83
G0 X110.6 Y76.9
;TYPE:WALL-INNER
G1 F2400 E19.44355
G1 F1200 X110.6 Y38.201 E20.73069
G1 X124.2 Y38.2 E21.18302
G1 X124.4 Y38.2 E21.18968
G1 X124.4 Y38.4 E21.19398
G1 X124.4 Y76.9 E22.4745
G1 X110.6 Y76.9 E22.93349
G0 F3600 X110.2 Y77.3
;TYPE:WALL-OUTER
G1 F1200 X110.2 Y37.801 E24.24723
G1 X124.6 Y37.8 E24.72618
G1 X124.8 Y37.8 E24.73283
G1 X124.8 Y38 E24.73713
G1 X124.8 Y77.3 E26.04426
G1 X110.2 Y77.3 E26.52986
G0 F3600 X110.2 Y77.1
G0 X110.99 Y76.51
;TYPE:SKIN
G1 F1200 X110.99 Y38.591 E27.79105
G1 X124.01 Y38.59 E28.22409
G1 X124.01 Y76.51 E29.48532
G1 X110.99 Y76.51 E29.91837
G0 F3600 X111.402 Y76.33
G1 F1200 X111.169 Y76.096 E29.92935
G0 F3600 X111.169 Y75.531
G1 F1200 X111.968 Y76.33 E29.96693
G0 F3600 X112.533 Y76.33
G1 F1200 X111.169 Y74.965 E30.03111
G0 F3600 X111.169 Y74.399
G1 F1200 X113.099 Y76.33 E30.12192
G0 F3600 X113.665 Y76.33
G1 F1200 X111.169 Y73.833 E30.23935
G0 F3600 X111.169 Y73.268
G1 F1200 X114.23 Y76.33 E30.38335
G0 F3600 X114.796 Y76.33
G1 F1200 X111.169 Y72.702 E30.55398
G0 F3600 X111.169 Y72.136
G1 F1200 X115.362 Y76.33 E30.75122
G0 F3600 X115.928 Y76.33
G1 F1200 X111.169 Y71.571 E30.97507
G0 F3600 X111.169 Y71.005
G1 F1200 X116.493 Y76.33 E31.22552
G0 F3600 X117.059 Y76.33
G1 F1200 X111.169 Y70.439 E31.50259
G0 F3600 X111.169 Y69.874
G1 F1200 X117.625 Y76.33 E31.80626
G0 F3600 X118.19 Y76.33
G1 F1200 X111.169 Y69.308 E32.13653
G0 F3600 X111.169 Y68.742
G1 F1200 X118.756 Y76.33 E32.49343
G0 F3600 X119.322 Y76.33
G1 F1200 X111.169 Y68.177 E32.87692
G0 F3600 X111.169 Y67.611
G1 F1200 X119.887 Y76.33 E33.28701
G0 F3600 X120.453 Y76.33
G1 F1200 X111.169 Y67.045 E33.72372
G0 F3600 X111.169 Y66.48
G1 F1200 X121.019 Y76.33 E34.18704
G0 F3600 X121.584 Y76.33
G1 F1200 X111.169 Y65.914 E34.67695
G0 F3600 X111.169 Y65.348
G1 F1200 X122.15 Y76.33 E35.19349
G0 F3600 X122.716 Y76.33
G1 F1200 X111.169 Y64.783 E35.73662
G0 F3600 X111.169 Y64.217
G1 F1200 X123.281 Y76.33 E36.30636
G0 F3600 X123.829 Y76.311
G1 F1200 X111.169 Y63.651 E36.90185
G0 F3600 X111.169 Y63.085
G1 F1200 X123.829 Y75.745 E37.49733
G0 F3600 X123.829 Y75.18
G1 F1200 X111.169 Y62.52 E38.09282
G0 F3600 X111.169 Y61.954
G1 F1200 X123.829 Y74.614 E38.68831
G0 F3600 X123.829 Y74.048
G1 F1200 X111.169 Y61.388 E39.2838
G0 F3600 X111.169 Y60.823
G1 F1200 X123.829 Y73.483 E39.87928
G0 F3600 X123.829 Y72.917
G1 F1200 X111.169 Y60.257 E40.47477
G0 F3600 X111.169 Y59.691
G1 F1200 X123.829 Y72.351 E41.07026
G0 F3600 X123.829 Y71.786
G1 F1200 X111.169 Y59.126 E41.66575
G0 F3600 X111.169 Y58.56
G1 F1200 X123.829 Y71.22 E42.26123
G0 F3600 X123.829 Y70.654
G1 F1200 X111.169 Y57.994 E42.85672
G0 F3600 X111.169 Y57.429
G1 F1200 X123.829 Y70.089 E43.45221
G0 F3600 X123.829 Y69.523
G1 F1200 X111.169 Y56.863 E44.0477
G0 F3600 X111.169 Y56.297
G1 F1200 X123.829 Y68.957 E44.64318
G0 F3600 X123.829 Y68.392
G1 F1200 X111.169 Y55.732 E45.23867
G0 F3600 X111.169 Y55.166
G1 F1200 X123.829 Y67.826 E45.83416
G0 F3600 X123.829 Y67.26
G1 F1200 X111.169 Y54.6 E46.42965
G0 F3600 X111.169 Y54.034
G1 F1200 X123.829 Y66.695 E47.02516
G0 F3600 X123.829 Y66.129
G1 F1200 X111.169 Y53.469 E47.62065
G0 F3600 X111.169 Y52.903
G1 F1200 X123.829 Y65.563 E48.21613
G0 F3600 X123.829 Y64.997
G1 F1200 X111.169 Y52.337 E48.81162
G0 F3600 X111.169 Y51.772
G1 F1200 X123.829 Y64.432 E49.40711
G0 F3600 X123.829 Y63.866
G1 F1200 X111.169 Y51.206 E50.0026
G0 F3600 X111.169 Y50.64
G1 F1200 X123.829 Y63.3 E50.59808
G0 F3600 X123.829 Y62.735
G1 F1200 X111.169 Y50.075 E51.19357
G0 F3600 X111.169 Y49.509
G1 F1200 X123.829 Y62.169 E51.78906
G0 F3600 X123.829 Y61.603
G1 F1200 X111.169 Y48.943 E52.38455
G0 F3600 X111.169 Y48.378
G1 F1200 X123.829 Y61.038 E52.98003
G0 F3600 X123.829 Y60.472
G1 F1200 X111.169 Y47.812 E53.57552
G0 F3600 X111.169 Y47.246
G1 F1200 X123.829 Y59.906 E54.17101
G0 F3600 X123.829 Y59.341
G1 F1200 X111.169 Y46.681 E54.7665
G0 F3600 X111.169 Y46.115
G1 F1200 X123.829 Y58.775 E55.36198
G0 F3600 X123.829 Y58.209
G1 F1200 X111.169 Y45.549 E55.95747
G0 F3600 X111.169 Y44.984
G1 F1200 X123.829 Y57.644 E56.55296
G0 F3600 X123.829 Y57.078
G1 F1200 X111.169 Y44.418 E57.14845
G0 F3600 X111.169 Y43.852
G1 F1200 X123.829 Y56.512 E57.74393
G0 F3600 X123.829 Y55.946
G1 F1200 X111.169 Y43.286 E58.33942
G0 F3600 X111.169 Y42.721
G1 F1200 X123.829 Y55.381 E58.93491
G0 F3600 X123.829 Y54.815
G1 F1200 X111.169 Y42.155 E59.5304
G0 F3600 X111.169 Y41.589
G1 F1200 X123.829 Y54.249 E60.12588
G0 F3600 X123.829 Y53.684
G1 F1200 X111.169 Y41.024 E60.72137
G0 F3600 X111.169 Y40.458
G1 F1200 X123.829 Y53.118 E61.31686
G0 F3600 X123.829 Y52.552
G1 F1200 X111.169 Y39.892 E61.91235
G0 F3600 X111.169 Y39.327
G1 F1200 X123.829 Y51.987 E62.50783
G0 F3600 X123.829 Y51.421
G1 F1200 X111.179 Y38.771 E63.10285
G0 F3600 X111.744 Y38.771
G1 F1200 X123.829 Y50.855 E63.67127
G0 F3600 X123.829 Y50.29
G1 F1200 X112.31 Y38.771 E64.21309
G0 F3600 X112.876 Y38.771
G1 F1200 X123.829 Y49.724 E64.72828
G0 F3600 X123.829 Y49.158
G1 F1200 X113.441 Y38.771 E65.21688
G0 F3600 X114.007 Y38.771
G1 F1200 X123.829 Y48.593 E65.67888
G0 F3600 X123.829 Y48.027
G1 F1200 X114.573 Y38.771 E66.11425
G0 F3600 X115.138 Y38.771
G1 F1200 X123.829 Y47.461 E66.52302
G0 F3600 X123.829 Y46.896
G1 F1200 X115.704 Y38.771 E66.9052
G0 F3600 X116.27 Y38.771
G1 F1200 X123.829 Y46.33 E67.26075
G0 F3600 X123.829 Y45.764
G1 F1200 X116.835 Y38.771 E67.58971
G0 F3600 X117.401 Y38.771
G1 F1200 X123.829 Y45.198 E67.89203
G0 F3600 X123.829 Y44.633
G1 F1200 X117.966 Y38.77 E68.16781
G0 F3600 X118.532 Y38.77
G1 F1200 X123.829 Y44.067 E68.41697
G0 F3600 X123.829 Y43.501
G1 F1200 X119.097 Y38.77 E68.63952
G0 F3600 X119.663 Y38.77
G1 F1200 X123.829 Y42.936 E68.83548
G0 F3600 X123.829 Y42.37
G1 F1200 X120.229 Y38.77 E69.00481
G0 F3600 X120.795 Y38.77
G1 F1200 X123.829 Y41.804 E69.14752
G0 F3600 X123.829 Y41.239
G1 F1200 X121.36 Y38.77 E69.26366
G0 F3600 X121.926 Y38.77
G1 F1200 X123.829 Y40.673 E69.35317
G0 F3600 X123.829 Y40.107
G1 F1200 X122.492 Y38.77 E69.41606
G0 F3600 X123.057 Y38.77
G1 F1200 X123.829 Y39.542 E69.45237
G0 F3600 X123.829 Y38.976
G1 F1200 X123.623 Y38.77 E69.46206
;MESH:NONMESH
G0 F3600 X110.67 Y76.83
G0 X110.6 Y76.9
;TIME_ELAPSED:115.814463
;LAYER:1
M140 S60
M106 S25.5
;MESH:Projet cr??perie cale.STL
