;FLAVOR:Marlin
;TIME:2610
;Filament used: 1.50151m
;Layer height: 0.15
;MINX:101.122
;MINY:101.122
;MINZ:0.2
;MAXX:133.878
;MAXY:133.878
;MAXZ:47
;Generated with Cura_SteamEngine 4.1.0
M140 S70
M105
M190 S70
M104 S250
M105
M109 S250
M82 ;absolute extrusion mode
; Ender 3 Custom Start G-code
G28 ; Home all axes
G92 E0 ; Reset Extruder
G1 Z2.0 F3000 ; Move Z Axis up little to prevent scratching of Heat Bed
G1 X0.1 Y20 Z0.3 F5000.0 ; Move to start position
G1 X0.1 Y200.0 Z0.3 F1500.0 E15 ; Draw the first line
G1 X0.4 Y200.0 Z0.3 F5000.0 ; Move to side a little
G1 X0.4 Y20 Z0.3 F1500.0 E30 ; Draw the second line
G92 E0 ; Reset Extruder
G1 Z2.0 F3000 ; Move Z Axis up little to prevent scratching of Heat Bed
; End of custom start GCode
G92 E0
G92 E0
G1 F2400 E-2.5
;LAYER_COUNT:313
;LAYER:0
M107
M204 S500
M205 X10 Y10
G0 F2400 X105.921 Y105.927 Z0.2
;TYPE:SKIRT
G1 F2400 E0
G1 F1200 X106.457 Y105.402 E0.02495
G1 X107.008 Y104.921 E0.04928
G1 X107.569 Y104.485 E0.07291
G1 X107.712 Y104.376 E0.07889
G1 X108.285 Y103.956 E0.10252
G1 X108.911 Y103.551 E0.12732
G1 X109.565 Y103.18 E0.15233
G1 X109.716 Y103.098 E0.15804
G1 X110.304 Y102.785 E0.1802
G1 X110.96 Y102.482 E0.20423
G1 X111.646 Y102.211 E0.22877
G1 X111.837 Y102.139 E0.23555
G1 X112.484 Y101.907 E0.25842
G1 X113.17 Y101.703 E0.28222
G1 X113.901 Y101.53 E0.3072
G1 X114.08 Y101.49 E0.3133
G1 X114.753 Y101.351 E0.33616
G1 X115.482 Y101.244 E0.36067
G1 X116.191 Y101.181 E0.38434
G1 X116.371 Y101.168 E0.39034
G1 X117.083 Y101.125 E0.41407
G1 X117.809 Y101.122 E0.43822
G1 X118.504 Y101.159 E0.46136
G1 X118.683 Y101.171 E0.46733
G1 X119.396 Y101.229 E0.49112
G1 X120.117 Y101.329 E0.51533
G1 X120.851 Y101.474 E0.54022
G1 X121.053 Y101.518 E0.54709
G1 X121.723 Y101.673 E0.56997
G1 X122.405 Y101.871 E0.59359
G1 X123.087 Y102.111 E0.61763
G1 X123.259 Y102.174 E0.62373
G1 X123.907 Y102.423 E0.64682
G1 X124.571 Y102.723 E0.67105
G1 X125.194 Y103.048 E0.69442
G1 X125.359 Y103.137 E0.70066
G1 X125.988 Y103.489 E0.72463
G1 X126.606 Y103.883 E0.74901
G1 X127.212 Y104.32 E0.77386
G1 X127.372 Y104.439 E0.78049
G1 X127.897 Y104.843 E0.80252
G1 X128.412 Y105.285 E0.82509
G1 X128.936 Y105.785 E0.84918
G1 X129.096 Y105.943 E0.85666
G1 X129.604 Y106.463 E0.88084
G1 X130.079 Y107.008 E0.90489
G1 X130.515 Y107.569 E0.92852
G1 X130.624 Y107.712 E0.9345
G1 X131.044 Y108.285 E0.95813
G1 X131.443 Y108.901 E0.98254
G1 X131.803 Y109.533 E1.00673
G1 X131.893 Y109.696 E1.01292
G1 X132.219 Y110.309 E1.03602
G1 X132.525 Y110.974 E1.06036
G1 X132.8 Y111.674 E1.08538
G1 X132.868 Y111.855 E1.09181
G1 X133.097 Y112.494 E1.11439
G1 X133.3 Y113.181 E1.13821
G1 X133.464 Y113.875 E1.16193
G1 X133.504 Y114.056 E1.1681
G1 X133.648 Y114.755 E1.19183
G1 X133.754 Y115.472 E1.21594
G1 X133.818 Y116.183 E1.23968
G1 X133.832 Y116.368 E1.24585
G1 X133.875 Y117.074 E1.26938
G1 X133.878 Y117.8 E1.29353
G1 X133.841 Y118.501 E1.31687
G1 X133.829 Y118.684 E1.32297
G1 X133.771 Y119.395 E1.3467
G1 X133.671 Y120.112 E1.37078
G1 X133.526 Y120.848 E1.39573
G1 X133.483 Y121.051 E1.40263
G1 X133.329 Y121.718 E1.4254
G1 X133.13 Y122.402 E1.44909
G1 X132.889 Y123.087 E1.47324
G1 X132.824 Y123.265 E1.47955
G1 X132.575 Y123.911 E1.50257
G1 X132.282 Y124.561 E1.52629
G1 X131.954 Y125.192 E1.54994
G1 X131.861 Y125.363 E1.55641
G1 X131.511 Y125.989 E1.58027
G1 X131.113 Y126.613 E1.60488
G1 X130.658 Y127.243 E1.63073
G1 X130.537 Y127.405 E1.63746
G1 X130.132 Y127.93 E1.65951
G1 X129.671 Y128.464 E1.68297
G1 X129.208 Y128.944 E1.70516
G1 X129.072 Y129.081 E1.71158
G1 X128.533 Y129.607 E1.73663
G1 X127.993 Y130.078 E1.76046
G1 X127.434 Y130.513 E1.78402
G1 X127.288 Y130.624 E1.79012
G1 X126.715 Y131.044 E1.81375
G1 X126.089 Y131.449 E1.83854
G1 X125.435 Y131.82 E1.86355
G1 X125.284 Y131.902 E1.86927
G1 X124.696 Y132.215 E1.89142
G1 X124.04 Y132.518 E1.91546
G1 X123.354 Y132.789 E1.93999
G1 X123.163 Y132.861 E1.94678
G1 X122.516 Y133.093 E1.96964
G1 X121.83 Y133.297 E1.99344
G1 X121.099 Y133.47 E2.01843
G1 X120.92 Y133.51 E2.02453
G1 X120.247 Y133.649 E2.04738
G1 X119.518 Y133.756 E2.07189
G1 X118.809 Y133.819 E2.09557
G1 X118.629 Y133.832 E2.10157
G1 X117.917 Y133.875 E2.12529
G1 X117.191 Y133.878 E2.14944
G1 X116.496 Y133.841 E2.17259
G1 X116.317 Y133.829 E2.17855
G1 X115.604 Y133.771 E2.20235
G1 X114.879 Y133.67 E2.22669
G1 X114.142 Y133.524 E2.25168
G1 X113.946 Y133.482 E2.25835
G1 X113.279 Y133.328 E2.28112
G1 X112.595 Y133.129 E2.30481
G1 X111.913 Y132.889 E2.32886
G1 X111.741 Y132.826 E2.33495
G1 X111.093 Y132.577 E2.35804
G1 X110.429 Y132.277 E2.38227
G1 X109.806 Y131.952 E2.40564
G1 X109.641 Y131.863 E2.41188
G1 X109.012 Y131.511 E2.43585
G1 X108.394 Y131.117 E2.46023
G1 X107.788 Y130.68 E2.48508
G1 X107.635 Y130.566 E2.49143
G1 X107.102 Y130.157 E2.51377
G1 X106.567 Y129.698 E2.53722
G1 X106.051 Y129.203 E2.561
G1 X105.904 Y129.058 E2.56787
G1 X105.394 Y128.536 E2.59214
G1 X104.917 Y127.988 E2.6163
G1 X104.483 Y127.429 E2.63984
G1 X104.374 Y127.285 E2.64585
G1 X103.953 Y126.71 E2.66955
G1 X103.554 Y126.094 E2.69396
G1 X103.183 Y125.442 E2.71891
G1 X103.096 Y125.282 E2.72497
G1 X102.779 Y124.686 E2.74742
G1 X102.47 Y124.015 E2.77199
G1 X102.179 Y123.272 E2.79853
G1 X102.109 Y123.086 E2.80514
G1 X101.897 Y122.491 E2.82615
G1 X101.697 Y121.813 E2.84966
G1 X101.537 Y121.135 E2.87283
G1 X101.497 Y120.954 E2.879
G1 X101.35 Y120.239 E2.90328
G1 X101.244 Y119.518 E2.92751
G1 X101.181 Y118.811 E2.95112
G1 X101.168 Y118.628 E2.95722
G1 X101.125 Y117.915 E2.98098
G1 X101.122 Y117.189 E3.00513
G1 X101.159 Y116.495 E3.02824
G1 X101.171 Y116.317 E3.03418
G1 X101.229 Y115.604 E3.05797
G1 X101.329 Y114.883 E3.08218
G1 X101.474 Y114.149 E3.10707
G1 X101.517 Y113.949 E3.11387
G1 X101.671 Y113.282 E3.13664
G1 X101.87 Y112.598 E3.16033
G1 X102.111 Y111.913 E3.18448
G1 X102.175 Y111.738 E3.19068
G1 X102.426 Y111.086 E3.21392
G1 X102.726 Y110.423 E3.23812
G1 X103.046 Y109.81 E3.26112
G1 X103.13 Y109.653 E3.26704
G1 X103.481 Y109.024 E3.291
G1 X103.88 Y108.398 E3.31569
G1 X104.349 Y107.748 E3.34235
G1 X104.475 Y107.58 E3.34934
G1 X104.859 Y107.083 E3.37023
G1 X105.301 Y106.569 E3.39277
G1 X105.777 Y106.072 E3.41566
G1 X105.921 Y105.927 E3.42246
G0 F2400 X106.201 Y106.213
G1 F1200 X106.737 Y105.688 E3.44741
G1 X107.253 Y105.237 E3.47021
G1 X107.814 Y104.801 E3.49384
G1 X107.949 Y104.699 E3.49947
G1 X108.522 Y104.279 E3.52309
G1 X109.109 Y103.899 E3.54635
G1 X109.763 Y103.528 E3.57136
G1 X109.904 Y103.451 E3.5767
G1 X110.492 Y103.138 E3.59886
G1 X111.107 Y102.854 E3.62139
G1 X111.793 Y102.583 E3.64592
G1 X111.972 Y102.515 E3.65229
G1 X112.619 Y102.283 E3.67515
G1 X113.262 Y102.092 E3.69746
G1 X113.993 Y101.919 E3.72245
G1 X114.161 Y101.882 E3.72817
G1 X114.834 Y101.743 E3.75102
G1 X115.517 Y101.643 E3.77398
G1 X116.226 Y101.58 E3.79766
G1 X116.395 Y101.567 E3.8033
G1 X117.107 Y101.524 E3.82702
G1 X117.788 Y101.521 E3.84967
G1 X118.483 Y101.558 E3.87282
G1 X118.65 Y101.57 E3.87839
G1 X119.363 Y101.628 E3.90218
G1 X120.04 Y101.722 E3.92491
G1 X120.774 Y101.867 E3.9498
G1 X120.963 Y101.907 E3.95622
G1 X121.633 Y102.062 E3.9791
G1 X122.273 Y102.248 E4.00126
G1 X122.955 Y102.488 E4.02531
G1 X123.115 Y102.547 E4.03098
G1 X123.763 Y102.796 E4.05407
G1 X124.386 Y103.077 E4.0768
G1 X125.009 Y103.402 E4.10017
G1 X125.164 Y103.486 E4.10604
G1 X125.793 Y103.838 E4.13001
G1 X126.372 Y104.207 E4.15285
G1 X126.978 Y104.644 E4.1777
G1 X127.128 Y104.756 E4.18392
G1 X127.653 Y105.16 E4.20596
G1 X128.136 Y105.574 E4.22711
G1 X128.66 Y106.074 E4.2512
G1 X128.81 Y106.222 E4.25821
G1 X129.318 Y106.742 E4.28239
G1 X129.763 Y107.253 E4.30493
G1 X130.199 Y107.814 E4.32856
G1 X130.301 Y107.949 E4.33419
G1 X130.721 Y108.522 E4.35782
G1 X131.096 Y109.099 E4.38071
G1 X131.456 Y109.731 E4.4049
G1 X131.539 Y109.884 E4.41069
G1 X131.865 Y110.497 E4.43378
G1 X132.153 Y111.12 E4.45661
G1 X132.428 Y111.82 E4.48162
G1 X132.491 Y111.99 E4.48765
G1 X132.72 Y112.629 E4.51023
G1 X132.911 Y113.273 E4.53257
G1 X133.075 Y113.967 E4.55629
G1 X133.113 Y114.136 E4.56205
G1 X133.257 Y114.835 E4.58579
G1 X133.356 Y115.508 E4.60841
G1 X133.42 Y116.219 E4.63215
G1 X133.433 Y116.392 E4.63792
G1 X133.476 Y117.098 E4.66145
G1 X133.479 Y117.779 E4.6841
G1 X133.442 Y118.48 E4.70745
G1 X133.43 Y118.652 E4.71318
G1 X133.372 Y119.363 E4.73691
G1 X133.279 Y120.035 E4.75947
G1 X133.134 Y120.771 E4.78442
G1 X133.093 Y120.961 E4.79089
G1 X132.939 Y121.628 E4.81366
G1 X132.753 Y122.269 E4.83586
G1 X132.512 Y122.954 E4.86001
G1 X132.451 Y123.121 E4.86592
G1 X132.202 Y123.767 E4.88895
G1 X131.927 Y124.376 E4.91117
G1 X131.599 Y125.007 E4.93483
G1 X131.512 Y125.168 E4.94091
G1 X131.162 Y125.794 E4.96477
G1 X130.789 Y126.379 E4.98784
G1 X130.334 Y127.009 E5.01369
G1 X130.221 Y127.161 E5.01999
G1 X129.816 Y127.686 E5.04204
G1 X129.383 Y128.186 E5.06404
G1 X128.92 Y128.666 E5.08622
G1 X128.793 Y128.795 E5.09224
G1 X128.254 Y129.321 E5.11729
G1 X127.748 Y129.762 E5.13962
G1 X127.189 Y130.197 E5.16318
G1 X127.051 Y130.301 E5.16892
G1 X126.478 Y130.721 E5.19255
G1 X125.891 Y131.101 E5.21581
G1 X125.237 Y131.472 E5.24082
G1 X125.096 Y131.549 E5.24616
G1 X124.508 Y131.862 E5.26832
G1 X123.893 Y132.146 E5.29085
G1 X123.207 Y132.417 E5.31538
G1 X123.028 Y132.485 E5.32175
G1 X122.381 Y132.717 E5.34461
G1 X121.738 Y132.908 E5.36692
G1 X121.007 Y133.081 E5.3919
G1 X120.839 Y133.118 E5.39763
G1 X120.166 Y133.257 E5.42048
G1 X119.483 Y133.357 E5.44344
G1 X118.774 Y133.42 E5.46712
G1 X118.605 Y133.433 E5.47275
G1 X117.893 Y133.476 E5.49648
G1 X117.212 Y133.479 E5.51913
G1 X116.517 Y133.442 E5.54228
G1 X116.35 Y133.43 E5.54785
G1 X115.637 Y133.372 E5.57164
G1 X114.957 Y133.278 E5.59447
G1 X114.22 Y133.132 E5.61946
G1 X114.036 Y133.092 E5.62572
G1 X113.369 Y132.938 E5.64849
G1 X112.727 Y132.752 E5.67072
G1 X112.045 Y132.512 E5.69477
G1 X111.885 Y132.453 E5.70044
G1 X111.237 Y132.204 E5.72353
G1 X110.614 Y131.923 E5.74626
G1 X109.991 Y131.598 E5.76963
G1 X109.836 Y131.514 E5.7755
G1 X109.207 Y131.162 E5.79947
G1 X108.628 Y130.793 E5.82231
G1 X108.022 Y130.356 E5.84716
G1 X107.878 Y130.249 E5.85312
G1 X107.345 Y129.84 E5.87547
G1 X106.844 Y129.41 E5.89743
G1 X106.328 Y128.915 E5.92121
G1 X106.19 Y128.778 E5.92768
G1 X105.68 Y128.256 E5.95195
G1 X105.233 Y127.743 E5.97458
G1 X104.799 Y127.184 E5.99812
G1 X104.697 Y127.049 E6.00375
G1 X104.276 Y126.474 E6.02745
G1 X103.902 Y125.896 E6.05035
G1 X103.531 Y125.244 E6.0753
G1 X103.449 Y125.095 E6.08095
G1 X103.132 Y124.499 E6.10341
G1 X102.842 Y123.869 E6.12647
G1 X102.551 Y123.126 E6.15301
G1 X102.486 Y122.952 E6.15919
G1 X102.274 Y122.357 E6.1802
G1 X102.086 Y121.721 E6.20226
G1 X101.926 Y121.043 E6.22543
G1 X101.889 Y120.873 E6.23121
G1 X101.742 Y120.158 E6.25549
G1 X101.643 Y119.483 E6.27818
G1 X101.58 Y118.776 E6.30179
G1 X101.567 Y118.604 E6.30753
G1 X101.524 Y117.891 E6.33129
G1 X101.522 Y117.211 E6.3539
G1 X101.559 Y116.517 E6.37702
G1 X101.57 Y116.35 E6.38259
G1 X101.628 Y115.637 E6.40638
G1 X101.722 Y114.96 E6.42911
G1 X101.867 Y114.226 E6.454
G1 X101.907 Y114.039 E6.46036
G1 X102.061 Y113.372 E6.48312
G1 X102.247 Y112.731 E6.50532
G1 X102.488 Y112.046 E6.52948
G1 X102.549 Y111.881 E6.53533
G1 X102.8 Y111.229 E6.55856
G1 X103.08 Y110.608 E6.58122
G1 X103.4 Y109.995 E6.60422
G1 X103.48 Y109.848 E6.60979
G1 X103.831 Y109.219 E6.63374
G1 X104.204 Y108.632 E6.65688
G1 X104.673 Y107.982 E6.68354
G1 X104.791 Y107.825 E6.69007
G1 X105.175 Y107.328 E6.71096
G1 X105.59 Y106.846 E6.73211
G1 X106.066 Y106.349 E6.755
G1 X106.201 Y106.213 E6.76137
G0 F2400 X106.48 Y106.498
G1 F1200 X107.016 Y105.973 E6.78633
G1 X107.499 Y105.552 E6.80764
G1 X108.06 Y105.116 E6.83127
G1 X108.185 Y105.021 E6.83649
G1 X108.758 Y104.601 E6.86012
G1 X109.306 Y104.247 E6.88182
G1 X109.96 Y103.876 E6.90683
G1 X110.092 Y103.804 E6.91183
G1 X110.68 Y103.491 E6.93399
G1 X111.253 Y103.226 E6.95498
G1 X111.939 Y102.955 E6.97952
G1 X112.107 Y102.892 E6.98548
G1 X112.754 Y102.66 E7.00834
G1 X113.354 Y102.482 E7.02916
G1 X114.085 Y102.309 E7.05414
G1 X114.242 Y102.274 E7.05949
G1 X114.915 Y102.135 E7.08235
G1 X115.552 Y102.041 E7.10377
G1 X116.261 Y101.978 E7.12744
G1 X116.419 Y101.966 E7.13271
G1 X117.131 Y101.923 E7.15644
G1 X117.767 Y101.921 E7.17759
G1 X118.462 Y101.958 E7.20074
G1 X118.618 Y101.968 E7.20594
G1 X119.331 Y102.026 E7.22973
G1 X119.962 Y102.114 E7.25092
G1 X120.696 Y102.259 E7.27581
G1 X120.873 Y102.297 E7.28183
G1 X121.543 Y102.452 E7.3047
G1 X122.14 Y102.626 E7.32538
G1 X122.822 Y102.866 E7.34943
G1 X122.972 Y102.921 E7.35474
G1 X123.62 Y103.17 E7.37783
G1 X124.201 Y103.432 E7.39903
G1 X124.824 Y103.757 E7.4224
G1 X124.969 Y103.835 E7.42788
G1 X125.598 Y104.187 E7.45185
G1 X126.138 Y104.532 E7.47316
G1 X126.744 Y104.969 E7.49801
G1 X126.884 Y105.073 E7.50381
G1 X127.409 Y105.477 E7.52585
G1 X127.86 Y105.864 E7.54561
G1 X128.384 Y106.364 E7.5697
G1 X128.524 Y106.502 E7.57624
G1 X129.032 Y107.022 E7.60042
G1 X129.448 Y107.499 E7.62147
G1 X129.884 Y108.06 E7.6451
G1 X129.979 Y108.185 E7.65032
G1 X130.399 Y108.758 E7.67395
G1 X130.748 Y109.297 E7.69531
G1 X131.108 Y109.929 E7.7195
G1 X131.186 Y110.072 E7.72492
G1 X131.512 Y110.685 E7.74801
G1 X131.78 Y111.266 E7.76929
G1 X132.055 Y111.966 E7.79431
G1 X132.115 Y112.125 E7.79996
G1 X132.344 Y112.764 E7.82254
G1 X132.522 Y113.365 E7.84338
G1 X132.686 Y114.059 E7.8671
G1 X132.721 Y114.217 E7.87248
G1 X132.865 Y114.916 E7.89622
G1 X132.957 Y115.544 E7.91733
G1 X133.021 Y116.255 E7.94108
G1 X133.034 Y116.417 E7.94648
G1 X133.077 Y117.123 E7.97001
G1 X133.079 Y117.758 E7.99113
G1 X133.042 Y118.459 E8.01447
G1 X133.031 Y118.619 E8.01981
G1 X132.973 Y119.33 E8.04353
G1 X132.886 Y119.957 E8.06459
G1 X132.741 Y120.693 E8.08954
G1 X132.703 Y120.871 E8.09559
G1 X132.549 Y121.538 E8.11836
G1 X132.376 Y122.137 E8.1391
G1 X132.135 Y122.822 E8.16325
G1 X132.077 Y122.977 E8.16875
G1 X131.828 Y123.623 E8.19178
G1 X131.572 Y124.192 E8.21253
G1 X131.244 Y124.823 E8.23619
G1 X131.163 Y124.973 E8.24186
G1 X130.813 Y125.599 E8.26571
G1 X130.465 Y126.145 E8.28725
G1 X130.01 Y126.775 E8.31309
G1 X129.904 Y126.916 E8.31896
G1 X129.499 Y127.441 E8.34101
G1 X129.096 Y127.909 E8.36156
G1 X128.633 Y128.389 E8.38374
G1 X128.513 Y128.509 E8.38938
G1 X127.974 Y129.035 E8.41443
G1 X127.502 Y129.447 E8.43527
G1 X126.943 Y129.882 E8.45883
G1 X126.815 Y129.979 E8.46417
G1 X126.242 Y130.399 E8.4878
G1 X125.694 Y130.753 E8.5095
G1 X125.04 Y131.124 E8.53451
G1 X124.908 Y131.196 E8.53951
G1 X124.32 Y131.509 E8.56166
G1 X123.747 Y131.774 E8.58266
G1 X123.061 Y132.045 E8.60719
G1 X122.893 Y132.108 E8.61316
G1 X122.246 Y132.34 E8.63602
G1 X121.646 Y132.518 E8.65684
G1 X120.915 Y132.691 E8.68182
G1 X120.758 Y132.726 E8.68717
G1 X120.085 Y132.865 E8.71003
G1 X119.448 Y132.959 E8.73144
G1 X118.739 Y133.022 E8.75512
G1 X118.581 Y133.034 E8.76039
G1 X117.869 Y133.077 E8.78411
G1 X117.233 Y133.079 E8.80527
G1 X116.538 Y133.042 E8.82841
G1 X116.382 Y133.032 E8.83361
G1 X115.669 Y132.974 E8.85741
G1 X115.035 Y132.885 E8.8787
G1 X114.298 Y132.739 E8.90369
G1 X114.126 Y132.702 E8.90954
G1 X113.459 Y132.548 E8.93231
G1 X112.86 Y132.374 E8.95305
G1 X112.178 Y132.134 E8.9771
G1 X112.028 Y132.079 E8.98242
G1 X111.38 Y131.83 E9.0055
G1 X110.799 Y131.568 E9.0267
G1 X110.176 Y131.243 E9.05007
G1 X110.031 Y131.165 E9.05555
G1 X109.402 Y130.813 E9.07952
G1 X108.862 Y130.468 E9.10084
G1 X108.256 Y130.031 E9.12569
G1 X108.122 Y129.932 E9.13123
G1 X107.589 Y129.523 E9.15357
G1 X107.121 Y129.121 E9.17409
G1 X106.605 Y128.626 E9.19788
G1 X106.476 Y128.498 E9.20392
G1 X105.966 Y127.976 E9.22819
G1 X105.549 Y127.497 E9.24932
G1 X105.115 Y126.938 E9.27285
G1 X105.02 Y126.812 E9.2781
