;FLAVOR:Marlin
;TIME:4083
;Filament used: 1.76203m
;Layer height: 0.15
;MINX:87.118
;MINY:87.118
;MINZ:0.2
;MAXX:147.882
;MAXY:147.882
;MAXZ:14.9
;Generated with Cura_SteamEngine 4.1.0
M140 S75
M105
M190 S75
M104 S240
M105
M109 S240
M82 ;absolute extrusion mode
; Ender 3 Custom Start G-code
G28 ; Home all axes
G92 E0 ; Reset Extruder
G1 Z2.0 F3000 ; Move Z Axis up little to prevent scratching of Heat Bed
G1 X0.1 Y20 Z0.3 F5000.0 ; Move to start position
G1 X0.1 Y200.0 Z0.3 F1500.0 E15 ; Draw the first line
G1 X0.4 Y200.0 Z0.3 F5000.0 ; Move to side a little
G1 X0.4 Y20 Z0.3 F1500.0 E30 ; Draw the second line
G92 E0 ; Reset Extruder
G1 Z2.0 F3000 ; Move Z Axis up little to prevent scratching of Heat Bed
; End of custom start GCode
G92 E0
G92 E0
G1 F2400 E-2.5
;LAYER_COUNT:99
;LAYER:0
M107
M204 S500
M205 X10 Y10
G0 F2400 X96.314 Y95.746 Z0.2
;TYPE:SKIRT
G1 F2400 E0
G1 F600 X96.381 Y95.68 E0.00313
G1 X96.871 Y95.199 E0.02597
G1 X97.132 Y94.956 E0.03783
G1 X97.304 Y94.805 E0.04544
G1 X97.432 Y94.696 E0.05103
G1 X97.611 Y94.547 E0.05878
G1 X97.648 Y94.516 E0.06038
G1 X98.673 Y93.676 E0.10446
G1 X98.744 Y93.619 E0.10749
G1 X99.313 Y93.166 E0.13168
G1 X99.6 Y92.95 E0.14363
G1 X99.792 Y92.814 E0.15145
G1 X99.921 Y92.725 E0.15666
G1 X100.107 Y92.6 E0.16412
G1 X100.165 Y92.561 E0.16644
G1 X101.291 Y91.822 E0.21124
G1 X101.358 Y91.779 E0.21389
G1 X101.953 Y91.399 E0.23737
G1 X102.284 Y91.201 E0.2502
G1 X102.46 Y91.103 E0.2569
G1 X102.571 Y91.043 E0.26109
G1 X102.859 Y90.89 E0.27194
G1 X102.929 Y90.854 E0.27456
G1 X104.077 Y90.262 E0.31752
G1 X104.163 Y90.218 E0.32073
G1 X104.759 Y89.922 E0.34286
G1 X105.036 Y89.793 E0.35303
G1 X105.239 Y89.704 E0.3604
G1 X105.419 Y89.628 E0.3669
G1 X105.727 Y89.504 E0.37794
G1 X105.795 Y89.477 E0.38037
G1 X106.969 Y89.02 E0.42228
G1 X107.057 Y88.986 E0.42541
G1 X107.739 Y88.732 E0.44962
G1 X108.061 Y88.622 E0.46094
G1 X108.307 Y88.545 E0.46951
G1 X108.525 Y88.481 E0.47707
G1 X110.041 Y88.065 E0.52935
G1 X110.136 Y88.04 E0.53262
G1 X110.787 Y87.872 E0.55498
G1 X111.125 Y87.794 E0.56652
G1 X111.349 Y87.749 E0.57412
G1 X111.505 Y87.72 E0.5794
G1 X111.739 Y87.679 E0.5873
G1 X111.812 Y87.667 E0.58976
G1 X113.159 Y87.447 E0.63515
G1 X113.245 Y87.433 E0.63805
G1 X113.914 Y87.333 E0.66055
G1 X114.269 Y87.29 E0.67244
G1 X114.474 Y87.271 E0.67929
G1 X114.622 Y87.259 E0.68423
G1 X114.939 Y87.237 E0.6948
G1 X115.016 Y87.232 E0.69736
G1 X116.324 Y87.157 E0.74094
G1 X116.417 Y87.153 E0.74404
G1 X117.096 Y87.124 E0.76664
G1 X117.445 Y87.118 E0.77825
G1 X117.697 Y87.121 E0.78663
G1 X117.873 Y87.126 E0.79249
G1 X118.101 Y87.135 E0.80008
G1 X118.143 Y87.137 E0.80148
G1 X119.49 Y87.199 E0.84632
G1 X119.578 Y87.203 E0.84925
G1 X120.23 Y87.242 E0.87098
G1 X120.538 Y87.268 E0.88126
G1 X120.75 Y87.291 E0.88835
G1 X120.972 Y87.319 E0.89579
G1 X121.354 Y87.374 E0.90863
G1 X121.406 Y87.382 E0.91038
G1 X122.627 Y87.568 E0.95146
G1 X122.727 Y87.584 E0.95483
G1 X123.421 Y87.701 E0.97824
G1 X123.857 Y87.79 E0.99304
G1 X124.359 Y87.911 E1.01021
G1 X124.486 Y87.943 E1.01457
G1 X125.738 Y88.272 E1.05762
G1 X125.823 Y88.295 E1.06055
G1 X126.504 Y88.484 E1.08406
G1 X126.861 Y88.595 E1.09649
G1 X127.063 Y88.664 E1.10359
G1 X127.207 Y88.715 E1.10867
G1 X127.511 Y88.827 E1.11945
G1 X127.557 Y88.844 E1.12108
G1 X128.747 Y89.293 E1.16338
G1 X128.834 Y89.327 E1.16649
G1 X129.476 Y89.58 E1.18944
G1 X129.805 Y89.72 E1.20133
G1 X130.018 Y89.818 E1.20913
G1 X130.163 Y89.887 E1.21447
G1 X130.383 Y89.995 E1.22262
G1 X130.437 Y90.022 E1.22463
G1 X131.607 Y90.61 E1.26818
G1 X131.685 Y90.649 E1.27108
G1 X132.343 Y90.991 E1.29575
G1 X132.761 Y91.229 E1.31175
G1 X133.192 Y91.496 E1.32861
G1 X133.278 Y91.551 E1.33201
G1 X134.386 Y92.262 E1.37579
G1 X134.463 Y92.311 E1.37883
G1 X135.028 Y92.685 E1.40136
G1 X135.42 Y92.967 E1.41743
G1 X135.89 Y93.332 E1.43722
G1 X135.966 Y93.392 E1.44044
G1 X136.895 Y94.136 E1.48003
G1 X136.968 Y94.195 E1.48315
G1 X137.523 Y94.653 E1.50708
G1 X137.789 Y94.885 E1.51882
G1 X137.957 Y95.04 E1.52642
G1 X138.074 Y95.151 E1.53179
G1 X138.278 Y95.349 E1.54124
G1 X138.322 Y95.392 E1.54329
G1 X139.251 Y96.311 E1.58675
G1 X139.317 Y96.377 E1.58986
G1 X139.801 Y96.87 E1.61283
G1 X140.044 Y97.132 E1.62472
G1 X140.195 Y97.304 E1.63233
G1 X140.304 Y97.432 E1.63792
G1 X140.453 Y97.611 E1.64567
G1 X140.484 Y97.648 E1.64728
G1 X141.324 Y98.673 E1.69135
G1 X141.381 Y98.744 E1.69438
G1 X141.83 Y99.308 E1.71836
G1 X142.04 Y99.587 E1.72997
G1 X142.18 Y99.784 E1.73801
G1 X142.275 Y99.921 E1.74356
G1 X142.4 Y100.107 E1.75101
G1 X142.439 Y100.165 E1.75333
G1 X143.178 Y101.291 E1.79813
G1 X143.225 Y101.365 E1.80105
G1 X143.602 Y101.957 E1.82439
G1 X143.778 Y102.25 E1.83576
G1 X143.879 Y102.429 E1.84259
G1 X143.957 Y102.571 E1.84798
G1 X144.11 Y102.859 E1.85883
G1 X144.146 Y102.929 E1.86145
G1 X144.738 Y104.077 E1.90441
G1 X144.782 Y104.163 E1.90762
G1 X145.078 Y104.759 E1.92975
G1 X145.201 Y105.023 E1.93944
G1 X145.291 Y105.227 E1.94686
G1 X145.377 Y105.43 E1.95419
G1 X145.5 Y105.737 E1.96519
G1 X145.521 Y105.79 E1.96709
G1 X145.976 Y106.956 E2.00872
G1 X146.013 Y107.052 E2.01214
G1 X146.267 Y107.735 E2.03637
G1 X146.377 Y108.057 E2.04769
G1 X146.452 Y108.297 E2.05605
G1 X146.515 Y108.512 E2.06351
G1 X146.933 Y110.035 E2.11603
G1 X146.957 Y110.126 E2.11916
G1 X147.127 Y110.783 E2.14174
G1 X147.206 Y111.125 E2.15341
G1 X147.251 Y111.349 E2.16101
G1 X147.28 Y111.505 E2.16629
G1 X147.321 Y111.739 E2.17419
G1 X147.333 Y111.812 E2.17665
G1 X147.553 Y113.159 E2.22204
G1 X147.566 Y113.242 E2.22484
G1 X147.666 Y113.909 E2.24727
G1 X147.71 Y114.273 E2.25947
G1 X147.729 Y114.48 E2.26638
G1 X147.741 Y114.622 E2.27112
G1 X147.763 Y114.939 E2.28169
G1 X147.768 Y115.016 E2.28425
G1 X147.843 Y116.324 E2.32783
G1 X147.847 Y116.416 E2.33089
G1 X147.876 Y117.093 E2.35343
G1 X147.882 Y117.443 E2.36507
G1 X147.879 Y117.697 E2.37352
G1 X147.874 Y117.873 E2.37938
G1 X147.865 Y118.101 E2.38697
G1 X147.863 Y118.143 E2.38837
G1 X147.801 Y119.49 E2.43321
G1 X147.797 Y119.578 E2.43614
G1 X147.758 Y120.23 E2.45787
G1 X147.732 Y120.538 E2.46815
G1 X147.709 Y120.75 E2.47524
G1 X147.681 Y120.972 E2.48268
G1 X147.626 Y121.354 E2.49552
G1 X147.618 Y121.406 E2.49727
G1 X147.432 Y122.627 E2.53835
G1 X147.416 Y122.727 E2.54172
G1 X147.299 Y123.421 E2.56513
G1 X147.21 Y123.857 E2.57993
G1 X147.089 Y124.359 E2.5971
G1 X147.057 Y124.486 E2.60146
G1 X146.728 Y125.738 E2.64451
G1 X146.705 Y125.823 E2.64744
G1 X146.519 Y126.493 E2.67057
G1 X146.415 Y126.83 E2.6823
G1 X146.343 Y127.043 E2.68978
G1 X146.285 Y127.207 E2.69556
G1 X146.173 Y127.511 E2.70634
G1 X146.156 Y127.558 E2.708
G1 X145.725 Y128.7 E2.7486
G1 X145.694 Y128.78 E2.75145
G1 X145.423 Y129.47 E2.77611
G1 X145.285 Y129.795 E2.78785
G1 X145.187 Y130.009 E2.79568
G1 X145.113 Y130.164 E2.80139
G1 X145.005 Y130.384 E2.80955
G1 X144.978 Y130.438 E2.81155
G1 X144.39 Y131.608 E2.85511
G1 X144.351 Y131.686 E2.85801
G1 X144.01 Y132.342 E2.8826
G1 X143.769 Y132.764 E2.89876
G1 X143.501 Y133.196 E2.91567
G1 X143.449 Y133.278 E2.9189
G1 X142.738 Y134.386 E2.96269
G1 X142.69 Y134.46 E2.96562
G1 X142.317 Y135.024 E2.98811
G1 X142.033 Y135.421 E3.00434
G1 X141.667 Y135.892 E3.02418
G1 X141.608 Y135.966 E3.02733
G1 X140.863 Y136.896 E3.06696
G1 X140.805 Y136.968 E3.07004
G1 X140.348 Y137.522 E3.09393
G1 X140.115 Y137.789 E3.10571
G1 X139.96 Y137.957 E3.11331
G1 X139.849 Y138.074 E3.11868
G1 X139.651 Y138.278 E3.12813
G1 X139.608 Y138.322 E3.13018
G1 X138.689 Y139.251 E3.17364
G1 X138.623 Y139.317 E3.17675
G1 X138.13 Y139.801 E3.19973
G1 X137.868 Y140.044 E3.21161
G1 X137.696 Y140.195 E3.21922
G1 X137.568 Y140.304 E3.22482
G1 X137.389 Y140.453 E3.23256
G1 X137.352 Y140.484 E3.23417
G1 X136.327 Y141.324 E3.27824
G1 X136.256 Y141.381 E3.28127
G1 X135.687 Y141.834 E3.30546
G1 X135.4 Y142.05 E3.31741
G1 X135.208 Y142.186 E3.32524
G1 X135.079 Y142.275 E3.33045
G1 X134.893 Y142.4 E3.3379
G1 X134.836 Y142.437 E3.34016
G1 X133.72 Y143.17 E3.38457
G1 X133.649 Y143.216 E3.38738
G1 X133.044 Y143.602 E3.41125
G1 X132.716 Y143.799 E3.42398
G1 X132.54 Y143.897 E3.43068
G1 X132.429 Y143.957 E3.43488
G1 X132.141 Y144.11 E3.44572
G1 X132.071 Y144.146 E3.44834
G1 X130.923 Y144.738 E3.4913
G1 X130.841 Y144.78 E3.49437
G1 X130.246 Y145.076 E3.51647
G1 X129.968 Y145.206 E3.52668
G1 X129.763 Y145.296 E3.53412
G1 X129.587 Y145.37 E3.54047
G1 X129.28 Y145.494 E3.55149
G1 X129.199 Y145.526 E3.55438
G1 X128.032 Y145.979 E3.59602
G1 X127.953 Y146.009 E3.59883
G1 X127.264 Y146.266 E3.62329
G1 X126.939 Y146.378 E3.63472
G1 X126.693 Y146.455 E3.64329
G1 X126.473 Y146.519 E3.65091
G1 X124.963 Y146.933 E3.70299
G1 X124.874 Y146.957 E3.70606
G1 X124.217 Y147.127 E3.72863
G1 X123.875 Y147.206 E3.7403
G1 X123.651 Y147.251 E3.7479
G1 X123.495 Y147.28 E3.75318
G1 X123.261 Y147.321 E3.76108
G1 X123.188 Y147.333 E3.76354
G1 X121.841 Y147.553 E3.80894
G1 X121.755 Y147.567 E3.81183
G1 X121.086 Y147.667 E3.83433
G1 X120.731 Y147.71 E3.84623
G1 X120.526 Y147.729 E3.85307
G1 X120.378 Y147.741 E3.85801
G1 X120.061 Y147.763 E3.86858
G1 X119.984 Y147.768 E3.87115
G1 X118.676 Y147.843 E3.91472
G1 X118.583 Y147.847 E3.91782
G1 X117.904 Y147.876 E3.94042
G1 X117.555 Y147.882 E3.95203
G1 X117.303 Y147.879 E3.96042
G1 X117.127 Y147.874 E3.96627
G1 X116.899 Y147.865 E3.97386
G1 X116.857 Y147.863 E3.97526
G1 X115.51 Y147.801 E4.02011
G1 X115.422 Y147.797 E4.02304
G1 X114.77 Y147.758 E4.04476
G1 X114.462 Y147.732 E4.05504
G1 X114.25 Y147.709 E4.06214
G1 X114.028 Y147.681 E4.06958
G1 X113.646 Y147.626 E4.08241
G1 X113.594 Y147.618 E4.08416
G1 X112.373 Y147.432 E4.12524
G1 X112.273 Y147.416 E4.12861
G1 X111.579 Y147.299 E4.15202
G1 X111.143 Y147.21 E4.16682
G1 X110.641 Y147.089 E4.184
G1 X110.514 Y147.057 E4.18835
G1 X109.262 Y146.728 E4.23141
G1 X109.177 Y146.705 E4.23434
G1 X108.496 Y146.516 E4.25784
G1 X108.14 Y146.406 E4.27023
G1 X107.935 Y146.336 E4.27744
G1 X107.789 Y146.284 E4.28259
G1 X107.488 Y146.173 E4.29326
G1 X107.443 Y146.156 E4.29486
G1 X106.253 Y145.707 E4.33717
G1 X106.166 Y145.673 E4.34027
G1 X105.524 Y145.42 E4.36323
G1 X105.193 Y145.279 E4.37519
G1 X104.978 Y145.18 E4.38306
G1 X104.835 Y145.112 E4.38833
G1 X104.617 Y145.005 E4.39641
G1 X104.563 Y144.978 E4.39842
G1 X103.393 Y144.39 E4.44197
G1 X103.315 Y144.351 E4.44487
G1 X102.657 Y144.009 E4.46953
G1 X102.239 Y143.771 E4.48553
G1 X101.808 Y143.504 E4.5024
G1 X101.722 Y143.449 E4.50579
G1 X100.614 Y142.738 E4.54958
G1 X100.535 Y142.687 E4.55271
G1 X99.969 Y142.312 E4.57529
G1 X99.58 Y142.033 E4.59121
G1 X99.111 Y141.669 E4.61096
G1 X99.035 Y141.609 E4.61418
G1 X98.102 Y140.862 E4.65393
G1 X98.027 Y140.801 E4.65714
G1 X97.476 Y140.346 E4.68091
G1 X97.211 Y140.115 E4.6926
G1 X97.043 Y139.96 E4.70021
G1 X96.926 Y139.849 E4.70557
G1 X96.722 Y139.651 E4.71503
G1 X96.678 Y139.608 E4.71707
G1 X95.745 Y138.685 E4.76072
G1 X95.679 Y138.618 E4.76385
G1 X95.198 Y138.128 E4.78669
G1 X94.954 Y137.865 E4.79862
G1 X94.804 Y137.694 E4.80619
G1 X94.696 Y137.568 E4.81171
G1 X94.547 Y137.389 E4.81945
G1 X94.516 Y137.352 E4.82106
G1 X93.676 Y136.327 E4.86513
G1 X93.62 Y136.257 E4.86812
G1 X93.166 Y135.687 E4.89235
G1 X92.903 Y135.333 E4.90702
G1 X92.643 Y134.956 E4.92225
G1 X92.561 Y134.835 E4.92711
G1 X91.822 Y133.709 E4.97191
G1 X91.778 Y133.64 E4.97463
G1 X91.397 Y133.043 E4.99819
G1 X91.163 Y132.646 E5.01351
G1 X90.913 Y132.184 E5.03099
G1 X90.854 Y132.071 E5.03523
G1 X90.262 Y130.923 E5.07819
G1 X90.22 Y130.841 E5.08125
G1 X89.923 Y130.244 E5.10343
G1 X89.792 Y129.963 E5.11374
G1 X89.703 Y129.76 E5.12111
G1 X89.63 Y129.587 E5.12736
G1 X89.506 Y129.28 E5.13837
G1 X89.474 Y129.2 E5.14124
G1 X89.02 Y128.031 E5.18295
G1 X88.989 Y127.949 E5.18586
G1 X88.733 Y127.262 E5.21025
G1 X88.622 Y126.939 E5.22161
G1 X88.545 Y126.693 E5.23018
G1 X88.481 Y126.474 E5.23777
G1 X88.067 Y124.965 E5.28981
G1 X88.042 Y124.871 E5.29305
G1 X87.872 Y124.212 E5.31568
G1 X87.795 Y123.879 E5.32705
G1 X87.75 Y123.656 E5.33462
G1 X87.72 Y123.495 E5.34007
G1 X87.679 Y123.261 E5.34797
G1 X87.667 Y123.188 E5.35043
G1 X87.447 Y121.841 E5.39582
G1 X87.433 Y121.756 E5.39869
G1 X87.332 Y121.081 E5.42139
G1 X87.281 Y120.629 E5.43652
G1 X87.241 Y120.113 E5.45373
G1 X87.232 Y119.984 E5.45803
G1 X87.156 Y118.657 E5.50224
G1 X87.152 Y118.56 E5.50547
G1 X87.124 Y117.895 E5.52761
G1 X87.118 Y117.548 E5.53915
G1 X87.121 Y117.301 E5.54737
G1 X87.126 Y117.127 E5.55316
G1 X87.135 Y116.899 E5.56074
G1 X87.137 Y116.857 E5.56214
G1 X87.199 Y115.51 E5.60699
G1 X87.203 Y115.422 E5.60992
G1 X87.242 Y114.77 E5.63165
G1 X87.268 Y114.462 E5.64193
G1 X87.291 Y114.25 E5.64902
G1 X87.319 Y114.028 E5.65646
G1 X87.374 Y113.646 E5.6693
G1 X87.382 Y113.594 E5.67105
G1 X87.568 Y112.373 E5.71213
G1 X87.584 Y112.276 E5.7154
G1 X87.702 Y111.574 E5.73907
G1 X87.794 Y111.124 E5.75435
G1 X87.914 Y110.63 E5.77126
G1 X87.943 Y110.514 E5.77524
G1 X88.272 Y109.262 E5.81829
G1 X88.295 Y109.177 E5.82122
G1 X88.481 Y108.507 E5.84435
G1 X88.585 Y108.17 E5.85608
G1 X88.657 Y107.957 E5.86355
G1 X88.715 Y107.793 E5.86934
G1 X88.827 Y107.489 E5.88012
G1 X88.843 Y107.444 E5.8817
G1 X89.292 Y106.253 E5.92404
G1 X89.33 Y106.156 E5.9275
G1 X89.59 Y105.499 E5.951
G1 X89.729 Y105.175 E5.96273
G1 X89.835 Y104.945 E5.97115
G1 X89.911 Y104.786 E5.97702
G1 X90.004 Y104.598 E5.98399
G1 X90.022 Y104.562 E5.98533
G1 X90.61 Y103.392 E6.02888
G1 X90.649 Y103.314 E6.03178
G1 X90.99 Y102.658 E6.05637
G1 X91.231 Y102.236 E6.07254
G1 X91.499 Y101.804 E6.08945
G1 X91.551 Y101.722 E6.09267
G1 X92.262 Y100.614 E6.13646
G1 X92.314 Y100.533 E6.13966
G1 X92.692 Y99.963 E6.16241
G1 X92.971 Y99.575 E6.17831
G1 X93.332 Y99.11 E6.19789
G1 X93.393 Y99.032 E6.20118
G1 X94.152 Y98.085 E6.24155
G1 X94.209 Y98.015 E6.24455
G1 X94.652 Y97.478 E6.2677
G1 X94.885 Y97.211 E6.27949
G1 X95.04 Y97.043 E6.28709
G1 X95.151 Y96.926 E6.29245
G1 X95.349 Y96.722 E6.30191
G1 X95.392 Y96.678 E6.30396
G1 X96.314 Y95.746 E6.34756
G0 F2400 X96.599 Y96.027
G1 F600 X96.661 Y95.965 E6.35048
G1 X97.151 Y95.484 E6.37331
G1 X97.396 Y95.257 E6.38442
G1 X97.568 Y95.106 E6.39204
G1 X97.687 Y95.004 E6.39725
G1 X97.866 Y94.855 E6.40499
G1 X97.902 Y94.825 E6.40655
G1 X98.927 Y93.985 E6.45063
G1 X98.993 Y93.932 E6.45345
G1 X99.562 Y93.479 E6.47764
G1 X99.831 Y93.277 E6.48882
G1 X100.023 Y93.141 E6.49665
G1 X100.144 Y93.057 E6.50155
G1 X100.33 Y92.932 E6.509
G1 X100.385 Y92.896 E6.51119
G1 X101.511 Y92.157 E6.55599
G1 X101.574 Y92.116 E6.55849
G1 X102.169 Y91.736 E6.58197
G1 X102.479 Y91.551 E6.59397
G1 X102.655 Y91.453 E6.60067
G1 X102.759 Y91.396 E6.60462
G1 X103.047 Y91.243 E6.61547
G1 X103.112 Y91.209 E6.61791
G1 X104.26 Y90.617 E6.66087
G1 X104.341 Y90.576 E6.66389
G1 X104.937 Y90.28 E6.68602
G1 X105.197 Y90.159 E6.69556
G1 X105.4 Y90.07 E6.70293
G1 X105.568 Y89.999 E6.709
G1 X105.876 Y89.875 E6.72004
G1 X105.94 Y89.85 E6.72232
G1 X107.114 Y89.393 E6.76422
G1 X107.197 Y89.361 E6.76718
G1 X107.879 Y89.107 E6.79139
G1 X108.181 Y89.004 E6.802
G1 X108.427 Y88.927 E6.81058
G1 X108.631 Y88.867 E6.81765
G1 X110.147 Y88.451 E6.86993
G1 X110.236 Y88.427 E6.873
G1 X110.887 Y88.259 E6.89536
G1 X111.204 Y88.187 E6.90617
G1 X111.428 Y88.142 E6.91377
G1 X111.574 Y88.114 E6.91872
G1 X111.808 Y88.073 E6.92662
G1 X111.877 Y88.061 E6.92895
G1 X113.224 Y87.841 E6.97434
G1 X113.304 Y87.829 E6.97703
G1 X113.973 Y87.729 E6.99953
G1 X114.306 Y87.689 E7.01069
G1 X114.511 Y87.67 E7.01753
G1 X114.65 Y87.658 E7.02218
G1 X114.967 Y87.636 E7.03274
G1 X115.039 Y87.632 E7.03514
G1 X116.347 Y87.557 E7.07872
G1 X116.434 Y87.552 E7.08162
G1 X117.113 Y87.523 E7.10422
G1 X117.44 Y87.518 E7.1151
G1 X117.692 Y87.521 E7.12348
G1 X117.858 Y87.526 E7.129
