;FLAVOR:Marlin
;TIME:1359
;Filament used: 0.745443m
;Layer height: 0.15
;MINX:95.995
;MINY:101.875
;MINZ:0.2
;MAXX:138.997
;MAXY:133.124
;MAXZ:9.95
;Generated with Cura_SteamEngine 4.1.0
M140 S60
M105
M190 S60
M104 S215
M105
M109 S215
M82 ;absolute extrusion mode
; Ender 3 Custom Start G-code
G28 ; Home all axes
G92 E0 ; Reset Extruder
G1 Z2.0 F3000 ; Move Z Axis up little to prevent scratching of Heat Bed
G1 X0.1 Y20 Z0.3 F5000.0 ; Move to start position
G1 X0.1 Y200.0 Z0.3 F1500.0 E15 ; Draw the first line
G1 X0.4 Y200.0 Z0.3 F5000.0 ; Move to side a little
G1 X0.4 Y20 Z0.3 F1500.0 E30 ; Draw the second line
G92 E0 ; Reset Extruder
G1 Z2.0 F3000 ; Move Z Axis up little to prevent scratching of Heat Bed
; End of custom start GCode
G92 E0
G92 E0
G1 F2400 E-5
;LAYER_COUNT:66
;LAYER:0
M107
M204 S500
M205 X10 Y10
G0 F3600 X98.801 Y104.082 Z0.2
;TYPE:SKIRT
G1 F2400 E0
G1 F1500 X99.011 Y103.897 E0.00931
G1 X99.725 Y103.352 E0.03918
G1 X99.988 Y103.179 E0.04965
G1 X100.606 Y102.82 E0.07343
G1 X101.261 Y102.532 E0.09722
G1 X101.648 Y102.401 E0.11081
G1 X102.255 Y102.217 E0.13191
G1 X102.95 Y102.048 E0.1557
G1 X103.66 Y101.958 E0.1795
G1 X104.229 Y101.943 E0.19843
G1 X105.046 Y101.958 E0.22561
G1 X105.191 Y101.962 E0.23044
G1 X108.98 Y102.117 E0.35656
G1 X112.941 Y102.199 E0.48834
G1 X121.264 Y102.201 E0.76516
G1 X123.896 Y102.165 E0.85271
G1 X126.432 Y102.06 E0.93713
G1 X129.071 Y101.916 E1.02503
G1 X129.161 Y101.912 E1.02803
G1 X129.906 Y101.882 E1.05283
G1 X130.071 Y101.878 E1.05832
G1 X130.277 Y101.875 E1.06517
G1 X130.592 Y101.878 E1.07565
G1 X131.025 Y101.893 E1.09006
G1 X131.737 Y101.958 E1.11384
G1 X132.49 Y102.115 E1.13942
G1 X132.995 Y102.253 E1.15683
G1 X133.673 Y102.48 E1.18061
G1 X134.322 Y102.781 E1.20441
G1 X134.639 Y102.962 E1.21655
G1 X135.036 Y103.204 E1.23201
G1 X135.208 Y103.313 E1.23879
G1 X135.367 Y103.417 E1.24511
G1 X135.943 Y103.841 E1.26889
G1 X136.468 Y104.327 E1.29269
G1 X136.714 Y104.598 E1.30486
G1 X137.017 Y104.95 E1.32031
G1 X137.149 Y105.108 E1.32716
G1 X137.253 Y105.237 E1.33267
G1 X137.671 Y105.818 E1.35647
G1 X138.119 Y106.655 E1.38805
G1 X138.219 Y106.88 E1.39624
G1 X138.473 Y107.549 E1.42004
G1 X138.572 Y107.895 E1.43201
G1 X138.7 Y108.396 E1.44921
G1 X138.862 Y109.297 E1.47966
G1 X138.925 Y109.884 E1.49929
G1 X138.961 Y110.686 E1.52599
G1 X138.944 Y111.599 E1.55637
G1 X138.942 Y111.689 E1.55936
G1 X138.912 Y112.599 E1.58964
G1 X138.896 Y114.357 E1.64812
G1 X138.896 Y119.881 E1.83185
G1 X138.934 Y122.523 E1.91973
G1 X138.991 Y124.105 E1.97238
G1 X138.995 Y124.281 E1.97823
G1 X138.997 Y124.508 E1.98578
G1 X138.982 Y125 E2.00216
G1 X138.968 Y125.205 E2.00899
G1 X138.956 Y125.361 E2.01419
G1 X138.923 Y125.716 E2.02605
G1 X138.817 Y126.424 E2.04986
G1 X138.568 Y127.302 E2.08022
G1 X138.399 Y127.769 E2.09674
G1 X138.118 Y128.427 E2.12053
G1 X137.867 Y128.887 E2.13796
G1 X137.694 Y129.175 E2.14914
G1 X137.168 Y129.924 E2.17958
G1 X136.907 Y130.244 E2.19331
G1 X136.424 Y130.772 E2.21711
G1 X135.886 Y131.243 E2.2409
G1 X135.56 Y131.481 E2.25432
G1 X135.215 Y131.717 E2.26822
G1 X134.879 Y131.932 E2.28149
G1 X134.676 Y132.053 E2.28935
G1 X134.042 Y132.385 E2.31315
G1 X133.597 Y132.567 E2.32914
G1 X133.318 Y132.669 E2.33902
G1 X132.633 Y132.877 E2.36284
G1 X131.898 Y133.011 E2.38768
G1 X131.596 Y133.048 E2.3978
G1 X131.38 Y133.07 E2.40503
G1 X131.051 Y133.099 E2.41601
G1 X130.345 Y133.122 E2.4395
G1 X130.078 Y133.116 E2.44839
G1 X129.886 Y133.109 E2.45478
G1 X126.483 Y132.93 E2.56812
G1 X123.808 Y132.826 E2.65716
G1 X121.421 Y132.797 E2.73655
G1 X113.724 Y132.796 E2.99256
G1 X111.081 Y132.833 E3.08047
G1 X108.564 Y132.937 E3.16426
G1 X105.881 Y133.083 E3.25363
G1 X105.792 Y133.087 E3.25659
G1 X105.051 Y133.117 E3.28126
G1 X104.884 Y133.121 E3.28681
G1 X104.675 Y133.124 E3.29377
G1 X104.37 Y133.121 E3.30391
G1 X103.949 Y133.107 E3.31792
G1 X103.237 Y133.044 E3.34169
G1 X102.738 Y132.951 E3.35858
G1 X102.532 Y132.904 E3.3656
G1 X102.159 Y132.806 E3.37843
G1 X101.848 Y132.715 E3.38921
G1 X101.174 Y132.477 E3.41298
G1 X100.344 Y132.056 E3.44394
G1 X99.927 Y131.805 E3.46013
G1 X99.181 Y131.28 E3.49047
G1 X98.996 Y131.129 E3.49841
G1 X98.468 Y130.647 E3.52219
G1 X98.137 Y130.281 E3.5386
G1 X97.812 Y129.893 E3.55543
G1 X97.384 Y129.319 E3.57925
G1 X96.988 Y128.633 E3.60559
G1 X96.8 Y128.255 E3.61963
G1 X96.517 Y127.598 E3.64343
G1 X96.255 Y126.664 E3.67569
G1 X96.186 Y126.32 E3.68736
G1 X96.153 Y126.141 E3.69342
G1 X96.103 Y125.849 E3.70327
G1 X96.02 Y125.103 E3.72823
G1 X96.004 Y124.797 E3.73843
G1 X95.998 Y124.263 E3.75619
G1 X96.083 Y121.559 E3.84617
G1 X96.096 Y119.927 E3.90045
G1 X96.096 Y115.254 E4.05587
G1 X96.058 Y112.604 E4.14402
G1 X96.021 Y111.716 E4.17358
G1 X96.017 Y111.624 E4.17665
G1 X95.995 Y110.823 E4.2033
G1 X96.004 Y110.264 E4.22189
G1 X96.035 Y109.747 E4.23912
G1 X96.058 Y109.471 E4.24833
G1 X96.079 Y109.268 E4.25512
G1 X96.192 Y108.562 E4.2789
G1 X96.437 Y107.722 E4.308
G1 X96.659 Y107.117 E4.32944
G1 X96.942 Y106.461 E4.3532
G1 X97.356 Y105.752 E4.3805
G1 X97.477 Y105.572 E4.38772
G1 X98.138 Y104.744 E4.42296
G1 X98.382 Y104.486 E4.43477
G1 X98.801 Y104.082 E4.45413
G0 F3600 X99.066 Y104.382
G1 F1500 X99.276 Y104.197 E4.46344
G1 X99.945 Y103.686 E4.49143
G1 X100.208 Y103.513 E4.50191
G1 X100.807 Y103.167 E4.52491
G1 X101.764 Y102.784 E4.5592
G1 X102.371 Y102.6 E4.58029
G1 X103.045 Y102.438 E4.60335
G1 X103.732 Y102.354 E4.62637
G1 X104.222 Y102.343 E4.64267
G1 X105.039 Y102.358 E4.66985
G1 X105.175 Y102.362 E4.67437
G1 X108.956 Y102.517 E4.80024
G1 X112.933 Y102.599 E4.93254
G1 X121.269 Y102.601 E5.2098
G1 X123.919 Y102.564 E5.29794
G1 X126.47 Y102.459 E5.38286
G1 X129.093 Y102.316 E5.47023
G1 X129.178 Y102.312 E5.47306
G1 X129.923 Y102.282 E5.49786
G1 X130.077 Y102.278 E5.50299
G1 X130.283 Y102.275 E5.50984
G1 X130.578 Y102.278 E5.51965
G1 X131.011 Y102.293 E5.53406
G1 X131.7 Y102.356 E5.55707
G1 X132.385 Y102.501 E5.58036
G1 X132.89 Y102.639 E5.59777
G1 X133.546 Y102.86 E5.6208
G1 X134.431 Y103.304 E5.65373
G1 X134.828 Y103.546 E5.66919
G1 X134.989 Y103.648 E5.67553
G1 X135.148 Y103.752 E5.68185
G1 X135.705 Y104.164 E5.70489
G1 X136.411 Y104.859 E5.73784
G1 X136.714 Y105.211 E5.75329
G1 X136.838 Y105.359 E5.75971
G1 X136.942 Y105.488 E5.76523
G1 X137.345 Y106.052 E5.78828
G1 X137.754 Y106.817 E5.81713
G1 X137.854 Y107.042 E5.82532
G1 X138.184 Y107.994 E5.85883
G1 X138.312 Y108.495 E5.87603
G1 X138.465 Y109.34 E5.90459
G1 X138.528 Y109.927 E5.92423
G1 X138.561 Y110.679 E5.94927
G1 X138.544 Y111.592 E5.97964
G1 X138.542 Y111.676 E5.98243
G1 X138.512 Y112.583 E6.01262
G1 X138.496 Y114.353 E6.07149
G1 X138.496 Y119.881 E6.25535
G1 X138.534 Y122.543 E6.3439
G1 X138.591 Y124.12 E6.39638
G1 X138.595 Y124.284 E6.40184
G1 X138.597 Y124.511 E6.40939
G1 X138.583 Y124.973 E6.42476
G1 X138.569 Y125.178 E6.4316
G1 X138.557 Y125.324 E6.43647
G1 X138.524 Y125.679 E6.44833
G1 X138.42 Y126.364 E6.47137
G1 X138.192 Y127.166 E6.4991
G1 X138.023 Y127.633 E6.51562
G1 X137.75 Y128.269 E6.53864
G1 X137.524 Y128.681 E6.55427
G1 X137.351 Y128.969 E6.56545
G1 X136.858 Y129.671 E6.59398
G1 X136.597 Y129.991 E6.60771
G1 X136.129 Y130.502 E6.63076
G1 X135.335 Y131.151 E6.66487
G1 X134.99 Y131.387 E6.67877
G1 X134.674 Y131.589 E6.69124
G1 X134.471 Y131.71 E6.6991
G1 X133.857 Y132.03 E6.72213
G1 X133.459 Y132.191 E6.73641
G1 X133.18 Y132.293 E6.74629
G1 X132.517 Y132.493 E6.76933
G1 X131.85 Y132.613 E6.79187
G1 X131.548 Y132.65 E6.80199
G1 X131.345 Y132.672 E6.80878
G1 X131.016 Y132.701 E6.81976
G1 X130.354 Y132.722 E6.84179
G1 X130.087 Y132.716 E6.85067
G1 X129.907 Y132.71 E6.85666
G1 X126.459 Y132.529 E6.9715
G1 X123.829 Y132.426 E7.05904
G1 X121.426 Y132.397 E7.13897
G1 X113.718 Y132.396 E7.39534
G1 X111.06 Y132.434 E7.48376
G1 X108.523 Y132.538 E7.56821
G1 X105.859 Y132.683 E7.65695
G1 X105.776 Y132.687 E7.65971
G1 X105.035 Y132.717 E7.68438
G1 X104.878 Y132.721 E7.6896
G1 X104.669 Y132.724 E7.69655
G1 X104.384 Y132.722 E7.70603
G1 X103.963 Y132.708 E7.72004
G1 X103.273 Y132.645 E7.74309
G1 X102.827 Y132.561 E7.75818
G1 X102.621 Y132.514 E7.76521
G1 X102.271 Y132.423 E7.77724
G1 X101.96 Y132.332 E7.78801
G1 X101.308 Y132.099 E7.81104
G1 X100.551 Y131.714 E7.83929
G1 X100.134 Y131.463 E7.85548
G1 X99.434 Y130.97 E7.88395
G1 X99.249 Y130.819 E7.8919
G1 X98.739 Y130.351 E7.91492
G1 X98.443 Y130.024 E7.92959
G1 X98.118 Y129.636 E7.94642
G1 X97.705 Y129.08 E7.96946
G1 X97.346 Y128.455 E7.99343
G1 X97.158 Y128.077 E8.00747
G1 X96.886 Y127.44 E8.03051
G1 X96.647 Y126.585 E8.06004
G1 X96.578 Y126.241 E8.07171
G1 X96.547 Y126.074 E8.07736
G1 X96.497 Y125.782 E8.08721
G1 X96.419 Y125.082 E8.11064
G1 X96.403 Y124.776 E8.12083
G1 X96.398 Y124.275 E8.13749
G1 X96.482 Y121.574 E8.22737
G1 X96.496 Y119.931 E8.28202
G1 X96.496 Y115.254 E8.43758
G1 X96.459 Y112.618 E8.52526
G1 X96.42 Y111.7 E8.55582
G1 X96.417 Y111.613 E8.55872
G1 X96.395 Y110.812 E8.58537
G1 X96.404 Y110.288 E8.6028
G1 X96.435 Y109.771 E8.62002
G1 X96.456 Y109.513 E8.62863
G1 X96.477 Y109.31 E8.63542
G1 X96.588 Y108.626 E8.65847
G1 X96.812 Y107.86 E8.68501
G1 X97.034 Y107.255 E8.70645
G1 X97.31 Y106.62 E8.72948
G1 X97.688 Y105.975 E8.75434
G1 X97.809 Y105.795 E8.76156
G1 X98.429 Y105.019 E8.79459
G1 X98.673 Y104.761 E8.8064
G1 X99.066 Y104.382 E8.82456
G0 F3600 X99.33 Y104.682
G1 F1500 X99.54 Y104.497 E8.83387
G1 X100.164 Y104.02 E8.85999
G1 X100.427 Y103.847 E8.87046
G1 X101.007 Y103.514 E8.89271
G1 X101.88 Y103.167 E8.92395
G1 X102.487 Y102.983 E8.94505
G1 X103.138 Y102.827 E8.96732
G1 X103.803 Y102.751 E8.98958
G1 X104.215 Y102.743 E9.00328
G1 X105.032 Y102.758 E9.03046
G1 X105.158 Y102.762 E9.03466
G1 X108.931 Y102.917 E9.16025
G1 X112.924 Y102.999 E9.29309
G1 X121.275 Y103.001 E9.57084
G1 X123.94 Y102.964 E9.65949
G1 X126.434 Y102.861 E9.74251
G1 X129.115 Y102.715 E9.83181
G1 X129.194 Y102.712 E9.83444
G1 X129.939 Y102.682 E9.85924
G1 X130.082 Y102.678 E9.864
G1 X130.288 Y102.675 E9.87085
G1 X130.564 Y102.677 E9.88003
G1 X130.997 Y102.692 E9.89444
G1 X131.663 Y102.755 E9.91669
G1 X132.279 Y102.887 E9.93765
G1 X132.784 Y103.025 E9.95506
G1 X133.418 Y103.24 E9.97732
G1 X134.223 Y103.645 E10.0073
G1 X134.62 Y103.887 E10.02276
G1 X134.77 Y103.982 E10.02867
G1 X134.929 Y104.086 E10.03499
G1 X135.466 Y104.486 E10.05726
G1 X136.108 Y105.12 E10.08727
G1 X136.411 Y105.472 E10.10271
G1 X136.527 Y105.61 E10.10871
G1 X136.631 Y105.739 E10.11422
G1 X137.019 Y106.284 E10.13647
G1 X137.388 Y106.98 E10.16267
G1 X137.488 Y107.205 E10.17086
G1 X137.797 Y108.093 E10.20214
G1 X137.925 Y108.594 E10.21933
G1 X138.067 Y109.382 E10.24596
G1 X138.13 Y109.969 E10.2656
G1 X138.161 Y110.671 E10.28897
G1 X138.144 Y111.584 E10.31934
G1 X138.142 Y111.663 E10.32197
G1 X138.112 Y112.566 E10.35202
G1 X138.096 Y114.35 E10.41136
G1 X138.096 Y119.881 E10.59532
G1 X138.134 Y122.562 E10.6845
G1 X138.191 Y124.134 E10.73682
G1 X138.195 Y124.288 E10.74195
G1 X138.197 Y124.515 E10.7495
G1 X138.184 Y124.946 E10.76384
G1 X138.17 Y125.151 E10.77067
G1 X138.159 Y125.287 E10.77521
G1 X138.126 Y125.642 E10.78707
G1 X138.024 Y126.304 E10.80935
G1 X137.816 Y127.03 E10.83446
G1 X137.647 Y127.497 E10.85098
G1 X137.382 Y128.111 E10.87323
G1 X137.181 Y128.475 E10.88706
G1 X137.008 Y128.763 E10.89823
G1 X136.548 Y129.418 E10.92485
G1 X136.287 Y129.738 E10.93859
G1 X135.834 Y130.231 E10.96085
G1 X135.109 Y130.821 E10.99194
G1 X134.764 Y131.057 E11.00585
G1 X134.469 Y131.245 E11.01748
G1 X134.266 Y131.366 E11.02534
G1 X133.672 Y131.674 E11.04759
G1 X133.322 Y131.816 E11.06016
G1 X133.043 Y131.918 E11.07004
G1 X132.402 Y132.109 E11.09228
G1 X131.801 Y132.216 E11.11259
G1 X131.499 Y132.253 E11.12271
G1 X131.31 Y132.273 E11.12903
G1 X130.981 Y132.302 E11.14001
G1 X130.363 Y132.323 E11.16058
G1 X130.096 Y132.317 E11.16946
G1 X129.928 Y132.31 E11.17506
G1 X126.556 Y132.133 E11.28736
G1 X123.812 Y132.026 E11.3787
G1 X121.43 Y131.997 E11.45793
G1 X113.712 Y131.996 E11.71463
G1 X111.037 Y132.034 E11.80361
G1 X108.558 Y132.136 E11.88613
G1 X105.837 Y132.284 E11.97677
G1 X105.76 Y132.287 E11.97933
G1 X105.019 Y132.317 E12.004
G1 X104.872 Y132.321 E12.00889
G1 X104.663 Y132.324 E12.01584
G1 X104.397 Y132.322 E12.02469
G1 X103.976 Y132.308 E12.0387
G1 X103.31 Y132.246 E12.06094
G1 X102.916 Y132.171 E12.07428
G1 X102.71 Y132.124 E12.08131
G1 X102.383 Y132.039 E12.09255
G1 X102.072 Y131.948 E12.10333
G1 X101.443 Y131.722 E12.12556
G1 X100.757 Y131.371 E12.15119
G1 X100.34 Y131.12 E12.16737
G1 X99.687 Y130.66 E12.19394
G1 X99.502 Y130.509 E12.20188
G1 X99.01 Y130.056 E12.22413
G1 X98.75 Y129.767 E12.23706
G1 X98.425 Y129.379 E12.25389
G1 X98.027 Y128.841 E12.27615
G1 X97.704 Y128.277 E12.29777
G1 X97.516 Y127.899 E12.31181
G1 X97.254 Y127.283 E12.33407
G1 X97.039 Y126.506 E12.36089
G1 X96.97 Y126.162 E12.37256
G1 X96.941 Y126.006 E12.37783
G1 X96.891 Y125.714 E12.38769
G1 X96.819 Y125.061 E12.40954
G1 X96.803 Y124.755 E12.41973
G1 X96.798 Y124.288 E12.43526
G1 X96.882 Y121.59 E12.52504
G1 X96.896 Y119.934 E12.58012
G1 X96.896 Y115.254 E12.73578
G1 X96.858 Y112.596 E12.82419
G1 X96.82 Y111.683 E12.85459
G1 X96.817 Y111.602 E12.85728
G1 X96.795 Y110.801 E12.88393
G1 X96.803 Y110.312 E12.9002
G1 X96.834 Y109.795 E12.91743
G1 X96.854 Y109.554 E12.92547
G1 X96.875 Y109.351 E12.93226
G1 X96.983 Y108.691 E12.9545
G1 X97.188 Y107.998 E12.97854
G1 X97.41 Y107.393 E12.99997
G1 X97.677 Y106.78 E13.02221
G1 X98.019 Y106.198 E13.04466
G1 X98.14 Y106.018 E13.05188
G1 X98.719 Y105.294 E13.08271
G1 X98.963 Y105.036 E13.09452
G1 X99.33 Y104.682 E13.11148
G0 F3600 X99.595 Y104.982
G1 F1500 X99.805 Y104.797 E13.12079
G1 X100.384 Y104.355 E13.14502
G1 X100.647 Y104.182 E13.15549
G1 X101.207 Y103.861 E13.17696
G1 X101.997 Y103.55 E13.20519
G1 X102.604 Y103.366 E13.22629
G1 X103.231 Y103.217 E13.24773
G1 X103.872 Y103.148 E13.26917
G1 X104.207 Y103.143 E13.28031
G1 X105.024 Y103.158 E13.30749
G1 X105.142 Y103.161 E13.31142
G1 X108.956 Y103.317 E13.43838
G1 X112.916 Y103.399 E13.57011
G1 X121.208 Y103.401 E13.84591
G1 X123.963 Y103.363 E13.93755
G1 X126.522 Y103.257 E14.02273
G1 X129.136 Y103.115 E14.1098
G1 X129.21 Y103.111 E14.11227
G1 X129.955 Y103.081 E14.13707
G1 X130.088 Y103.078 E14.14149
G1 X130.294 Y103.075 E14.14834
G1 X130.55 Y103.077 E14.15686
G1 X130.983 Y103.092 E14.17127
G1 X131.625 Y103.154 E14.19272
G1 X132.174 Y103.273 E14.21141
G1 X132.679 Y103.411 E14.22882
G1 X133.289 Y103.619 E14.25025
G1 X134.015 Y103.987 E14.27733
G1 X134.412 Y104.229 E14.29279
G1 X134.551 Y104.317 E14.29826
G1 X134.71 Y104.421 E14.30458
G1 X135.227 Y104.807 E14.32604
G1 X135.805 Y105.381 E14.35313
G1 X136.108 Y105.733 E14.36858
G1 X136.215 Y105.861 E14.37413
G1 X136.319 Y105.99 E14.37964
G1 X136.692 Y106.516 E14.40109
G1 X137.023 Y107.142 E14.42464
G1 X137.123 Y107.367 E14.43283
G1 X137.409 Y108.192 E14.46187
G1 X137.537 Y108.693 E14.47907
G1 X137.669 Y109.425 E14.50381
G1 X137.732 Y110.012 E14.52345
G1 X137.761 Y110.664 E14.54515
G1 X137.744 Y111.577 E14.57552
G1 X137.742 Y111.65 E14.57795
G1 X137.713 Y112.549 E14.60787
G1 X137.696 Y114.346 E14.66764
G1 X137.696 Y119.881 E14.85174
G1 X137.733 Y122.521 E14.93955
G1 X137.792 Y124.149 E14.99373
G1 X137.795 Y124.291 E14.99846
G1 X137.797 Y124.518 E15.00601
G1 X137.785 Y124.918 E15.01932
G1 X137.771 Y125.123 E15.02615
G1 X137.761 Y125.25 E15.03039
G1 X137.728 Y125.605 E15.04225
G1 X137.628 Y126.242 E15.06369
G1 X137.44 Y126.893 E15.08623
G1 X137.271 Y127.36 E15.10275
G1 X137.014 Y127.952 E15.12421
G1 X136.839 Y128.269 E15.13626
G1 X136.666 Y128.557 E15.14743
G1 X136.238 Y129.166 E15.17219
G1 X135.977 Y129.486 E15.18592
G1 X135.539 Y129.959 E15.20737
