;FLAVOR:Marlin
;TIME:3907
;Filament used: 1.53541m
;Layer height: 0.15
;MINX:96.039
;MINY:82.88
;MINZ:0.2
;MAXX:138.958
;MAXY:132.115
;MAXZ:9.95
;Generated with Cura_SteamEngine 4.1.0
M140 S60
M105
M190 S60
M104 S215
M105
M109 S215
M82 ;absolute extrusion mode
; Ender 3 Custom Start G-code
G28 ; Home all axes
G92 E0 ; Reset Extruder
G1 Z2.0 F3000 ; Move Z Axis up little to prevent scratching of Heat Bed
G1 X0.1 Y20 Z0.3 F5000.0 ; Move to start position
G1 X0.1 Y200.0 Z0.3 F1500.0 E15 ; Draw the first line
G1 X0.4 Y200.0 Z0.3 F5000.0 ; Move to side a little
G1 X0.4 Y20 Z0.3 F1500.0 E30 ; Draw the second line
G92 E0 ; Reset Extruder
G1 Z2.0 F3000 ; Move Z Axis up little to prevent scratching of Heat Bed
; End of custom start GCode
G92 E0
G92 E0
G1 F2400 E-5
;LAYER_COUNT:66
;LAYER:0
M107
M204 S500
M205 X10 Y10
G0 F3600 X98.114 Y85.766 Z0.2
;TYPE:SKIRT
G1 F2400 E0
G1 F900 X98.509 Y85.358 E0.01889
G1 X98.831 Y85.054 E0.03362
G1 X99.574 Y84.451 E0.06544
G1 X99.862 Y84.251 E0.07711
G1 X100.472 Y83.877 E0.1009
G1 X100.8 Y83.712 E0.11312
G1 X100.988 Y83.624 E0.12002
G1 X101.652 Y83.357 E0.14382
G1 X102.097 Y83.224 E0.15927
G1 X102.599 Y83.094 E0.17652
G1 X103.3 Y82.954 E0.20029
G1 X104.352 Y82.892 E0.23534
G1 X104.912 Y82.905 E0.25397
G1 X105.062 Y82.91 E0.25897
G1 X109.047 Y83.097 E0.39165
G1 X111.786 Y83.186 E0.4828
G1 X113.539 Y83.202 E0.54111
G1 X121.291 Y83.203 E0.79894
G1 X123.934 Y83.166 E0.88686
G1 X126.446 Y83.062 E0.97048
G1 X129.144 Y82.915 E1.06035
G1 X129.235 Y82.911 E1.06338
G1 X129.905 Y82.884 E1.08568
G1 X130.292 Y82.88 E1.09855
G1 X130.939 Y82.893 E1.12007
G1 X131.652 Y82.948 E1.14386
G1 X132.513 Y83.123 E1.17308
G1 X133.013 Y83.261 E1.19033
G1 X133.691 Y83.489 E1.21413
G1 X134.599 Y83.94 E1.24785
G1 X135.038 Y84.203 E1.26487
G1 X135.63 Y84.604 E1.28865
G1 X135.984 Y84.894 E1.30387
G1 X136.299 Y85.172 E1.31784
G1 X136.808 Y85.675 E1.34164
G1 X137.258 Y86.231 E1.36543
G1 X137.481 Y86.562 E1.37871
G1 X137.7 Y86.91 E1.39238
G1 X137.872 Y87.201 E1.40363
G1 X138.007 Y87.443 E1.41284
G1 X138.32 Y88.086 E1.43663
G1 X138.575 Y88.816 E1.46235
G1 X138.647 Y89.07 E1.47113
G1 X138.834 Y89.967 E1.5016
G1 X138.861 Y90.169 E1.50838
G1 X138.898 Y90.522 E1.52019
G1 X138.936 Y91.012 E1.53653
G1 X138.955 Y91.56 E1.55477
G1 X138.949 Y92.278 E1.57865
G1 X138.948 Y92.343 E1.58082
G1 X138.9 Y94.948 E1.66747
G1 X138.9 Y99.938 E1.83344
G1 X138.958 Y103.31 E1.94561
G1 X138.958 Y103.544 E1.95339
G1 X138.945 Y104.214 E1.97568
G1 X138.943 Y104.301 E1.97858
G1 X138.896 Y105.711 E2.0255
G1 X138.883 Y108.347 E2.11317
G1 X138.927 Y109.944 E2.16631
G1 X138.928 Y109.997 E2.16807
G1 X138.955 Y111.382 E2.21415
G1 X138.956 Y111.569 E2.22037
G1 X138.949 Y112.296 E2.24455
G1 X138.948 Y112.352 E2.24641
G1 X138.9 Y114.948 E2.33277
G1 X138.9 Y119.938 E2.49874
G1 X138.958 Y123.292 E2.61031
G1 X138.951 Y123.732 E2.62495
G1 X138.936 Y124.023 E2.63464
G1 X138.913 Y124.327 E2.64478
G1 X138.868 Y124.78 E2.65992
G1 X138.757 Y125.486 E2.68369
G1 X138.512 Y126.337 E2.71314
G1 X138.406 Y126.628 E2.72344
G1 X138.337 Y126.811 E2.72995
G1 X138.222 Y127.099 E2.74026
G1 X137.92 Y127.748 E2.76407
G1 X137.516 Y128.404 E2.7897
G1 X137.318 Y128.686 E2.80116
G1 X136.875 Y129.247 E2.82493
G1 X136.367 Y129.76 E2.84894
G1 X135.937 Y130.148 E2.86821
G1 X135.38 Y130.596 E2.89198
G1 X134.78 Y130.978 E2.91564
G1 X134.5 Y131.135 E2.92632
G1 X133.858 Y131.45 E2.9501
G1 X133.033 Y131.733 E2.97911
G1 X132.442 Y131.892 E2.99947
G1 X131.742 Y132.039 E3.02326
G1 X131.03 Y132.107 E3.04704
G1 X130.585 Y132.109 E3.06185
G1 X129.959 Y132.09 E3.08268
G1 X129.855 Y132.086 E3.08614
G1 X125.944 Y131.904 E3.21636
G1 X123.201 Y131.814 E3.30764
G1 X121.454 Y131.798 E3.36575
G1 X113.7 Y131.797 E3.62365
G1 X111.057 Y131.834 E3.71156
G1 X108.558 Y131.937 E3.79475
G1 X105.873 Y132.083 E3.88419
G1 X105.783 Y132.087 E3.88718
G1 X105.336 Y132.105 E3.90206
G1 X105.118 Y132.11 E3.90931
G1 X104.325 Y132.115 E3.93569
G1 X103.611 Y132.079 E3.95947
G1 X102.993 Y131.983 E3.98027
G1 X102.702 Y131.923 E3.99015
G1 X102.244 Y131.811 E4.00583
G1 X101.945 Y131.726 E4.01617
G1 X101.269 Y131.492 E4.03996
G1 X100.404 Y131.059 E4.07214
G1 X99.922 Y130.77 E4.09083
G1 X99.33 Y130.368 E4.11463
G1 X98.98 Y130.081 E4.12969
G1 X98.701 Y129.835 E4.14206
G1 X98.192 Y129.333 E4.16583
G1 X97.742 Y128.777 E4.18962
G1 X97.463 Y128.355 E4.20645
G1 X97.199 Y127.92 E4.22338
G1 X96.78 Y127.104 E4.25388
G1 X96.672 Y126.85 E4.26306
G1 X96.346 Y125.868 E4.29748
G1 X96.275 Y125.578 E4.30741
G1 X96.12 Y124.669 E4.33808
G1 X96.09 Y124.357 E4.3485
G1 X96.075 Y124.168 E4.35481
G1 X96.057 Y123.897 E4.36384
G1 X96.044 Y123.364 E4.38158
G1 X96.062 Y122.308 E4.4167
G1 X96.064 Y122.219 E4.41966
G1 X96.086 Y121.522 E4.44286
G1 X96.1 Y119.882 E4.49741
G1 X96.1 Y115.204 E4.653
G1 X96.062 Y112.545 E4.74145
G1 X96.05 Y112.229 E4.75196
G1 X96.046 Y112.092 E4.75652
G1 X96.039 Y111.679 E4.77026
G1 X96.042 Y111.343 E4.78144
G1 X96.05 Y111.119 E4.78889
G1 X96.116 Y108.432 E4.87829
G1 X96.107 Y105.781 E4.96646
G1 X96.046 Y103.67 E5.0367
G1 X96.044 Y103.376 E5.04648
G1 X96.062 Y102.309 E5.08198
G1 X96.064 Y102.219 E5.08497
G1 X96.086 Y101.522 E5.10816
G1 X96.1 Y99.882 E5.16271
G1 X96.1 Y95.204 E5.3183
G1 X96.062 Y92.545 E5.40675
G1 X96.05 Y92.229 E5.41727
G1 X96.046 Y92.088 E5.42196
G1 X96.039 Y91.656 E5.43633
G1 X96.053 Y91.117 E5.45426
G1 X96.078 Y90.75 E5.4665
G1 X96.091 Y90.586 E5.47197
G1 X96.121 Y90.267 E5.48263
G1 X96.228 Y89.559 E5.50644
G1 X96.486 Y88.659 E5.53758
G1 X96.63 Y88.267 E5.55147
G1 X96.695 Y88.097 E5.55753
G1 X96.773 Y87.902 E5.56451
G1 X97.075 Y87.254 E5.58829
G1 X97.482 Y86.594 E5.61408
G1 X97.67 Y86.327 E5.62494
G1 X98.114 Y85.766 E5.64874
G0 F3600 X98.428 Y86.015
G1 F900 X98.784 Y85.649 E5.66572
G1 X99.106 Y85.345 E5.68045
G1 X99.803 Y84.78 E5.71029
G1 X100.091 Y84.58 E5.72195
G1 X100.969 Y84.074 E5.75566
G1 X101.157 Y83.986 E5.76256
G1 X101.8 Y83.729 E5.78559
G1 X102.197 Y83.612 E5.79936
G1 X102.699 Y83.482 E5.8166
G1 X103.378 Y83.347 E5.83963
G1 X104.342 Y83.292 E5.87174
G1 X104.902 Y83.305 E5.89037
G1 X105.044 Y83.31 E5.8951
G1 X109.018 Y83.496 E6.02742
G1 X111.769 Y83.586 E6.11897
G1 X113.536 Y83.602 E6.17774
G1 X121.297 Y83.603 E6.43587
G1 X123.955 Y83.565 E6.52429
G1 X126.487 Y83.461 E6.60857
G1 X129.166 Y83.315 E6.69781
G1 X129.251 Y83.311 E6.70064
G1 X129.921 Y83.284 E6.72294
G1 X130.284 Y83.28 E6.73502
G1 X130.931 Y83.293 E6.75654
G1 X131.621 Y83.347 E6.77956
G1 X132.406 Y83.508 E6.80621
G1 X132.906 Y83.646 E6.82346
G1 X133.562 Y83.869 E6.84651
G1 X134.394 Y84.283 E6.87742
G1 X134.833 Y84.546 E6.89444
G1 X135.405 Y84.936 E6.91747
G1 X135.719 Y85.194 E6.93098
G1 X136.034 Y85.472 E6.94496
G1 X136.526 Y85.96 E6.968
G1 X137.142 Y86.775 E7.00198
G1 X137.361 Y87.123 E7.01566
G1 X137.523 Y87.396 E7.02622
G1 X137.658 Y87.638 E7.03543
G1 X137.96 Y88.261 E7.05846
G1 X138.191 Y88.925 E7.08184
G1 X138.263 Y89.179 E7.09063
G1 X138.437 Y90.02 E7.11919
G1 X138.464 Y90.222 E7.12597
G1 X138.499 Y90.553 E7.13704
G1 X138.537 Y91.043 E7.15338
G1 X138.555 Y91.557 E7.17049
G1 X138.549 Y92.275 E7.19437
G1 X138.548 Y92.336 E7.1964
G1 X138.5 Y94.941 E7.28306
G1 X138.5 Y99.938 E7.44926
G1 X138.558 Y103.317 E7.56166
G1 X138.558 Y103.536 E7.56895
G1 X138.545 Y104.206 E7.59123
G1 X138.543 Y104.288 E7.59396
G1 X138.496 Y105.71 E7.64128
G1 X138.483 Y108.356 E7.72929
G1 X138.527 Y109.955 E7.7825
G1 X138.528 Y110.005 E7.78416
G1 X138.555 Y111.39 E7.83023
G1 X138.556 Y111.565 E7.83605
G1 X138.549 Y112.292 E7.86023
G1 X138.548 Y112.345 E7.862
G1 X138.5 Y114.941 E7.94836
G1 X138.5 Y119.938 E8.11456
G1 X138.558 Y123.299 E8.22636
G1 X138.551 Y123.712 E8.2401
G1 X138.536 Y124.003 E8.24979
G1 X138.515 Y124.287 E8.25926
G1 X138.47 Y124.74 E8.2744
G1 X138.361 Y125.424 E8.29744
G1 X138.137 Y126.201 E8.32434
G1 X138.031 Y126.492 E8.33464
G1 X137.965 Y126.663 E8.34073
G1 X137.85 Y126.951 E8.35105
G1 X137.557 Y127.578 E8.37407
G1 X137.188 Y128.174 E8.39738
G1 X136.99 Y128.456 E8.40884
G1 X136.56 Y128.999 E8.43188
G1 X136.1 Y129.463 E8.45361
G1 X135.67 Y129.851 E8.47287
G1 X135.129 Y130.284 E8.49592
G1 X134.584 Y130.629 E8.51737
G1 X134.304 Y130.786 E8.52805
G1 X133.682 Y131.09 E8.55108
G1 X132.929 Y131.347 E8.57754
G1 X132.338 Y131.506 E8.5979
G1 X131.66 Y131.647 E8.62093
G1 X130.97 Y131.709 E8.64397
G1 X130.597 Y131.709 E8.65638
G1 X129.971 Y131.69 E8.67721
G1 X129.873 Y131.686 E8.68047
G1 X125.971 Y131.504 E8.81039
G1 X123.217 Y131.414 E8.90204
G1 X121.458 Y131.398 E8.96055
G1 X113.694 Y131.397 E9.21878
G1 X111.036 Y131.435 E9.30719
G1 X108.517 Y131.538 E9.39104
G1 X105.851 Y131.683 E9.47985
G1 X105.766 Y131.687 E9.48268
G1 X105.319 Y131.705 E9.49756
G1 X105.116 Y131.71 E9.50431
G1 X104.323 Y131.715 E9.53069
G1 X103.631 Y131.679 E9.55373
G1 X103.073 Y131.591 E9.57252
G1 X102.782 Y131.531 E9.5824
G1 X102.353 Y131.426 E9.59709
G1 X102.054 Y131.341 E9.60743
G1 X101.4 Y131.114 E9.63046
G1 X100.61 Y130.716 E9.65988
G1 X100.128 Y130.427 E9.67857
G1 X99.555 Y130.037 E9.70163
G1 X99.245 Y129.781 E9.715
G1 X98.966 Y129.535 E9.72737
G1 X98.474 Y129.048 E9.75039
G1 X98.041 Y128.508 E9.77342
G1 X97.805 Y128.148 E9.78773
G1 X97.541 Y127.713 E9.80466
G1 X97.148 Y126.948 E9.83326
G1 X97.04 Y126.694 E9.84244
G1 X96.734 Y125.773 E9.87472
G1 X96.663 Y125.483 E9.88465
G1 X96.519 Y124.63 E9.91342
G1 X96.489 Y124.318 E9.92385
G1 X96.474 Y124.142 E9.92972
G1 X96.456 Y123.871 E9.93876
G1 X96.444 Y123.371 E9.95539
G1 X96.462 Y122.315 E9.99052
G1 X96.464 Y122.232 E9.99328
G1 X96.485 Y121.539 E10.01634
G1 X96.5 Y119.885 E10.07136
G1 X96.5 Y115.204 E10.22705
G1 X96.462 Y112.565 E10.31483
G1 X96.449 Y112.213 E10.32654
G1 X96.446 Y112.086 E10.33077
G1 X96.439 Y111.673 E10.34451
G1 X96.442 Y111.357 E10.35502
G1 X96.45 Y111.133 E10.36247
G1 X96.516 Y108.432 E10.45234
G1 X96.507 Y105.768 E10.54094
G1 X96.446 Y103.658 E10.61115
G1 X96.444 Y103.383 E10.6203
G1 X96.462 Y102.316 E10.65579
G1 X96.464 Y102.232 E10.65858
G1 X96.485 Y101.539 E10.68164
G1 X96.5 Y99.885 E10.73666
G1 X96.5 Y95.204 E10.89235
G1 X96.462 Y92.565 E10.98013
G1 X96.449 Y92.213 E10.99185
G1 X96.446 Y92.081 E10.99624
G1 X96.439 Y91.649 E11.01061
G1 X96.452 Y91.144 E11.02741
G1 X96.477 Y90.777 E11.03965
G1 X96.489 Y90.623 E11.04478
G1 X96.519 Y90.304 E11.05544
G1 X96.624 Y89.62 E11.07846
G1 X96.861 Y88.797 E11.10694
G1 X97.005 Y88.405 E11.12083
G1 X97.066 Y88.246 E11.1265
G1 X97.144 Y88.051 E11.13348
G1 X97.438 Y87.424 E11.15652
G1 X97.809 Y86.825 E11.17995
G1 X97.997 Y86.558 E11.19081
G1 X98.428 Y86.015 E11.21387
G0 F3600 X98.741 Y86.265
G1 F900 X99.059 Y85.94 E11.22899
G1 X99.381 Y85.636 E11.24372
G1 X100.031 Y85.108 E11.27157
G1 X100.319 Y84.908 E11.28324
G1 X101.139 Y84.436 E11.3147
G1 X101.327 Y84.348 E11.32161
G1 X101.949 Y84.101 E11.34387
G1 X102.297 Y83.999 E11.35593
G1 X102.799 Y83.869 E11.37318
G1 X103.456 Y83.74 E11.39545
G1 X104.333 Y83.692 E11.42466
G1 X104.893 Y83.705 E11.44329
G1 X105.025 Y83.709 E11.44768
G1 X109.055 Y83.898 E11.58187
G1 X111.753 Y83.985 E11.67165
G1 X113.532 Y84.002 E11.73082
G1 X121.303 Y84.003 E11.98929
G1 X123.978 Y83.965 E12.07827
G1 X126.456 Y83.863 E12.16075
G1 X129.188 Y83.714 E12.25176
G1 X129.268 Y83.711 E12.25442
G1 X129.938 Y83.684 E12.27672
G1 X130.275 Y83.68 E12.28793
G1 X130.922 Y83.693 E12.30945
G1 X131.589 Y83.747 E12.33171
G1 X132.3 Y83.894 E12.35586
G1 X132.8 Y84.032 E12.37311
G1 X133.433 Y84.248 E12.39536
G1 X134.188 Y84.626 E12.42344
G1 X134.627 Y84.889 E12.44046
G1 X135.179 Y85.267 E12.46271
G1 X135.455 Y85.494 E12.4746
G1 X135.77 Y85.772 E12.48857
G1 X136.244 Y86.244 E12.51082
G1 X136.804 Y86.988 E12.54179
G1 X137.023 Y87.336 E12.55547
G1 X137.174 Y87.591 E12.56533
G1 X137.309 Y87.833 E12.57454
G1 X137.599 Y88.436 E12.5968
G1 X137.806 Y89.034 E12.61784
G1 X137.878 Y89.288 E12.62663
G1 X138.041 Y90.073 E12.65329
G1 X138.068 Y90.275 E12.66007
G1 X138.1 Y90.584 E12.6704
G1 X138.138 Y91.074 E12.68675
G1 X138.155 Y91.554 E12.70272
G1 X138.149 Y92.272 E12.7266
G1 X138.148 Y92.328 E12.72847
G1 X138.1 Y94.933 E12.81512
G1 X138.1 Y99.938 E12.98159
G1 X138.158 Y103.323 E13.09419
G1 X138.158 Y103.529 E13.10105
G1 X138.145 Y104.199 E13.12333
G1 X138.143 Y104.275 E13.12586
G1 X138.096 Y105.691 E13.17299
G1 X138.082 Y108.365 E13.26192
G1 X138.127 Y109.966 E13.31519
G1 X138.128 Y110.013 E13.31676
G1 X138.155 Y111.398 E13.36283
G1 X138.156 Y111.561 E13.36825
G1 X138.149 Y112.288 E13.39243
G1 X138.148 Y112.338 E13.3941
G1 X138.1 Y114.934 E13.48046
G1 X138.1 Y119.938 E13.64689
G1 X138.158 Y123.306 E13.75893
G1 X138.152 Y123.691 E13.77173
G1 X138.137 Y123.982 E13.78142
G1 X138.117 Y124.248 E13.7903
G1 X138.072 Y124.701 E13.80544
G1 X137.966 Y125.361 E13.82767
G1 X137.761 Y126.064 E13.85203
G1 X137.655 Y126.355 E13.86233
G1 X137.594 Y126.515 E13.86802
G1 X137.479 Y126.803 E13.87834
G1 X137.194 Y127.408 E13.90058
G1 X136.861 Y127.944 E13.92157
G1 X136.663 Y128.226 E13.93303
G1 X136.247 Y128.75 E13.95528
G1 X135.832 Y129.166 E13.97483
G1 X135.402 Y129.554 E13.99409
G1 X134.879 Y129.971 E14.01634
G1 X134.389 Y130.281 E14.03562
G1 X134.109 Y130.438 E14.0463
G1 X133.507 Y130.729 E14.06854
G1 X132.825 Y130.961 E14.0925
G1 X132.234 Y131.12 E14.11285
G1 X131.579 Y131.255 E14.1351
G1 X130.609 Y131.309 E14.16741
G1 X129.983 Y131.29 E14.18824
G1 X129.892 Y131.287 E14.19127
G1 X125.935 Y131.102 E14.32302
G1 X123.234 Y131.015 E14.4129
G1 X121.462 Y130.998 E14.47184
G1 X113.688 Y130.997 E14.73041
G1 X111.013 Y131.035 E14.81939
G1 X108.549 Y131.136 E14.90141
G1 X105.829 Y131.284 E14.99201
G1 X105.75 Y131.287 E14.99464
G1 X105.303 Y131.305 E15.00952
G1 X105.113 Y131.31 E15.01584
G1 X104.32 Y131.315 E15.04222
G1 X103.652 Y131.279 E15.06447
G1 X103.154 Y131.2 E15.08124
G1 X102.863 Y131.14 E15.09112
G1 X102.463 Y131.042 E15.10482
G1 X102.164 Y130.957 E15.11516
G1 X101.532 Y130.736 E15.13742
G1 X100.815 Y130.373 E15.16415
G1 X100.333 Y130.084 E15.18285
G1 X99.781 Y129.706 E15.2051
G1 X99.509 Y129.481 E15.21684
G1 X99.23 Y129.235 E15.22921
G1 X98.756 Y128.764 E15.25144
G1 X98.341 Y128.239 E15.27369
G1 X98.147 Y127.94 E15.28555
G1 X97.883 Y127.505 E15.30247
G1 X97.517 Y126.791 E15.32916
G1 X97.409 Y126.537 E15.33834
G1 X97.123 Y125.678 E15.36845
G1 X97.052 Y125.388 E15.37838
G1 X96.917 Y124.592 E15.40523
G1 X96.887 Y124.28 E15.41566
G1 X96.873 Y124.115 E15.42117
G1 X96.855 Y123.844 E15.4302
G1 X96.844 Y123.378 E15.4457
G1 X96.862 Y122.322 E15.48083
G1 X96.864 Y122.244 E15.48343
G1 X96.885 Y121.554 E15.50639
G1 X96.9 Y119.889 E15.56177
G1 X96.9 Y115.204 E15.71759
G1 X96.862 Y112.545 E15.80604
G1 X96.849 Y112.198 E15.81759
G1 X96.846 Y112.079 E15.82155
G1 X96.839 Y111.666 E15.83529
G1 X96.842 Y111.371 E15.8451
G1 X96.85 Y111.147 E15.85255
G1 X96.916 Y108.46 E15.94195
G1 X96.907 Y105.788 E16.03082
G1 X96.845 Y103.646 E16.1021
G1 X96.844 Y103.39 E16.11061
G1 X96.862 Y102.323 E16.1461
G1 X96.864 Y102.244 E16.14873
G1 X96.885 Y101.554 E16.17169
G1 X96.9 Y99.889 E16.22707
G1 X96.9 Y95.204 E16.3829
G1 X96.862 Y92.545 E16.47134
G1 X96.849 Y92.198 E16.48289
G1 X96.846 Y92.075 E16.48699
G1 X96.839 Y91.643 E16.50136
G1 X96.851 Y91.171 E16.51706
G1 X96.876 Y90.804 E16.52929
G1 X96.888 Y90.661 E16.53407
G1 X96.918 Y90.342 E16.54472
G1 X97.02 Y89.681 E16.56697
G1 X97.236 Y88.935 E16.5928
G1 X97.38 Y88.543 E16.60669
G1 X97.438 Y88.394 E16.61201
G1 X97.516 Y88.199 E16.61899
G1 X97.801 Y87.594 E16.64124
G1 X98.136 Y87.055 E16.66234
G1 X98.324 Y86.788 E16.67321
G1 X98.741 Y86.265 E16.69545
G0 F3600 X99.054 Y86.515
G1 F900 X99.333 Y86.231 E16.70869
G1 X99.655 Y85.927 E16.72342
G1 X100.259 Y85.437 E16.74929
G1 X100.547 Y85.237 E16.76095
G1 X101.309 Y84.798 E16.7902
