;FLAVOR:Marlin
;TIME:5545
;Filament used: 2.42208m
;Layer height: 0.15
;MINX:76.593
;MINY:86.617
;MINZ:0.2
;MAXX:160.488
;MAXY:147.77
;MAXZ:20
;Generated with Cura_SteamEngine 4.1.0
M140 S60
M105
M190 S60
M104 S215
M105
M109 S215
M82 ;absolute extrusion mode
; Ender 3 Custom Start G-code
G28 ; Home all axes
G92 E0 ; Reset Extruder
G1 Z2.0 F3000 ; Move Z Axis up little to prevent scratching of Heat Bed
G1 X0.1 Y20 Z0.3 F5000.0 ; Move to start position
G1 X0.1 Y200.0 Z0.3 F1500.0 E15 ; Draw the first line
G1 X0.4 Y200.0 Z0.3 F5000.0 ; Move to side a little
G1 X0.4 Y20 Z0.3 F1500.0 E30 ; Draw the second line
G92 E0 ; Reset Extruder
G1 Z2.0 F3000 ; Move Z Axis up little to prevent scratching of Heat Bed
; End of custom start GCode
G92 E0
G92 E0
G1 F2400 E-5
;LAYER_COUNT:133
;LAYER:0
M107
M204 S500
M205 X10 Y10
G0 F3600 X85.445 Y98.079 Z0.2
;TYPE:SKIRT
G1 F2400 E0
G1 F1500 X86.014 Y97.594 E0.02487
G1 X86.187 Y97.453 E0.03229
G1 X86.973 Y96.829 E0.06567
G1 X87.051 Y96.767 E0.06898
G1 X88.573 Y95.597 E0.13283
G1 X88.635 Y95.55 E0.13542
G1 X89.762 Y94.705 E0.18227
G1 X89.807 Y94.671 E0.18415
G1 X90.466 Y94.186 E0.21136
G1 X90.744 Y93.993 E0.22262
G1 X91.941 Y93.206 E0.27027
G1 X92.072 Y93.122 E0.27544
G1 X92.271 Y92.998 E0.28324
G1 X92.789 Y92.708 E0.30298
G1 X93.833 Y92.185 E0.34182
G1 X94.037 Y92.087 E0.34935
G1 X94.778 Y91.748 E0.37645
G1 X94.955 Y91.671 E0.38287
G1 X95.543 Y91.423 E0.4041
G1 X97.26 Y90.682 E0.4663
G1 X97.324 Y90.654 E0.46862
G1 X99.168 Y89.882 E0.53511
G1 X99.235 Y89.855 E0.53751
G1 X99.827 Y89.615 E0.55876
G1 X100.01 Y89.544 E0.56529
G1 X100.807 Y89.249 E0.59355
G1 X101.681 Y88.92 E0.62461
G1 X102.385 Y88.7 E0.64914
G1 X103.413 Y88.443 E0.68439
G1 X103.627 Y88.393 E0.6917
G1 X105.39 Y88.016 E0.75166
G1 X105.46 Y88.002 E0.75404
G1 X106.452 Y87.801 E0.7877
G1 X107.213 Y87.622 E0.8137
G1 X107.316 Y87.599 E0.81721
G1 X108.675 Y87.302 E0.86348
G1 X108.977 Y87.243 E0.87371
G1 X109.327 Y87.184 E0.88552
G1 X110.702 Y86.941 E0.93196
G1 X111.154 Y86.877 E0.94714
G1 X112.222 Y86.766 E0.98286
G1 X112.473 Y86.745 E0.99123
G1 X112.768 Y86.726 E1.00107
G1 X112.991 Y86.716 E1.00849
G1 X113.774 Y86.693 E1.03454
G1 X113.964 Y86.69 E1.04087
G1 X116.954 Y86.691 E1.14031
G1 X118.565 Y86.647 E1.19392
G1 X118.61 Y86.646 E1.19541
G1 X120.032 Y86.617 E1.24272
G1 X120.896 Y86.658 E1.27149
G1 X121.56 Y86.735 E1.29372
G1 X122.406 Y86.824 E1.32201
G1 X122.526 Y86.838 E1.32603
G1 X124.227 Y87.05 E1.38304
G1 X125.695 Y87.22 E1.4322
G1 X126.045 Y87.271 E1.44396
G1 X126.713 Y87.386 E1.46651
G1 X126.961 Y87.434 E1.47491
G1 X128.134 Y87.684 E1.5148
G1 X128.337 Y87.73 E1.52172
G1 X128.996 Y87.893 E1.5443
G1 X129.163 Y87.937 E1.55004
G1 X129.688 Y88.082 E1.56816
G1 X129.761 Y88.103 E1.57068
G1 X130.261 Y88.247 E1.58799
G1 X132.009 Y88.712 E1.64815
G1 X132.096 Y88.736 E1.65115
G1 X133.452 Y89.117 E1.698
G1 X133.74 Y89.205 E1.70802
G1 X134.086 Y89.32 E1.72014
G1 X134.3 Y89.395 E1.72769
G1 X136.269 Y90.128 E1.79757
G1 X136.385 Y90.173 E1.8017
G1 X137.381 Y90.566 E1.83732
G1 X137.472 Y90.602 E1.84057
G1 X138.231 Y90.915 E1.86788
G1 X138.296 Y90.943 E1.87023
G1 X139.227 Y91.339 E1.90388
G1 X139.366 Y91.4 E1.90893
G1 X140.49 Y91.91 E1.94998
G1 X140.657 Y91.988 E1.95611
G1 X141.15 Y92.229 E1.97437
G1 X141.459 Y92.391 E1.98597
G1 X142.127 Y92.764 E2.01142
G1 X142.199 Y92.805 E2.01417
G1 X144.165 Y93.936 E2.08961
G1 X144.698 Y94.231 E2.10987
G1 X144.853 Y94.319 E2.1158
G1 X145.182 Y94.513 E2.1285
G1 X145.34 Y94.609 E2.13465
G1 X146.457 Y95.312 E2.17855
G1 X146.585 Y95.395 E2.18362
G1 X146.873 Y95.586 E2.19512
G1 X147.437 Y96.007 E2.21853
G1 X147.685 Y96.214 E2.22927
G1 X147.801 Y96.313 E2.23434
G1 X148.153 Y96.621 E2.2499
G1 X148.862 Y97.231 E2.28101
G1 X148.993 Y97.347 E2.28683
G1 X149.41 Y97.726 E2.30557
G1 X150.701 Y98.877 E2.3631
G1 X150.746 Y98.917 E2.3651
G1 X151.238 Y99.364 E2.38721
G1 X151.679 Y99.806 E2.40797
G1 X152.404 Y100.607 E2.44391
G1 X152.473 Y100.685 E2.44737
G1 X152.981 Y101.265 E2.47302
G1 X153.144 Y101.459 E2.48144
G1 X153.3 Y101.652 E2.4897
G1 X153.67 Y102.159 E2.51057
G1 X153.812 Y102.375 E2.51917
G1 X153.813 Y102.375 E2.5192
G1 X155.503 Y104.903 E2.62034
G1 X155.574 Y105.012 E2.62467
G1 X156.152 Y105.916 E2.66036
G1 X156.186 Y105.97 E2.66248
G1 X158.292 Y109.336 E2.79454
G1 X158.938 Y110.325 E2.83383
G1 X159.295 Y110.945 E2.85763
G1 X159.655 Y111.814 E2.88891
G1 X159.967 Y112.756 E2.92192
G1 X160.016 Y112.909 E2.92726
G1 X160.217 Y113.571 E2.95027
G1 X160.386 Y114.266 E2.97406
G1 X160.477 Y114.975 E2.99783
G1 X160.488 Y115.69 E3.02162
G1 X160.422 Y116.384 E3.04481
G1 X160.254 Y117.499 E3.08231
G1 X160.227 Y117.663 E3.08784
G1 X160.101 Y118.373 E3.11182
G1 X159.936 Y119.069 E3.13561
G1 X159.724 Y119.675 E3.15696
G1 X158.681 Y122.229 E3.24872
G1 X157.531 Y125.292 E3.35754
G1 X157.432 Y125.54 E3.36642
G1 X156.826 Y126.97 E3.41808
G1 X156.753 Y127.135 E3.42408
G1 X156.571 Y127.533 E3.43864
G1 X156.53 Y127.621 E3.44186
G1 X156.244 Y128.222 E3.464
G1 X156.2 Y128.313 E3.46736
G1 X155.98 Y128.757 E3.48384
G1 X155.716 Y129.237 E3.50207
G1 X154.457 Y131.311 E3.58276
G1 X154.047 Y131.908 E3.60685
G1 X153.159 Y133.055 E3.6551
G1 X153.109 Y133.118 E3.65777
G1 X152.738 Y133.585 E3.67761
G1 X152.344 Y134.036 E3.69753
G1 X151.888 Y134.511 E3.71943
G1 X151.848 Y134.553 E3.72136
G1 X150.85 Y135.574 E3.76884
G1 X150.594 Y135.821 E3.78067
G1 X149.828 Y136.522 E3.81521
G1 X149.781 Y136.564 E3.81731
G1 X148.583 Y137.639 E3.87084
G1 X148.128 Y138.012 E3.89041
G1 X146.849 Y138.963 E3.94342
G1 X146.573 Y139.157 E3.95464
G1 X146.224 Y139.389 E3.96858
G1 X146.183 Y139.416 E3.97021
G1 X143.771 Y140.993 E4.06606
G1 X143.437 Y141.197 E4.07908
G1 X142.605 Y141.671 E4.11093
G1 X142.488 Y141.736 E4.11538
G1 X142.263 Y141.858 E4.12389
G1 X142.111 Y141.938 E4.1296
G1 X140.867 Y142.57 E4.17601
G1 X140.22 Y142.907 E4.20028
G1 X140.055 Y142.99 E4.20642
G1 X139.82 Y143.104 E4.21511
G1 X139.509 Y143.245 E4.22646
G1 X138.482 Y143.677 E4.26352
G1 X138.299 Y143.751 E4.27009
G1 X136.077 Y144.606 E4.34927
G1 X134.779 Y145.118 E4.39568
G1 X133.859 Y145.403 E4.42772
G1 X130.966 Y146.065 E4.52642
G1 X128.24 Y146.74 E4.61983
G1 X127.98 Y146.799 E4.6287
G1 X127.607 Y146.875 E4.64136
G1 X126.887 Y146.98 E4.66556
G1 X126.567 Y147.008 E4.67624
G1 X125.648 Y147.097 E4.70695
G1 X125.522 Y147.108 E4.71116
G1 X125.162 Y147.136 E4.72317
G1 X122.478 Y147.382 E4.81281
G1 X120.97 Y147.554 E4.86329
G1 X120.97 Y147.555 E4.86333
G1 X119.876 Y147.689 E4.89999
G1 X119.337 Y147.732 E4.91797
G1 X118.588 Y147.76 E4.9429
G1 X118.396 Y147.764 E4.94929
G1 X117.571 Y147.77 E4.97673
G1 X117.453 Y147.77 E4.98065
G1 X115.547 Y147.749 E5.04405
G1 X115.234 Y147.754 E5.05446
G1 X115.119 Y147.755 E5.05829
G1 X114.292 Y147.754 E5.08579
G1 X113.74 Y147.729 E5.10417
G1 X112.864 Y147.652 E5.13342
G1 X112.757 Y147.642 E5.13699
G1 X112.137 Y147.577 E5.15773
G1 X112.036 Y147.566 E5.16111
G1 X111.374 Y147.486 E5.18329
G1 X111.204 Y147.463 E5.18899
G1 X110.455 Y147.352 E5.21418
G1 X110.348 Y147.335 E5.21778
G1 X109.14 Y147.135 E5.2585
G1 X107.745 Y146.91 E5.3055
G1 X105.975 Y146.66 E5.36496
G1 X105.525 Y146.58 E5.38016
G1 X104.296 Y146.316 E5.42197
G1 X104.226 Y146.301 E5.42435
G1 X103.489 Y146.134 E5.44948
G1 X102.991 Y146 E5.46663
G1 X102.777 Y145.933 E5.47409
G1 X102.611 Y145.878 E5.47991
G1 X102.225 Y145.745 E5.49349
G1 X99.927 Y145.006 E5.57378
G1 X99.873 Y144.989 E5.57566
G1 X98.965 Y144.688 E5.60747
G1 X98.643 Y144.572 E5.61886
G1 X97.273 Y144.035 E5.6678
G1 X96.962 Y143.903 E5.67904
G1 X96.121 Y143.521 E5.70976
G1 X95.009 Y143.026 E5.75024
G1 X94.531 Y142.789 E5.76799
G1 X94.094 Y142.549 E5.78457
G1 X93.903 Y142.439 E5.7919
G1 X92.128 Y141.383 E5.8606
G1 X91.228 Y140.868 E5.89508
G1 X90.684 Y140.519 E5.91658
G1 X90.119 Y140.115 E5.93968
G1 X90.019 Y140.041 E5.94382
G1 X88.69 Y139.051 E5.99894
G1 X88.607 Y138.989 E6.00239
G1 X88.115 Y138.61 E6.02304
G1 X87.645 Y138.258 E6.04257
G1 X87.345 Y138.02 E6.05531
G1 X86.367 Y137.192 E6.09793
G1 X86.32 Y137.152 E6.09998
G1 X85.268 Y136.244 E6.1462
G1 X84.759 Y135.753 E6.16973
G1 X83.997 Y134.932 E6.20698
G1 X83.95 Y134.88 E6.20931
G1 X83.171 Y134.022 E6.24786
G1 X83.082 Y133.922 E6.25231
G1 X82.739 Y133.528 E6.26968
G1 X82.344 Y133.026 E6.29093
G1 X81.063 Y131.218 E6.36463
G1 X81.014 Y131.148 E6.36747
G1 X80.521 Y130.432 E6.39638
G1 X80.234 Y129.975 E6.41433
G1 X79.962 Y129.498 E6.43259
G1 X79.267 Y128.31 E6.47837
G1 X79.215 Y128.22 E6.48183
G1 X79.024 Y127.881 E6.49477
G1 X78.708 Y127.239 E6.51857
G1 X78.546 Y126.816 E6.53364
G1 X78.382 Y126.338 E6.55044
G1 X78.362 Y126.278 E6.55255
G1 X78.178 Y125.724 E6.57196
G1 X78.16 Y125.668 E6.57392
G1 X77.794 Y124.53 E6.61368
G1 X77.415 Y123.402 E6.65326
G1 X77.194 Y122.556 E6.68234
G1 X77.143 Y122.287 E6.69145
G1 X77.13 Y122.217 E6.69382
G1 X76.912 Y120.993 E6.73517
G1 X76.892 Y120.875 E6.73915
G1 X76.671 Y119.483 E6.78602
G1 X76.599 Y118.771 E6.80983
G1 X76.593 Y118.342 E6.8241
G1 X76.607 Y117.686 E6.84592
G1 X76.608 Y117.686 E6.84595
G1 X76.626 Y116.272 E6.89299
G1 X76.628 Y116.165 E6.89655
G1 X76.643 Y115.66 E6.91335
G1 X76.679 Y115.147 E6.93045
G1 X76.742 Y114.577 E6.94953
G1 X76.752 Y114.487 E6.95254
G1 X76.826 Y113.894 E6.97242
G1 X76.883 Y113.527 E6.98477
G1 X76.944 Y113.196 E6.99596
G1 X76.983 Y112.999 E7.00264
G1 X77.065 Y112.621 E7.01551
G1 X77.351 Y111.23 E7.06274
G1 X77.526 Y110.563 E7.08568
G1 X77.763 Y109.824 E7.11149
G1 X77.969 Y109.27 E7.13115
G1 X78.11 Y108.939 E7.14311
G1 X78.15 Y108.847 E7.14645
G1 X78.811 Y107.36 E7.20057
G1 X78.885 Y107.2 E7.20644
G1 X79.103 Y106.744 E7.22325
G1 X79.208 Y106.534 E7.23106
G1 X79.417 Y106.135 E7.24604
G1 X79.782 Y105.419 E7.27277
G1 X80.037 Y104.966 E7.29006
G1 X80.652 Y103.969 E7.32902
G1 X80.715 Y103.869 E7.33295
G1 X81.105 Y103.262 E7.35695
G1 X81.424 Y102.809 E7.37538
G1 X81.638 Y102.532 E7.38702
G1 X81.639 Y102.532 E7.38705
G1 X82.501 Y101.399 E7.4344
G1 X82.543 Y101.344 E7.4367
G1 X83.409 Y100.231 E7.48361
G1 X83.618 Y99.975 E7.4946
G1 X83.752 Y99.82 E7.50141
G1 X83.954 Y99.598 E7.5114
G1 X84.957 Y98.542 E7.55984
G1 X85.445 Y98.079 E7.58221
G0 F3600 X85.705 Y98.384
G1 F1500 X86.274 Y97.899 E7.60708
G1 X86.435 Y97.766 E7.61402
G1 X87.221 Y97.142 E7.6474
G1 X87.295 Y97.084 E7.65053
G1 X88.817 Y95.914 E7.71438
G1 X88.875 Y95.87 E7.7168
G1 X90.002 Y95.025 E7.76365
G1 X90.045 Y94.994 E7.76542
G1 X90.704 Y94.509 E7.79263
G1 X90.964 Y94.328 E7.80317
G1 X92.161 Y93.541 E7.85081
G1 X92.284 Y93.462 E7.85568
G1 X92.483 Y93.338 E7.86347
G1 X92.969 Y93.065 E7.88201
G1 X94.013 Y92.542 E7.92085
G1 X94.204 Y92.451 E7.92789
G1 X94.945 Y92.112 E7.95499
G1 X95.11 Y92.039 E7.96099
G1 X95.748 Y91.77 E7.98402
G1 X97.419 Y91.049 E8.04455
G1 X97.479 Y91.023 E8.04673
G1 X99.323 Y90.251 E8.11322
G1 X99.386 Y90.226 E8.11547
G1 X99.978 Y89.986 E8.13672
G1 X100.149 Y89.919 E8.14283
G1 X100.946 Y89.624 E8.17109
G1 X101.822 Y89.294 E8.20223
G1 X102.482 Y89.088 E8.22522
G1 X103.51 Y88.831 E8.26047
G1 X103.71 Y88.785 E8.26729
G1 X105.473 Y88.408 E8.32725
G1 X105.539 Y88.394 E8.3295
G1 X106.533 Y88.193 E8.36323
G1 X107.305 Y88.011 E8.38961
G1 X107.401 Y87.989 E8.39288
G1 X108.76 Y87.692 E8.43915
G1 X109.044 Y87.637 E8.44877
G1 X109.394 Y87.578 E8.46058
G1 X110.771 Y87.335 E8.50709
G1 X111.196 Y87.275 E8.52136
G1 X112.264 Y87.164 E8.55707
G1 X112.498 Y87.144 E8.56489
G1 X112.793 Y87.125 E8.57472
G1 X113.003 Y87.116 E8.58171
G1 X113.786 Y87.093 E8.60776
G1 X113.964 Y87.09 E8.61368
G1 X116.964 Y87.091 E8.71346
G1 X118.576 Y87.047 E8.7671
G1 X118.618 Y87.046 E8.7685
G1 X120.04 Y87.017 E8.8158
G1 X120.85 Y87.056 E8.84277
G1 X121.502 Y87.131 E8.8646
G1 X122.364 Y87.222 E8.89343
G1 X122.476 Y87.235 E8.89718
G1 X124.235 Y87.454 E8.95614
G1 X125.649 Y87.618 E9.00348
G1 X125.977 Y87.665 E9.01451
G1 X126.645 Y87.78 E9.03705
G1 X126.878 Y87.825 E9.04494
G1 X128.051 Y88.075 E9.08483
G1 X128.241 Y88.119 E9.09132
G1 X128.9 Y88.282 E9.1139
G1 X129.056 Y88.323 E9.11926
G1 X129.581 Y88.468 E9.13738
G1 X129.65 Y88.487 E9.13976
G1 X130.144 Y88.63 E9.15686
G1 X131.906 Y89.098 E9.2175
G1 X131.988 Y89.121 E9.22033
G1 X133.344 Y89.502 E9.26718
G1 X133.613 Y89.584 E9.27653
G1 X133.959 Y89.699 E9.28866
G1 X134.16 Y89.77 E9.29575
G1 X136.129 Y90.503 E9.36563
G1 X136.238 Y90.545 E9.36952
G1 X137.234 Y90.938 E9.40513
G1 X137.319 Y90.972 E9.40817
G1 X138.078 Y91.285 E9.43548
G1 X138.139 Y91.311 E9.43769
G1 X139.07 Y91.707 E9.47134
G1 X139.201 Y91.764 E9.47609
G1 X140.325 Y92.274 E9.51714
G1 X140.481 Y92.348 E9.52288
G1 X140.974 Y92.589 E9.54113
G1 X141.264 Y92.74 E9.55201
G1 X141.932 Y93.113 E9.57746
G1 X142 Y93.152 E9.58006
G1 X143.976 Y94.289 E9.65589
G1 X144.504 Y94.581 E9.67596
G1 X144.65 Y94.664 E9.68154
G1 X144.979 Y94.858 E9.69425
G1 X145.127 Y94.948 E9.70001
G1 X146.244 Y95.651 E9.7439
G1 X146.364 Y95.729 E9.74866
G1 X146.652 Y95.92 E9.76016
G1 X147.181 Y96.314 E9.7821
G1 X147.429 Y96.521 E9.79284
G1 X147.537 Y96.614 E9.79758
G1 X147.892 Y96.925 E9.81328
G1 X148.601 Y97.535 E9.84439
G1 X148.724 Y97.643 E9.84983
G1 X149.098 Y97.983 E9.86664
G1 X150.435 Y99.175 E9.92622
G1 X150.477 Y99.213 E9.9281
G1 X150.969 Y99.66 E9.95021
G1 X151.382 Y100.075 E9.96968
G1 X152.107 Y100.876 E10.00562
G1 X152.173 Y100.949 E10.00889
G1 X152.681 Y101.529 E10.03454
G1 X152.833 Y101.71 E10.0424
G1 X152.989 Y101.903 E10.05065
G1 X153.336 Y102.378 E10.07022
G1 X153.48 Y102.597 E10.07893
G1 X155.17 Y105.125 E10.18007
G1 X155.237 Y105.228 E10.18416
G1 X155.815 Y106.132 E10.21985
G1 X155.847 Y106.182 E10.22182
G1 X157.966 Y109.569 E10.3547
G1 X158.603 Y110.544 E10.39344
G1 X158.948 Y111.145 E10.41649
G1 X159.276 Y111.94 E10.44509
G1 X159.588 Y112.882 E10.4781
G1 X159.633 Y113.025 E10.48308
G1 X159.834 Y113.687 E10.50609
G1 X159.997 Y114.36 E10.52913
G1 X160.081 Y115.047 E10.55215
G1 X160.085 Y115.74 E10.5752
G1 X160.026 Y116.324 E10.59472
G1 X159.858 Y117.439 E10.63222
G1 X159.833 Y117.593 E10.63741
G1 X159.707 Y118.303 E10.66139
G1 X159.547 Y118.977 E10.68444
G1 X159.353 Y119.524 E10.70374
G1 X158.307 Y122.086 E10.79578
G1 X157.156 Y125.151 E10.90467
G1 X157.063 Y125.384 E10.91302
G1 X156.457 Y126.814 E10.96467
G1 X156.39 Y126.968 E10.97026
G1 X156.208 Y127.366 E10.98482
G1 X156.169 Y127.449 E10.98787
G1 X155.883 Y128.05 E11.01
G1 X155.841 Y128.136 E11.01319
G1 X155.621 Y128.58 E11.02967
G1 X155.374 Y129.029 E11.04671
G1 X154.115 Y131.103 E11.12741
G1 X153.73 Y131.663 E11.15001
G1 X152.842 Y132.81 E11.19826
G1 X152.796 Y132.869 E11.20075
G1 X152.425 Y133.336 E11.22058
G1 X152.055 Y133.759 E11.23927
G1 X151.599 Y134.234 E11.26117
G1 X151.562 Y134.273 E11.26296
G1 X150.564 Y135.294 E11.31045
G1 X150.324 Y135.526 E11.32155
G1 X149.558 Y136.227 E11.35609
G1 X149.514 Y136.267 E11.35806
G1 X148.316 Y137.342 E11.4116
G1 X147.889 Y137.691 E11.42994
G1 X146.61 Y138.642 E11.48295
G1 X146.352 Y138.824 E11.49345
G1 X146.003 Y139.056 E11.50739
G1 X145.964 Y139.081 E11.50893
G1 X143.552 Y140.658 E11.60478
G1 X143.239 Y140.849 E11.61698
G1 X142.407 Y141.323 E11.64883
G1 X142.297 Y141.385 E11.65303
G1 X142.072 Y141.507 E11.66154
G1 X141.93 Y141.581 E11.66686
G1 X140.741 Y142.185 E11.71122
G1 X140.035 Y142.553 E11.7377
G1 X139.881 Y142.63 E11.74343
G1 X139.646 Y142.744 E11.75212
G1 X139.353 Y142.877 E11.76282
G1 X138.326 Y143.309 E11.79987
G1 X138.155 Y143.378 E11.80601
G1 X135.884 Y144.252 E11.88694
G1 X134.633 Y144.745 E11.93166
G1 X133.769 Y145.013 E11.96175
G1 X130.903 Y145.669 E12.05954
G1 X128.144 Y146.352 E12.15408
G1 X127.9 Y146.407 E12.16239
G1 X127.527 Y146.483 E12.17506
G1 X126.852 Y146.581 E12.19774
G1 X126.589 Y146.604 E12.20652
G1 X125.61 Y146.699 E12.23924
G1 X125.491 Y146.709 E12.24321
