;FLAVOR:Marlin
;TIME:5419
;Filament used: 2.03556m
;Layer height: 0.15
;MINX:61.152
;MINY:96.203
;MINZ:0.2
;MAXX:173.851
;MAXY:138.796
;MAXZ:5
;Generated with Cura_SteamEngine 4.1.0
M140 S60
M105
M190 S60
M104 S215
M105
M109 S215
M82 ;absolute extrusion mode
; Ender 3 Custom Start G-code
G28 ; Home all axes
G92 E0 ; Reset Extruder
G1 Z2.0 F3000 ; Move Z Axis up little to prevent scratching of Heat Bed
G1 X0.1 Y20 Z0.3 F5000.0 ; Move to start position
G1 X0.1 Y200.0 Z0.3 F1500.0 E15 ; Draw the first line
G1 X0.4 Y200.0 Z0.3 F5000.0 ; Move to side a little
G1 X0.4 Y20 Z0.3 F1500.0 E30 ; Draw the second line
G92 E0 ; Reset Extruder
G1 Z2.0 F3000 ; Move Z Axis up little to prevent scratching of Heat Bed
; End of custom start GCode
G92 E0
G92 E0
G1 F2400 E-5
;LAYER_COUNT:33
;LAYER:0
M107
M204 S500
M205 X10 Y10
G0 F3600 X64.221 Y97.158 Z0.2
;TYPE:SKIRT
G1 F2400 E0
G1 F900 X64.851 Y96.82 E0.02378
G1 X65.514 Y96.553 E0.04755
G1 X66.204 Y96.363 E0.07136
G1 X66.91 Y96.25 E0.09514
G1 X67.363 Y96.22 E0.11024
G1 X67.684 Y96.21 E0.12092
G1 X67.884 Y96.207 E0.12757
G1 X81.096 Y96.209 E0.567
G1 X93.973 Y96.203 E0.99529
G1 X93.976 Y96.203 E0.99539
G1 X166.743 Y96.204 E3.41563
G1 X166.835 Y96.205 E3.41869
G1 X167.532 Y96.215 E3.44188
G1 X168.245 Y96.265 E3.46565
G1 X168.949 Y96.394 E3.48946
G1 X169.633 Y96.602 E3.51323
G1 X170.291 Y96.884 E3.53705
G1 X170.912 Y97.238 E3.56082
G1 X171.49 Y97.659 E3.5846
G1 X172.018 Y98.142 E3.6084
G1 X172.488 Y98.68 E3.63216
G1 X172.896 Y99.268 E3.65597
G1 X173.235 Y99.898 E3.67976
G1 X173.502 Y100.562 E3.70357
G1 X173.693 Y101.251 E3.72735
G1 X173.806 Y101.957 E3.75113
G1 X173.837 Y102.415 E3.7664
G1 X173.847 Y102.736 E3.77708
G1 X173.85 Y102.935 E3.7837
G1 X173.851 Y131.659 E4.73906
G1 X173.85 Y131.747 E4.74199
G1 X173.84 Y132.473 E4.76614
G1 X173.791 Y133.187 E4.78994
G1 X173.661 Y133.89 E4.81372
G1 X173.455 Y134.575 E4.83751
G1 X173.173 Y135.232 E4.86129
G1 X172.819 Y135.854 E4.88509
G1 X172.399 Y136.433 E4.90888
G1 X171.916 Y136.96 E4.93266
G1 X171.377 Y137.431 E4.95647
G1 X170.79 Y137.839 E4.98024
G1 X170.16 Y138.179 E5.00406
G1 X169.497 Y138.446 E5.02783
G1 X168.808 Y138.637 E5.05161
G1 X168.102 Y138.751 E5.07539
G1 X167.666 Y138.781 E5.08993
G1 X167.353 Y138.792 E5.10035
G1 X167.128 Y138.796 E5.10783
G1 X93.975 Y138.796 E7.54091
G1 X81.166 Y138.791 E7.96694
G1 X68.217 Y138.794 E8.39762
G1 X68.126 Y138.793 E8.40065
G1 X67.485 Y138.784 E8.42197
G1 X66.772 Y138.734 E8.44575
G1 X66.068 Y138.605 E8.46955
G1 X65.383 Y138.398 E8.49335
G1 X64.726 Y138.116 E8.51713
G1 X64.105 Y137.762 E8.54091
G1 X63.526 Y137.341 E8.56472
G1 X62.998 Y136.859 E8.58849
G1 X62.528 Y136.32 E8.61228
G1 X62.12 Y135.732 E8.63608
G1 X61.781 Y135.103 E8.65985
G1 X61.514 Y134.439 E8.68365
G1 X61.322 Y133.75 E8.70744
G1 X61.192 Y132.854 E8.73756
G1 X61.169 Y132.541 E8.74799
G1 X61.152 Y132.072 E8.7636
G1 X61.152 Y103.277 E9.72133
G1 X61.153 Y103.18 E9.72455
G1 X61.163 Y102.52 E9.74651
G1 X61.214 Y101.807 E9.77028
G1 X61.344 Y101.103 E9.7941
G1 X61.551 Y100.419 E9.81786
G1 X61.834 Y99.762 E9.84166
G1 X62.189 Y99.141 E9.86545
G1 X62.61 Y98.563 E9.88923
G1 X63.093 Y98.035 E9.91303
G1 X63.632 Y97.565 E9.93682
G1 X64.221 Y97.158 E9.96063
G0 F3600 X64.6 Y97.399
G1 F900 X65.221 Y97.092 E9.98367
G1 X65.873 Y96.86 E10.00669
G1 X66.548 Y96.703 E10.02974
G1 X67.375 Y96.62 E10.05738
G1 X67.696 Y96.61 E10.06806
G1 X67.884 Y96.607 E10.07432
G1 X81.096 Y96.609 E10.51375
G1 X93.973 Y96.603 E10.94204
G1 X93.976 Y96.603 E10.94214
G1 X166.743 Y96.604 E13.36238
G1 X166.829 Y96.605 E13.36524
G1 X167.526 Y96.615 E13.38843
G1 X168.217 Y96.664 E13.41147
G1 X168.897 Y96.794 E13.43449
G1 X169.558 Y97 E13.45752
G1 X170.191 Y97.282 E13.48057
G1 X170.787 Y97.634 E13.50359
G1 X171.339 Y98.053 E13.52664
G1 X171.838 Y98.533 E13.54967
G1 X172.279 Y99.067 E13.57271
G1 X172.656 Y99.648 E13.59574
G1 X172.963 Y100.269 E13.61878
G1 X173.196 Y100.921 E13.64181
G1 X173.353 Y101.595 E13.66483
G1 X173.437 Y102.427 E13.69264
G1 X173.447 Y102.748 E13.70332
G1 X173.45 Y102.935 E13.70954
G1 X173.451 Y131.659 E14.66491
G1 X173.45 Y131.742 E14.66767
G1 X173.44 Y132.468 E14.69182
G1 X173.391 Y133.158 E14.71482
G1 X173.262 Y133.839 E14.73788
G1 X173.056 Y134.5 E14.76091
G1 X172.775 Y135.133 E14.78394
G1 X172.423 Y135.729 E14.80696
G1 X172.004 Y136.281 E14.83001
G1 X171.525 Y136.781 E14.85304
G1 X170.991 Y137.222 E14.87608
G1 X170.41 Y137.599 E14.89911
G1 X169.789 Y137.906 E14.92215
G1 X169.138 Y138.14 E14.94516
G1 X168.463 Y138.297 E14.96821
G1 X167.652 Y138.381 E14.99533
G1 X167.339 Y138.392 E15.00575
G1 X167.128 Y138.396 E15.01277
G1 X93.975 Y138.396 E17.44584
G1 X81.166 Y138.391 E17.87187
G1 X68.217 Y138.394 E18.30256
G1 X68.132 Y138.393 E18.30539
G1 X67.491 Y138.384 E18.32671
G1 X66.8 Y138.335 E18.34975
G1 X66.12 Y138.206 E18.37277
G1 X65.459 Y137.999 E18.39581
G1 X64.826 Y137.718 E18.41884
G1 X64.23 Y137.366 E18.44186
G1 X63.678 Y136.947 E18.46491
G1 X63.178 Y136.468 E18.48794
G1 X62.737 Y135.934 E18.51098
G1 X62.36 Y135.353 E18.53401
G1 X62.053 Y134.732 E18.55705
G1 X61.819 Y134.08 E18.58009
G1 X61.662 Y133.406 E18.60311
G1 X61.591 Y132.825 E18.62258
G1 X61.568 Y132.512 E18.63302
G1 X61.552 Y132.072 E18.64766
G1 X61.552 Y103.277 E19.60539
G1 X61.553 Y103.186 E19.60842
G1 X61.563 Y102.526 E19.63037
G1 X61.613 Y101.835 E19.65341
G1 X61.743 Y101.155 E19.67644
G1 X61.95 Y100.494 E19.69948
G1 X62.232 Y99.862 E19.72249
G1 X62.585 Y99.266 E19.74553
G1 X63.004 Y98.715 E19.76856
G1 X63.484 Y98.216 E19.79159
G1 X64.019 Y97.775 E19.81465
G1 X64.6 Y97.399 E19.83766
G0 F3600 X64.403 Y97.993
G1 F900 X64.977 Y97.649 E19.85992
G1 X65.588 Y97.376 E19.88218
G1 X66.227 Y97.178 E19.90443
G1 X66.885 Y97.058 E19.92668
G1 X67.388 Y97.02 E19.94345
G1 X67.709 Y97.01 E19.95413
G1 X67.884 Y97.007 E19.95996
G1 X81.096 Y97.009 E20.39939
G1 X93.973 Y97.003 E20.82768
G1 X93.976 Y97.003 E20.82778
G1 X166.743 Y97.004 E23.24802
G1 X166.823 Y97.005 E23.25068
G1 X167.52 Y97.015 E23.27387
G1 X168.188 Y97.064 E23.29614
G1 X168.844 Y97.193 E23.31838
G1 X169.481 Y97.399 E23.34065
G1 X170.088 Y97.68 E23.36289
G1 X170.657 Y98.031 E23.38513
G1 X171.181 Y98.447 E23.40738
G1 X171.651 Y98.923 E23.42963
G1 X172.061 Y99.451 E23.45187
G1 X172.406 Y100.025 E23.47414
G1 X172.679 Y100.636 E23.4964
G1 X172.877 Y101.275 E23.51865
G1 X172.998 Y101.933 E23.5409
G1 X173.037 Y102.44 E23.55781
G1 X173.047 Y102.761 E23.56849
G1 X173.05 Y102.935 E23.57428
G1 X173.051 Y131.659 E24.52965
G1 X173.05 Y131.736 E24.53221
G1 X173.04 Y132.462 E24.55636
G1 X172.991 Y133.129 E24.5786
G1 X172.863 Y133.786 E24.60086
G1 X172.657 Y134.423 E24.62313
G1 X172.377 Y135.03 E24.64536
G1 X172.026 Y135.6 E24.66763
G1 X171.61 Y136.124 E24.68988
G1 X171.135 Y136.594 E24.71211
G1 X170.606 Y137.005 E24.73439
G1 X170.033 Y137.349 E24.75662
G1 X169.422 Y137.623 E24.77889
G1 X168.783 Y137.822 E24.80115
G1 X168.125 Y137.943 E24.8234
G1 X167.638 Y137.982 E24.83965
G1 X167.325 Y137.993 E24.85007
G1 X167.128 Y137.996 E24.85662
G1 X93.975 Y137.996 E27.2897
G1 X81.166 Y137.991 E27.71573
G1 X68.217 Y137.994 E28.14641
G1 X68.137 Y137.993 E28.14907
G1 X67.496 Y137.984 E28.1704
G1 X66.829 Y137.935 E28.19264
G1 X66.173 Y137.807 E28.21487
G1 X65.536 Y137.601 E28.23714
G1 X64.929 Y137.32 E28.25939
G1 X64.359 Y136.969 E28.28165
G1 X63.835 Y136.553 E28.3039
G1 X63.365 Y136.077 E28.32615
G1 X62.954 Y135.549 E28.34841
G1 X62.61 Y134.975 E28.37066
G1 X62.337 Y134.365 E28.39289
G1 X62.138 Y133.726 E28.41515
G1 X61.99 Y132.795 E28.44651
G1 X61.967 Y132.482 E28.45694
G1 X61.952 Y132.072 E28.47059
G1 X61.952 Y103.277 E29.42832
G1 X61.953 Y103.192 E29.43114
G1 X61.963 Y102.532 E29.4531
G1 X62.013 Y101.865 E29.47534
G1 X62.142 Y101.209 E29.49758
G1 X62.349 Y100.572 E29.51986
G1 X62.63 Y99.965 E29.5421
G1 X62.981 Y99.396 E29.56434
G1 X63.398 Y98.873 E29.58659
G1 X63.874 Y98.403 E29.60884
G1 X64.403 Y97.993 E29.6311
G0 F3600 X64.786 Y98.22
G1 F900 X65.351 Y97.91 E29.65253
G1 X65.95 Y97.673 E29.67396
G1 X66.575 Y97.512 E29.69542
G1 X67.4 Y97.42 E29.72303
G1 X67.721 Y97.41 E29.73372
G1 X67.884 Y97.407 E29.73914
G1 X81.097 Y97.409 E30.1786
G1 X93.974 Y97.403 E30.60689
G1 X93.976 Y97.403 E30.60696
G1 X166.743 Y97.404 E33.0272
G1 X166.818 Y97.405 E33.0297
G1 X167.515 Y97.415 E33.05288
G1 X168.157 Y97.464 E33.0743
G1 X168.789 Y97.592 E33.09574
G1 X169.4 Y97.798 E33.11719
G1 X169.981 Y98.077 E33.13863
G1 X170.523 Y98.426 E33.16007
G1 X171.017 Y98.84 E33.1815
G1 X171.457 Y99.312 E33.20297
G1 X171.835 Y99.834 E33.2244
G1 X172.145 Y100.399 E33.24584
G1 X172.383 Y100.998 E33.26727
G1 X172.545 Y101.622 E33.28872
G1 X172.637 Y102.452 E33.31649
G1 X172.647 Y102.773 E33.32717
G1 X172.65 Y102.935 E33.33256
G1 X172.651 Y131.659 E34.28793
G1 X172.651 Y131.731 E34.29032
G1 X172.641 Y132.457 E34.31447
G1 X172.592 Y133.099 E34.33589
G1 X172.464 Y133.731 E34.35733
G1 X172.259 Y134.342 E34.37877
G1 X171.979 Y134.923 E34.40022
G1 X171.63 Y135.466 E34.42169
G1 X171.217 Y135.96 E34.4431
G1 X170.746 Y136.4 E34.46454
G1 X170.223 Y136.778 E34.486
G1 X169.658 Y137.089 E34.50746
G1 X169.059 Y137.327 E34.52889
G1 X168.435 Y137.489 E34.55034
G1 X167.624 Y137.582 E34.57749
G1 X167.311 Y137.593 E34.5879
G1 X167.128 Y137.596 E34.59399
G1 X93.975 Y137.596 E37.02707
G1 X81.166 Y137.591 E37.4531
G1 X68.217 Y137.594 E37.88378
G1 X68.143 Y137.593 E37.88625
G1 X67.502 Y137.584 E37.90757
G1 X66.859 Y137.535 E37.92902
G1 X66.227 Y137.407 E37.95046
G1 X65.616 Y137.202 E37.9719
G1 X65.035 Y136.923 E37.99333
G1 X64.493 Y136.573 E38.01479
G1 X63.999 Y136.16 E38.03621
G1 X63.559 Y135.688 E38.05767
G1 X63.181 Y135.166 E38.07911
G1 X62.871 Y134.601 E38.10054
G1 X62.633 Y134.002 E38.12198
G1 X62.471 Y133.378 E38.14342
G1 X62.389 Y132.766 E38.16396
G1 X62.366 Y132.453 E38.1744
G1 X62.352 Y132.072 E38.18708
G1 X62.352 Y103.277 E39.1448
G1 X62.353 Y103.198 E39.14743
G1 X62.363 Y102.538 E39.16939
G1 X62.412 Y101.895 E39.19083
G1 X62.541 Y101.264 E39.21226
G1 X62.747 Y100.653 E39.2337
G1 X63.027 Y100.072 E39.25515
G1 X63.377 Y99.531 E39.27658
G1 X63.791 Y99.037 E39.29802
G1 X64.263 Y98.597 E39.31948
G1 X64.786 Y98.22 E39.34093
G1 F2400 E34.34093
;MESH:Logo Evan.STL
G0 F3600 X68.166 Y101.942
G0 X68.166 Y103.221
G0 X81.145 Y131.691
G0 X81.145 Y131.791
;TYPE:WALL-INNER
G1 F2400 E39.34093
G1 F900 X68.351 Y131.794 E39.76646
G1 X68.151 Y131.794 E39.77311
G1 X68.151 Y131.594 E39.77742
G1 X68.152 Y103.407 E40.71492
G1 X68.152 Y103.207 E40.72157
G1 X68.352 Y103.207 E40.72588
G1 X81.145 Y103.209 E41.15138
G1 X93.976 Y103.203 E41.57814
G1 X166.85 Y103.204 E44.00194
G1 X166.851 Y131.597 E44.94629
G1 X166.851 Y131.797 E44.95294
G1 X166.651 Y131.797 E44.95725
G1 X93.977 Y131.796 E47.3744
G1 X81.145 Y131.791 E47.80119
G0 F3600 X81.145 Y131.691
G0 X81.144 Y103.308
G0 X81.145 Y102.809
;TYPE:WALL-OUTER
G1 F900 X93.976 Y102.803 E48.22795
G1 X167.25 Y102.804 E50.66506
G1 X167.251 Y131.997 E51.63602
G1 X167.251 Y132.197 E51.64267
G1 X167.051 Y132.197 E51.64698
G1 X93.977 Y132.196 E54.07743
G1 X81.145 Y132.191 E54.50422
G1 X67.951 Y132.194 E54.94306
G1 X67.751 Y132.194 E54.94971
G1 X67.751 Y131.994 E54.95402
G1 X67.752 Y103.007 E55.91813
G1 X67.752 Y102.807 E55.92478
G1 X67.952 Y102.807 E55.92909
G1 X81.145 Y102.809 E56.36789
G0 F3600 X81.345 Y102.809
G0 X81.145 Y103.599
;TYPE:SKIN
G1 F900 X93.976 Y103.593 E56.79465
G1 X166.46 Y103.594 E59.20548
G1 X166.461 Y131.407 E60.13054
G1 X93.977 Y131.406 E62.54137
G1 X81.145 Y131.401 E62.96816
G1 X68.541 Y131.404 E63.38737
G1 X68.542 Y103.597 E64.31224
G1 X81.145 Y103.599 E64.73141
G0 F3600 X68.997 Y131.222
G1 F900 X68.72 Y130.946 E64.74442
G0 F3600 X68.72 Y130.38
G1 F900 X69.563 Y131.222 E64.78405
G0 F3600 X70.128 Y131.222
G1 F900 X68.72 Y129.814 E64.85028
G0 F3600 X68.72 Y129.249
G1 F900 X70.694 Y131.222 E64.9431
G0 F3600 X71.26 Y131.222
G1 F900 X68.72 Y128.683 E65.06256
G0 F3600 X68.72 Y128.117
G1 F900 X71.825 Y131.222 E65.2086
G0 F3600 X72.39 Y131.222
G1 F900 X68.72 Y127.552 E65.38123
G0 F3600 X68.72 Y126.986
G1 F900 X72.956 Y131.222 E65.58048
G0 F3600 X73.522 Y131.222
G1 F900 X68.72 Y126.42 E65.80635
G0 F3600 X68.72 Y125.855
G1 F900 X74.087 Y131.222 E66.0588
G0 F3600 X74.653 Y131.222
G1 F900 X68.72 Y125.289 E66.33787
G0 F3600 X68.72 Y124.723
G1 F900 X75.218 Y131.221 E66.64351
G0 F3600 X75.784 Y131.221
G1 F900 X68.72 Y124.158 E66.97576
G0 F3600 X68.72 Y123.592
G1 F900 X76.349 Y131.221 E67.3346
G0 F3600 X76.915 Y131.221
G1 F900 X68.72 Y123.026 E67.72007
G0 F3600 X68.72 Y122.46
G1 F900 X77.481 Y131.221 E68.13216
G0 F3600 X78.046 Y131.22
G1 F900 X68.72 Y121.895 E68.5708
G0 F3600 X68.72 Y121.329
G1 F900 X78.611 Y131.22 E69.03605
G0 F3600 X79.177 Y131.22
G1 F900 X68.72 Y120.763 E69.52791
G0 F3600 X68.72 Y120.198
G1 F900 X79.743 Y131.22 E70.04638
G0 F3600 X80.308 Y131.22
G1 F900 X68.72 Y119.632 E70.59144
G0 F3600 X68.72 Y119.066
G1 F900 X80.874 Y131.22 E71.16313
G0 F3600 X81.44 Y131.22
G1 F900 X68.72 Y118.501 E71.76141
G0 F3600 X68.72 Y117.935
G1 F900 X82.006 Y131.22 E72.38632
G0 F3600 X82.571 Y131.22
G1 F900 X68.721 Y117.37 E73.03778
G0 F3600 X68.721 Y116.804
G1 F900 X83.138 Y131.221 E73.71592
G0 F3600 X83.703 Y131.221
G1 F900 X68.721 Y116.239 E74.42062
G0 F3600 X68.721 Y115.673
G1 F900 X84.269 Y131.221 E75.15195
G0 F3600 X84.835 Y131.222
G1 F900 X68.721 Y115.107 E75.90993
G0 F3600 X68.721 Y114.542
G1 F900 X85.401 Y131.222 E76.69451
G0 F3600 X85.967 Y131.222
G1 F900 X68.721 Y113.976 E77.50571
G0 F3600 X68.721 Y113.41
G1 F900 X86.532 Y131.222 E78.3435
G0 F3600 X87.099 Y131.222
G1 F900 X68.721 Y112.845 E79.20793
G0 F3600 X68.721 Y112.279
G1 F900 X87.664 Y131.222 E80.09895
G0 F3600 X88.23 Y131.222
G1 F900 X68.721 Y111.713 E81.01659
G0 F3600 X68.721 Y111.147
G1 F900 X88.797 Y131.223 E81.9609
G0 F3600 X89.362 Y131.223
G1 F900 X68.721 Y110.582 E82.93179
G0 F3600 X68.721 Y110.016
G1 F900 X89.928 Y131.223 E83.9293
G0 F3600 X90.494 Y131.224
G1 F900 X68.721 Y109.45 E84.95346
G0 F3600 X68.721 Y108.885
G1 F900 X91.06 Y131.224 E86.00422
G0 F3600 X91.626 Y131.224
G1 F900 X68.721 Y108.319 E87.0816
G0 F3600 X68.721 Y107.753
G1 F900 X92.192 Y131.224 E88.18561
G0 F3600 X92.758 Y131.224
G1 F900 X68.721 Y107.188 E89.31621
G0 F3600 X68.721 Y106.622
G1 F900 X93.323 Y131.224 E90.47341
G0 F3600 X93.889 Y131.224
G1 F900 X68.721 Y106.056 E91.65724
G0 F3600 X68.721 Y105.491
G1 F900 X94.456 Y131.225 E92.86771
G0 F3600 X95.021 Y131.225
G1 F900 X68.721 Y104.925 E94.10478
G0 F3600 X68.721 Y104.359
G1 F900 X95.587 Y131.225 E95.36848
G0 F3600 X96.153 Y131.225
G1 F900 X68.721 Y103.794 E96.65877
G0 F3600 X69.27 Y103.777
G1 F900 X96.718 Y131.225 E97.94984
G0 F3600 X97.284 Y131.225
G1 F900 X69.835 Y103.777 E99.24093
G0 F3600 X70.401 Y103.777
G1 F900 X97.85 Y131.225 E100.53203
G0 F3600 X98.415 Y131.225
G1 F900 X70.967 Y103.777 E101.82309
G0 F3600 X71.533 Y103.777
G1 F900 X98.981 Y131.225 E103.11416
G0 F3600 X99.547 Y131.225
G1 F900 X72.098 Y103.777 E104.40526
G0 F3600 X72.664 Y103.777
G1 F900 X100.112 Y131.225 E105.69633
G0 F3600 X100.678 Y131.225
G1 F900 X73.23 Y103.777 E106.9874
G0 F3600 X73.796 Y103.777
G1 F900 X101.244 Y131.225 E108.27847
G0 F3600 X101.809 Y131.225
G1 F900 X74.362 Y103.777 E109.56951
G0 F3600 X74.927 Y103.777
G1 F900 X102.375 Y131.225 E110.86058
G0 F3600 X102.941 Y131.225
G1 F900 X75.493 Y103.777 E112.15165
G0 F3600 X76.059 Y103.777
G1 F900 X103.506 Y131.225 E113.4427
G0 F3600 X104.072 Y131.225
G1 F900 X76.624 Y103.777 E114.73377
G0 F3600 X77.191 Y103.778
G1 F900 X104.638 Y131.225 E116.02479
G0 F3600 X105.204 Y131.225
G1 F900 X77.756 Y103.778 E117.31584
G0 F3600 X78.322 Y103.778
G1 F900 X105.769 Y131.225 E118.60686
G0 F3600 X106.335 Y131.225
G1 F900 X78.888 Y103.778 E119.89788
