;FLAVOR:Marlin
;TIME:2180
;Filament used: 0.291767m
;Layer height: 0.15
;MINX:102.594
;MINY:108.247
;MINZ:0.2
;MAXX:132.386
;MAXY:126.656
;MAXZ:22.1
;Generated with Cura_SteamEngine 4.1.0
M140 S60
M105
M190 S60
M104 S215
M105
M109 S215
M82 ;absolute extrusion mode
; Ender 3 Custom Start G-code
G28 ; Home all axes
G92 E0 ; Reset Extruder
G1 Z2.0 F3000 ; Move Z Axis up little to prevent scratching of Heat Bed
G1 X0.1 Y20 Z0.3 F5000.0 ; Move to start position
G1 X0.1 Y200.0 Z0.3 F1500.0 E15 ; Draw the first line
G1 X0.4 Y200.0 Z0.3 F5000.0 ; Move to side a little
G1 X0.4 Y20 Z0.3 F1500.0 E30 ; Draw the second line
G92 E0 ; Reset Extruder
G1 Z2.0 F3000 ; Move Z Axis up little to prevent scratching of Heat Bed
; End of custom start GCode
G92 E0
G92 E0
G1 F2400 E-5
;LAYER_COUNT:147
;LAYER:0
M107
M204 S500
M205 X10 Y10
G0 F3600 X105.943 Y109.997 Z0.2
;TYPE:SKIRT
G1 F2400 E0
G1 F300 X106.505 Y109.555 E0.02378
G1 X107.112 Y109.177 E0.04756
G1 X107.758 Y108.87 E0.07135
G1 X108.619 Y108.588 E0.10149
G1 X109.216 Y108.438 E0.12196
G1 X109.919 Y108.303 E0.14577
G1 X110.936 Y108.247 E0.17965
G1 X111.577 Y108.263 E0.20097
G1 X111.605 Y108.264 E0.2019
G1 X114.323 Y108.344 E0.29234
G1 X118.717 Y108.334 E0.43849
G1 X118.81 Y108.334 E0.44158
G1 X121.257 Y108.364 E0.52298
G1 X122.739 Y108.346 E0.57227
G1 X122.914 Y108.347 E0.57809
G1 X123.619 Y108.358 E0.60154
G1 X124.021 Y108.352 E0.61492
G1 X124.111 Y108.351 E0.61791
G1 X124.682 Y108.351 E0.6369
G1 X124.845 Y108.353 E0.64232
G1 X125.12 Y108.36 E0.65147
G1 X125.833 Y108.418 E0.67527
G1 X126.535 Y108.556 E0.69906
G1 X127.217 Y108.77 E0.72283
G1 X127.871 Y109.06 E0.74663
G1 X128.489 Y109.421 E0.77043
G1 X129.062 Y109.848 E0.7942
G1 X129.584 Y110.337 E0.81799
G1 X129.935 Y110.736 E0.83567
G1 X130.099 Y110.939 E0.84435
G1 X130.517 Y111.52 E0.86815
G1 X130.867 Y112.143 E0.89192
G1 X131.059 Y112.573 E0.90758
G1 X131.203 Y112.931 E0.92042
G1 X131.244 Y113.036 E0.92417
G1 X131.775 Y114.426 E0.97366
G1 X131.942 Y114.849 E0.98878
G1 X132.168 Y115.528 E1.01258
G1 X132.316 Y116.228 E1.03638
G1 X132.386 Y116.94 E1.06018
G1 X132.368 Y117.742 E1.08686
G1 X132.349 Y117.967 E1.09437
G1 X132.311 Y118.312 E1.10591
G1 X132.281 Y118.527 E1.11313
G1 X132.142 Y119.229 E1.13693
G1 X131.927 Y119.911 E1.16072
G1 X131.765 Y120.298 E1.17467
G1 X130.846 Y122.314 E1.24836
G1 X130.514 Y122.947 E1.27214
G1 X130.113 Y123.539 E1.29592
G1 X129.648 Y124.083 E1.31972
G1 X129.268 Y124.448 E1.33724
G1 X129.092 Y124.604 E1.34507
G1 X128.531 Y125.048 E1.36886
G1 X127.924 Y125.427 E1.39266
G1 X127.227 Y125.756 E1.4183
G1 X126.925 Y125.877 E1.42912
G1 X126.681 Y125.969 E1.43779
G1 X126.006 Y126.208 E1.46161
G1 X125.32 Y126.409 E1.48539
G1 X124.655 Y126.527 E1.50785
G1 X124.38 Y126.561 E1.51706
G1 X123.635 Y126.609 E1.54189
G1 X122.684 Y126.615 E1.57353
G1 X122.591 Y126.615 E1.57662
G1 X121.46 Y126.606 E1.61424
G1 X118.986 Y126.651 E1.69654
G1 X118.901 Y126.652 E1.69936
G1 X118.097 Y126.656 E1.72611
G1 X117.986 Y126.656 E1.7298
G1 X116.823 Y126.642 E1.76848
G1 X116.571 Y126.644 E1.77686
G1 X116.316 Y126.641 E1.78535
G1 X113.787 Y126.563 E1.8695
G1 X112.286 Y126.565 E1.91942
G1 X112.218 Y126.565 E1.92169
G1 X110.833 Y126.552 E1.96775
G1 X110.146 Y126.508 E1.99065
G1 X109.831 Y126.471 E2.0012
G1 X109.586 Y126.438 E2.00942
G1 X109.089 Y126.36 E2.02615
G1 X108.389 Y126.209 E2.04997
G1 X107.711 Y125.982 E2.07375
G1 X107.063 Y125.681 E2.09752
G1 X106.452 Y125.308 E2.12133
G1 X105.886 Y124.871 E2.14511
G1 X105.393 Y124.394 E2.16792
G1 X105.261 Y124.252 E2.17437
G1 X104.805 Y123.702 E2.19814
G1 X104.412 Y123.104 E2.22194
G1 X104.086 Y122.462 E2.24588
G1 X103.127 Y120.272 E2.3254
G1 X102.878 Y119.602 E2.34917
G1 X102.704 Y118.908 E2.37297
G1 X102.609 Y118.199 E2.39676
G1 X102.594 Y117.484 E2.42055
G1 X102.63 Y116.994 E2.43689
G1 X102.666 Y116.672 E2.44767
G1 X102.861 Y115.665 E2.48178
G1 X102.946 Y115.36 E2.49231
G1 X103.249 Y114.51 E2.52233
G1 X103.783 Y113.291 E2.56659
G1 X103.814 Y113.22 E2.56917
G1 X104.243 Y112.272 E2.60378
G1 X104.574 Y111.638 E2.62757
G1 X104.974 Y111.045 E2.65136
G1 X105.329 Y110.616 E2.66988
G1 X105.434 Y110.5 E2.67508
G1 X105.943 Y109.997 E2.69888
G0 F3600 X106.224 Y110.283
G1 F300 X106.771 Y109.857 E2.72194
G1 X107.362 Y109.497 E2.74496
G1 X107.991 Y109.208 E2.76798
G1 X108.717 Y108.976 E2.79333
G1 X109.314 Y108.826 E2.8138
G1 X109.994 Y108.696 E2.83683
G1 X110.926 Y108.647 E2.86787
G1 X111.567 Y108.663 E2.8892
G1 X111.593 Y108.664 E2.89006
G1 X114.312 Y108.744 E2.98054
G1 X118.718 Y108.734 E3.12708
G1 X118.805 Y108.734 E3.12998
G1 X121.257 Y108.764 E3.21154
G1 X122.744 Y108.746 E3.261
G1 X122.908 Y108.747 E3.26645
G1 X123.619 Y108.758 E3.2901
G1 X124.027 Y108.752 E3.30367
G1 X124.111 Y108.751 E3.30647
G1 X124.682 Y108.751 E3.32546
G1 X124.835 Y108.753 E3.33055
G1 X125.11 Y108.76 E3.3397
G1 X125.8 Y108.817 E3.36273
G1 X126.479 Y108.954 E3.38576
G1 X127.137 Y109.168 E3.40878
G1 X127.767 Y109.457 E3.43183
G1 X128.359 Y109.816 E3.45486
G1 X128.906 Y110.241 E3.4779
G1 X129.624 Y110.987 E3.51234
G1 X129.788 Y111.19 E3.52102
G1 X130.192 Y111.753 E3.54406
G1 X130.527 Y112.359 E3.56709
G1 X130.688 Y112.722 E3.5803
G1 X130.832 Y113.08 E3.59314
G1 X130.87 Y113.179 E3.59666
G1 X131.377 Y114.508 E3.64397
G1 X131.57 Y114.996 E3.66143
G1 X131.788 Y115.654 E3.68448
G1 X131.927 Y116.332 E3.7075
G1 X131.988 Y117.022 E3.73054
G1 X131.97 Y117.708 E3.75336
G1 X131.951 Y117.933 E3.76087
G1 X131.914 Y118.257 E3.77172
G1 X131.884 Y118.472 E3.77894
G1 X131.749 Y119.151 E3.80197
G1 X131.537 Y119.811 E3.82502
G1 X131.402 Y120.132 E3.83661
G1 X130.483 Y122.148 E3.9103
G1 X130.159 Y122.76 E3.93333
G1 X129.768 Y123.331 E3.95635
G1 X129.313 Y123.854 E3.9794
G1 X129.003 Y124.149 E3.99363
G1 X128.827 Y124.305 E4.00146
G1 X128.283 Y124.734 E4.0245
G1 X127.693 Y125.097 E4.04754
G1 X127.079 Y125.385 E4.0701
G1 X126.777 Y125.506 E4.08092
G1 X126.548 Y125.592 E4.08905
G1 X125.873 Y125.831 E4.11287
G1 X125.208 Y126.024 E4.1359
G1 X124.606 Y126.13 E4.15623
G1 X124.331 Y126.164 E4.16545
G1 X123.633 Y126.209 E4.18871
G1 X122.682 Y126.215 E4.22034
G1 X122.594 Y126.215 E4.22327
G1 X121.456 Y126.206 E4.26112
G1 X118.979 Y126.251 E4.34352
G1 X118.899 Y126.252 E4.34618
G1 X118.095 Y126.256 E4.37292
G1 X117.991 Y126.256 E4.37638
G1 X116.824 Y126.242 E4.4152
G1 X116.567 Y126.244 E4.42375
G1 X116.328 Y126.241 E4.4317
G1 X113.798 Y126.163 E4.51588
G1 X112.285 Y126.165 E4.56621
G1 X112.222 Y126.165 E4.5683
G1 X110.837 Y126.152 E4.61437
G1 X110.193 Y126.111 E4.63583
G1 X109.878 Y126.074 E4.64638
G1 X109.648 Y126.042 E4.6541
G1 X109.151 Y125.964 E4.67084
G1 X108.474 Y125.818 E4.69387
G1 X107.819 Y125.594 E4.7169
G1 X107.193 Y125.296 E4.73996
G1 X106.606 Y124.929 E4.76298
G1 X106.066 Y124.496 E4.786
G1 X105.686 Y124.122 E4.80374
G1 X105.554 Y123.98 E4.81018
G1 X105.113 Y123.446 E4.83322
G1 X104.736 Y122.866 E4.85623
G1 X104.453 Y122.302 E4.87721
G1 X103.494 Y120.112 E4.95673
G1 X103.253 Y119.462 E4.97979
G1 X103.089 Y118.79 E5.0028
G1 X103.003 Y118.102 E5.02586
G1 X102.997 Y117.41 E5.04887
G1 X103.027 Y117.038 E5.06129
G1 X103.063 Y116.716 E5.07206
G1 X103.246 Y115.772 E5.10405
G1 X103.331 Y115.467 E5.11458
G1 X103.615 Y114.67 E5.14272
G1 X104.149 Y113.451 E5.18698
G1 X104.179 Y113.385 E5.18939
G1 X104.608 Y112.437 E5.224
G1 X104.929 Y111.824 E5.24702
G1 X105.319 Y111.252 E5.27004
G1 X105.626 Y110.885 E5.28596
G1 X105.731 Y110.769 E5.29116
G1 X106.224 Y110.283 E5.31419
G0 F3600 X106.505 Y110.569
G1 F300 X107.035 Y110.161 E5.33643
G1 X107.61 Y109.819 E5.35868
G1 X108.222 Y109.548 E5.38095
G1 X108.814 Y109.364 E5.40156
G1 X109.411 Y109.214 E5.42204
G1 X110.069 Y109.09 E5.44431
G1 X110.916 Y109.047 E5.47252
G1 X111.557 Y109.063 E5.49384
G1 X111.581 Y109.063 E5.49464
G1 X114.332 Y109.144 E5.58618
G1 X118.719 Y109.134 E5.73209
G1 X118.8 Y109.134 E5.73479
G1 X121.257 Y109.164 E5.81651
G1 X122.749 Y109.146 E5.86614
G1 X122.902 Y109.147 E5.87123
G1 X123.618 Y109.158 E5.89505
G1 X124.032 Y109.152 E5.90882
G1 X124.111 Y109.151 E5.91144
G1 X124.682 Y109.151 E5.93044
G1 X124.824 Y109.153 E5.93516
G1 X125.099 Y109.16 E5.94431
G1 X125.766 Y109.217 E5.96657
G1 X126.421 Y109.353 E5.98882
G1 X127.055 Y109.566 E6.01107
G1 X127.66 Y109.853 E6.03334
G1 X128.225 Y110.211 E6.05559
G1 X128.744 Y110.633 E6.07784
G1 X129.313 Y111.239 E6.10548
G1 X129.477 Y111.442 E6.11416
G1 X129.866 Y111.986 E6.13641
G1 X130.316 Y112.871 E6.16943
G1 X130.46 Y113.229 E6.18226
G1 X130.497 Y113.322 E6.18559
G1 X131.006 Y114.655 E6.23305
G1 X131.199 Y115.143 E6.2505
G1 X131.407 Y115.779 E6.27276
G1 X131.538 Y116.435 E6.29501
G1 X131.59 Y117.102 E6.31726
G1 X131.571 Y117.674 E6.3363
G1 X131.552 Y117.899 E6.34381
G1 X131.518 Y118.202 E6.35395
G1 X131.488 Y118.417 E6.36117
G1 X131.356 Y119.073 E6.38342
G1 X131.038 Y119.966 E6.41495
G1 X130.119 Y121.982 E6.48864
G1 X129.805 Y122.573 E6.5109
G1 X129.424 Y123.122 E6.53313
G1 X128.738 Y123.85 E6.5664
G1 X128.562 Y124.006 E6.57422
G1 X128.035 Y124.419 E6.59649
G1 X127.463 Y124.766 E6.61874
G1 X126.93 Y125.013 E6.63828
G1 X126.628 Y125.134 E6.6491
G1 X126.414 Y125.215 E6.65671
G1 X125.739 Y125.454 E6.68053
G1 X125.096 Y125.639 E6.70278
G1 X124.557 Y125.733 E6.72098
G1 X124.282 Y125.767 E6.7302
G1 X123.63 Y125.809 E6.75193
G1 X122.679 Y125.815 E6.78356
G1 X122.598 Y125.815 E6.78625
G1 X121.452 Y125.806 E6.82437
G1 X118.972 Y125.851 E6.90687
G1 X118.897 Y125.852 E6.90936
G1 X118.093 Y125.856 E6.9361
G1 X117.996 Y125.856 E6.93933
G1 X116.826 Y125.842 E6.97825
G1 X116.564 Y125.844 E6.98696
G1 X116.341 Y125.841 E6.99438
G1 X113.811 Y125.763 E7.07857
G1 X112.285 Y125.765 E7.12932
G1 X112.225 Y125.765 E7.13132
G1 X110.84 Y125.752 E7.17739
G1 X110.24 Y125.714 E7.19738
G1 X109.925 Y125.677 E7.20793
G1 X109.71 Y125.647 E7.21515
G1 X109.213 Y125.569 E7.23188
G1 X108.559 Y125.426 E7.25415
G1 X107.927 Y125.206 E7.27641
G1 X107.326 Y124.913 E7.29864
G1 X106.764 Y124.549 E7.32092
G1 X106.25 Y124.122 E7.34314
G1 X105.979 Y123.85 E7.35591
G1 X105.847 Y123.708 E7.36236
G1 X105.422 Y123.191 E7.38462
G1 X105.061 Y122.628 E7.40686
G1 X104.819 Y122.141 E7.42495
G1 X103.86 Y119.951 E7.50447
G1 X103.629 Y119.324 E7.52669
G1 X103.474 Y118.673 E7.54895
G1 X103.398 Y118.008 E7.57121
G1 X103.425 Y117.083 E7.60199
G1 X103.461 Y116.761 E7.61277
G1 X103.632 Y115.88 E7.64262
G1 X103.717 Y115.575 E7.65315
G1 X103.982 Y114.831 E7.67942
G1 X104.516 Y113.612 E7.72368
G1 X104.543 Y113.55 E7.72593
G1 X104.972 Y112.602 E7.76054
G1 X105.284 Y112.01 E7.78279
G1 X105.664 Y111.46 E7.80503
G1 X105.922 Y111.153 E7.81837
G1 X106.027 Y111.037 E7.82357
G1 X106.505 Y110.569 E7.84582
G0 F3600 X106.785 Y110.855
G1 F300 X107.299 Y110.466 E7.86726
G1 X107.857 Y110.142 E7.88872
G1 X108.45 Y109.891 E7.91014
G1 X108.912 Y109.752 E7.92619
G1 X109.509 Y109.602 E7.94666
G1 X110.143 Y109.484 E7.96811
G1 X110.906 Y109.447 E7.99352
G1 X111.547 Y109.463 E8.01484
G1 X111.57 Y109.463 E8.01561
G1 X114.322 Y109.544 E8.10718
G1 X118.719 Y109.534 E8.25342
G1 X118.795 Y109.534 E8.25595
G1 X121.257 Y109.564 E8.33784
G1 X122.754 Y109.546 E8.38764
G1 X122.895 Y109.547 E8.39233
G1 X123.617 Y109.558 E8.41634
G1 X124.038 Y109.552 E8.43035
G1 X124.111 Y109.551 E8.43278
G1 X124.682 Y109.551 E8.45177
G1 X124.814 Y109.553 E8.45616
G1 X125.089 Y109.56 E8.46531
G1 X125.732 Y109.616 E8.48678
G1 X126.362 Y109.751 E8.5082
G1 X126.971 Y109.964 E8.52966
G1 X127.548 Y110.25 E8.55108
G1 X128.086 Y110.605 E8.57252
G1 X128.576 Y111.024 E8.59396
G1 X129.002 Y111.49 E8.61496
G1 X129.166 Y111.693 E8.62364
G1 X129.539 Y112.219 E8.64509
G1 X129.945 Y113.02 E8.67496
G1 X130.089 Y113.378 E8.68779
G1 X130.123 Y113.464 E8.69087
G1 X130.634 Y114.803 E8.73854
G1 X130.827 Y115.291 E8.75599
G1 X131.026 Y115.904 E8.77743
G1 X131.148 Y116.537 E8.79887
G1 X131.191 Y117.18 E8.8203
G1 X131.173 Y117.641 E8.83565
G1 X131.154 Y117.866 E8.84316
G1 X131.122 Y118.147 E8.85256
G1 X131.092 Y118.362 E8.85978
G1 X130.964 Y118.993 E8.8812
G1 X130.674 Y119.8 E8.90972
G1 X129.755 Y121.816 E8.98341
G1 X129.451 Y122.385 E9.00487
G1 X129.08 Y122.912 E9.0263
G1 X128.472 Y123.55 E9.05562
G1 X128.296 Y123.706 E9.06344
G1 X127.788 Y124.103 E9.08488
G1 X127.235 Y124.434 E9.10632
G1 X126.781 Y124.642 E9.12293
G1 X126.479 Y124.763 E9.13375
G1 X126.281 Y124.838 E9.14079
G1 X125.606 Y125.077 E9.16461
G1 X124.986 Y125.254 E9.18605
G1 X124.508 Y125.336 E9.20218
G1 X124.233 Y125.37 E9.2114
G1 X123.628 Y125.409 E9.23156
G1 X122.677 Y125.415 E9.26319
G1 X122.601 Y125.415 E9.26572
G1 X121.448 Y125.405 E9.30407
G1 X118.964 Y125.451 E9.3867
G1 X118.895 Y125.452 E9.389
G1 X118.091 Y125.456 E9.41574
G1 X118.001 Y125.456 E9.41873
G1 X116.827 Y125.442 E9.45778
G1 X116.56 Y125.444 E9.46667
G1 X116.353 Y125.442 E9.47355
G1 X113.791 Y125.363 E9.5588
G1 X112.284 Y125.365 E9.60893
G1 X112.229 Y125.365 E9.61076
G1 X110.844 Y125.352 E9.65682
G1 X110.286 Y125.316 E9.67542
G1 X109.971 Y125.279 E9.68597
G1 X109.772 Y125.252 E9.69265
G1 X109.275 Y125.174 E9.70938
G1 X108.645 Y125.035 E9.73084
G1 X108.038 Y124.819 E9.75227
G1 X107.462 Y124.529 E9.77372
G1 X106.926 Y124.171 E9.79516
G1 X106.272 Y123.577 E9.82454
G1 X106.14 Y123.435 E9.83099
G1 X105.732 Y122.937 E9.8524
G1 X105.388 Y122.392 E9.87384
G1 X105.186 Y121.981 E9.88907
G1 X104.227 Y119.791 E9.96859
G1 X104.005 Y119.185 E9.99005
G1 X103.86 Y118.557 E10.01149
G1 X103.794 Y117.916 E10.03292
G1 X103.822 Y117.127 E10.05918
G1 X103.858 Y116.805 E10.06996
G1 X104.017 Y115.987 E10.09767
G1 X104.102 Y115.682 E10.1082
G1 X104.348 Y114.991 E10.1326
G1 X104.882 Y113.772 E10.17686
G1 X104.908 Y113.715 E10.17895
G1 X105.337 Y112.767 E10.21356
G1 X105.638 Y112.197 E10.23499
G1 X106.008 Y111.669 E10.25644
G1 X106.219 Y111.421 E10.26727
G1 X106.324 Y111.305 E10.27247
G1 X106.785 Y110.855 E10.2939
G0 F3600 X110.294 Y114.952
;TYPE:SUPPORT
G1 F300 X110.78 Y114.84 E10.31049
G1 X110.854 Y114.894 E10.31353
G1 X112.461 Y115.101 E10.36743
G1 X113.296 Y115.465 E10.39772
G1 X113.778 Y115.465 E10.41375
G1 X114.213 Y115.273 E10.42957
G1 X114.587 Y115.206 E10.44221
G1 X114.771 Y115.141 E10.4487
G1 X114.826 Y115.136 E10.45053
G1 X114.927 Y115.623 E10.46707
G1 X115.285 Y115.667 E10.47907
G1 X115.283 Y115.911 E10.48719
G1 X115.253 Y115.907 E10.48819
G1 X114.981 Y116.339 E10.50517
G1 X115.158 Y116.616 E10.51611
G1 X115.621 Y116.949 E10.53508
G1 X115.731 Y117.01 E10.53926
G1 X115.147 Y117.366 E10.56201
G1 X115.335 Y117.789 E10.5774
G1 X114.911 Y118.135 E10.5956
G1 X115.049 Y118.642 E10.61308
G1 X115.466 Y118.694 E10.62706
G1 X115.717 Y118.648 E10.63555
G1 X115.891 Y119.036 E10.64969
G1 X116.048 Y119.005 E10.65501
G1 X116.05 Y119.153 E10.65993
G1 X115.833 Y119.163 E10.66716
G1 X115.199 Y119.282 E10.68861
G1 X115.143 Y119.879 E10.70856
G1 X115.183 Y119.895 E10.70999
G1 X115.103 Y119.887 E10.71267
G1 X114.788 Y119.78 E10.72373
G1 X114.531 Y119.743 E10.73237
G1 X114.178 Y119.629 E10.7447
G1 X112.893 Y119.476 E10.78774
G1 X110.873 Y119.955 E10.85679
G1 X110.443 Y119.849 E10.87152
G1 X110.361 Y119.876 E10.87439
G1 X110.219 Y119.815 E10.87954
G1 X110.137 Y119.831 E10.88231
G1 X110.129 Y119.824 E10.88267
G1 X110.108 Y119.755 E10.88507
G1 X110.141 Y118.817 E10.91628
G1 X109.959 Y118.368 E10.9324
G1 X109.194 Y117.632 E10.96771
G1 X109.229 Y117.44 E10.9742
G1 X109.241 Y117.248 E10.9806
G1 X109.308 Y117.172 E10.98396
G1 X110.229 Y116.551 E11.02091
G1 X110.428 Y116.071 E11.03819
G1 X110.232 Y115.085 E11.07163
G1 X110.242 Y115.009 E11.07418
G1 X110.294 Y114.952 E11.07674
G1 F2400 E6.07674
G0 F3600 X116.035 Y118.759
G0 X117.613 Y118.615
G1 F2400 E11.07674
G1 F300 X117.646 Y118.604 E11.0779
G1 X117.929 Y118.484 E11.08813
G1 X118.7 Y118.608 E11.1141
