;FLAVOR:Marlin
;TIME:3077
;Filament used: 0.491725m
;Layer height: 0.15
;MINX:105.833
;MINY:106.325
;MINZ:0.2
;MAXX:136.645
;MAXY:129.901
;MAXZ:20.9
;Generated with Cura_SteamEngine 4.1.0
M140 S60
M105
M190 S60
M104 S215
M105
M109 S215
M82 ;absolute extrusion mode
; Ender 3 Custom Start G-code
G28 ; Home all axes
G92 E0 ; Reset Extruder
G1 Z2.0 F3000 ; Move Z Axis up little to prevent scratching of Heat Bed
G1 X0.1 Y20 Z0.3 F5000.0 ; Move to start position
G1 X0.1 Y200.0 Z0.3 F1500.0 E15 ; Draw the first line
G1 X0.4 Y200.0 Z0.3 F5000.0 ; Move to side a little
G1 X0.4 Y20 Z0.3 F1500.0 E30 ; Draw the second line
G92 E0 ; Reset Extruder
G1 Z2.0 F3000 ; Move Z Axis up little to prevent scratching of Heat Bed
; End of custom start GCode
G92 E0
G92 E0
G1 F2400 E-5
;LAYER_COUNT:139
;LAYER:0
M107
M204 S500
M205 X10 Y10
G0 F3600 X109.87 Y108.294 Z0.2
;TYPE:SKIRT
G1 F2400 E0
G1 F300 X110.418 Y107.835 E0.02378
G1 X111.014 Y107.439 E0.04758
G1 X111.65 Y107.113 E0.07135
G1 X112.283 Y106.871 E0.09389
G1 X112.968 Y106.65 E0.11783
G1 X113.165 Y106.59 E0.12467
G1 X113.252 Y106.565 E0.12769
G1 X113.95 Y106.406 E0.1515
G1 X114.661 Y106.326 E0.17529
G1 X115.358 Y106.325 E0.19847
G1 X116.26 Y106.373 E0.22852
G1 X118.936 Y106.478 E0.31759
G1 X121.647 Y106.509 E0.40776
G1 X122.062 Y106.503 E0.42157
G1 X122.173 Y106.502 E0.42526
G1 X122.847 Y106.505 E0.44768
G1 X125.579 Y106.478 E0.53855
G1 X126.3 Y106.45 E0.56255
G1 X126.402 Y106.447 E0.56594
G1 X127.332 Y106.426 E0.59688
G1 X128.046 Y106.449 E0.62064
G1 X128.775 Y106.557 E0.64515
G1 X129.079 Y106.62 E0.65548
G1 X129.77 Y106.804 E0.67926
G1 X130.436 Y107.064 E0.70304
G1 X131.069 Y107.397 E0.72683
G1 X131.855 Y107.952 E0.75883
G1 X132.245 Y108.274 E0.77566
G1 X133.013 Y108.886 E0.80832
G1 X133.091 Y108.95 E0.81167
G1 X134.186 Y109.851 E0.85884
G1 X134.713 Y110.336 E0.88266
G1 X135.181 Y110.876 E0.90643
G1 X135.587 Y111.465 E0.93022
G1 X135.924 Y112.096 E0.95401
G1 X136.189 Y112.76 E0.97779
G1 X136.348 Y113.318 E0.99709
G1 X136.452 Y113.757 E1.01209
G1 X136.577 Y114.461 E1.03588
G1 X136.621 Y115.038 E1.05512
G1 X136.644 Y115.796 E1.08035
G1 X136.645 Y116.138 E1.09172
G1 X136.616 Y117.408 E1.13397
G1 X136.636 Y119.999 E1.22015
G1 X136.636 Y120.079 E1.22281
G1 X136.634 Y120.499 E1.23678
G1 X136.631 Y120.655 E1.24197
G1 X136.623 Y120.93 E1.25112
G1 X136.62 Y121.032 E1.25452
G1 X136.605 Y121.365 E1.2656
G1 X136.532 Y122.077 E1.28941
G1 X136.381 Y122.776 E1.31319
G1 X136.153 Y123.454 E1.33698
G1 X135.834 Y124.133 E1.36194
G1 X135.784 Y124.225 E1.36542
G1 X135.408 Y124.833 E1.38919
G1 X134.966 Y125.396 E1.413
G1 X134.238 Y126.103 E1.44675
G1 X133.881 Y126.398 E1.46216
G1 X133.841 Y126.43 E1.46386
G1 X132.783 Y127.29 E1.50921
G1 X132.737 Y127.327 E1.51117
G1 X131.936 Y127.966 E1.54525
G1 X131.353 Y128.38 E1.56904
G1 X130.727 Y128.727 E1.59284
G1 X130.067 Y129.001 E1.61661
G1 X129.38 Y129.2 E1.6404
G1 X128.777 Y129.309 E1.66078
G1 X128.571 Y129.336 E1.66769
G1 X128.238 Y129.37 E1.67882
G1 X126.858 Y129.478 E1.72486
G1 X124.127 Y129.73 E1.81608
G1 X123.938 Y129.752 E1.82241
G1 X123.798 Y129.766 E1.82709
G1 X123.38 Y129.805 E1.84105
G1 X122.927 Y129.831 E1.85614
G1 X119.813 Y129.9 E1.95974
G1 X119.56 Y129.901 E1.96816
G1 X117.048 Y129.857 E2.05172
G1 X115.073 Y129.869 E2.11741
G1 X114.707 Y129.861 E2.12959
G1 X114.2 Y129.835 E2.14647
G1 X113.489 Y129.758 E2.17026
G1 X112.791 Y129.603 E2.19404
G1 X112.114 Y129.37 E2.21785
G1 X111.468 Y129.064 E2.24163
G1 X110.86 Y128.688 E2.2654
G1 X110.163 Y128.124 E2.29522
G1 X110 Y127.972 E2.30264
G1 X109.505 Y127.455 E2.32644
G1 X109.207 Y127.08 E2.34237
G1 X109.13 Y126.975 E2.3467
G1 X107.351 Y124.649 E2.4441
G1 X106.949 Y124.057 E2.4679
G1 X106.616 Y123.425 E2.49166
G1 X106.375 Y122.82 E2.51332
G1 X106.305 Y122.614 E2.52056
G1 X106.113 Y121.925 E2.54435
G1 X106 Y121.219 E2.56813
G1 X105.966 Y120.681 E2.58606
G1 X105.915 Y118.115 E2.67142
G1 X105.852 Y116.746 E2.717
G1 X105.848 Y116.642 E2.72046
G1 X105.833 Y116.142 E2.7371
G1 X105.851 Y115.427 E2.76089
G1 X105.95 Y114.718 E2.7847
G1 X106.126 Y114.025 E2.80848
G1 X106.47 Y113.161 E2.83941
G1 X106.562 Y112.971 E2.84643
G1 X106.708 Y112.686 E2.85708
G1 X106.967 Y112.213 E2.87502
G1 X107.33 Y111.628 E2.89792
G1 X107.484 Y111.407 E2.90688
G1 X107.541 Y111.327 E2.91014
G1 X109.027 Y109.263 E2.99473
G1 X109.031 Y109.266 E2.9949
G1 X109.376 Y108.812 E3.01387
G1 X109.87 Y108.294 E3.03767
G0 F3600 X110.175 Y108.556
G1 F300 X110.71 Y108.116 E3.06071
G1 X111.292 Y107.741 E3.08374
G1 X111.914 Y107.435 E3.1068
G1 X112.406 Y107.252 E3.12425
G1 X113.091 Y107.031 E3.14819
G1 X113.276 Y106.974 E3.15463
G1 X113.363 Y106.949 E3.15764
G1 X114.038 Y106.797 E3.18066
G1 X114.727 Y106.723 E3.2037
G1 X115.337 Y106.724 E3.22399
G1 X116.282 Y106.774 E3.25547
G1 X118.915 Y106.878 E3.34311
G1 X121.648 Y106.909 E3.43402
G1 X122.067 Y106.903 E3.44795
G1 X122.171 Y106.902 E3.45141
G1 X122.849 Y106.905 E3.47396
G1 X125.564 Y106.878 E3.56427
G1 X126.316 Y106.849 E3.5893
G1 X126.411 Y106.847 E3.59246
G1 X127.341 Y106.826 E3.6234
G1 X128.033 Y106.85 E3.64643
G1 X128.694 Y106.949 E3.66866
G1 X128.998 Y107.012 E3.67898
G1 X129.666 Y107.191 E3.70199
G1 X130.31 Y107.447 E3.72504
G1 X130.92 Y107.774 E3.74806
G1 X131.601 Y108.261 E3.7759
G1 X131.992 Y108.584 E3.79277
G1 X132.764 Y109.199 E3.8256
G1 X132.837 Y109.259 E3.82874
G1 X133.932 Y110.16 E3.87591
G1 X134.441 Y110.63 E3.89895
G1 X134.892 Y111.156 E3.92199
G1 X135.279 Y111.73 E3.94502
G1 X135.598 Y112.345 E3.96806
G1 X135.843 Y112.992 E3.99107
G1 X135.958 Y113.41 E4.00549
G1 X136.062 Y113.849 E4.0205
G1 X136.183 Y114.531 E4.04353
G1 X136.221 Y115.05 E4.06084
G1 X136.244 Y115.808 E4.08607
G1 X136.245 Y116.129 E4.09674
G1 X136.216 Y117.402 E4.13909
G1 X136.236 Y120.002 E4.22557
G1 X136.236 Y120.078 E4.2281
G1 X136.234 Y120.498 E4.24207
G1 X136.231 Y120.643 E4.24689
G1 X136.223 Y120.918 E4.25604
G1 X136.22 Y121.014 E4.25924
G1 X136.205 Y121.347 E4.27033
G1 X136.134 Y122.036 E4.29336
G1 X135.984 Y122.712 E4.31639
G1 X135.757 Y123.366 E4.33942
G1 X135.483 Y123.942 E4.36063
G1 X135.433 Y124.034 E4.36412
G1 X135.067 Y124.622 E4.38715
G1 X134.637 Y125.165 E4.41019
G1 X133.983 Y125.794 E4.44037
G1 X133.626 Y126.089 E4.45577
G1 X133.589 Y126.12 E4.45738
G1 X132.531 Y126.98 E4.50273
G1 X132.488 Y127.014 E4.50455
G1 X131.687 Y127.653 E4.53863
G1 X131.121 Y128.053 E4.56168
G1 X130.514 Y128.385 E4.58469
G1 X129.872 Y128.645 E4.60773
G1 X129.204 Y128.829 E4.63078
G1 X128.725 Y128.912 E4.64694
G1 X128.519 Y128.939 E4.65386
G1 X128.207 Y128.972 E4.66429
G1 X126.792 Y129.083 E4.7115
G1 X124.042 Y129.337 E4.80335
G1 X123.892 Y129.354 E4.80837
G1 X123.76 Y129.368 E4.81279
G1 X123.342 Y129.407 E4.82675
G1 X122.918 Y129.432 E4.84088
G1 X119.804 Y129.501 E4.94448
G1 X119.567 Y129.501 E4.95236
G1 X117.052 Y129.457 E5.03602
G1 X115.07 Y129.469 E5.10194
G1 X114.728 Y129.461 E5.11332
G1 X114.221 Y129.435 E5.13021
G1 X113.532 Y129.36 E5.15326
G1 X112.857 Y129.206 E5.17629
G1 X112.204 Y128.975 E5.19932
G1 X111.582 Y128.67 E5.22236
G1 X111 Y128.296 E5.24537
G1 X110.436 Y127.831 E5.26969
G1 X110.273 Y127.679 E5.2771
G1 X109.795 Y127.178 E5.30013
G1 X109.529 Y126.843 E5.31436
G1 X109.437 Y126.718 E5.31952
G1 X107.669 Y124.406 E5.41632
G1 X107.281 Y123.832 E5.43937
G1 X106.961 Y123.218 E5.4624
G1 X106.754 Y122.691 E5.48123
G1 X106.684 Y122.485 E5.48846
G1 X106.499 Y121.818 E5.51149
G1 X106.393 Y121.134 E5.53451
G1 X106.366 Y120.673 E5.54987
G1 X106.316 Y118.126 E5.6346
G1 X106.251 Y116.727 E5.68118
G1 X106.248 Y116.63 E5.68441
G1 X106.233 Y116.13 E5.70104
G1 X106.252 Y115.438 E5.72407
G1 X106.351 Y114.752 E5.74712
G1 X106.528 Y114.083 E5.77014
G1 X106.83 Y113.335 E5.79697
G1 X106.922 Y113.145 E5.80399
G1 X107.059 Y112.878 E5.81397
G1 X107.318 Y112.405 E5.83191
G1 X107.658 Y111.857 E5.85336
G1 X107.812 Y111.636 E5.86232
G1 X107.866 Y111.56 E5.86542
G1 X109.352 Y109.496 E5.95001
G1 X109.356 Y109.499 E5.95017
G1 X109.695 Y109.054 E5.96878
G1 X110.175 Y108.556 E5.99178
G0 F3600 X110.48 Y108.819
G1 F300 X111.001 Y108.399 E6.01404
G1 X111.569 Y108.045 E6.0363
G1 X112.174 Y107.76 E6.05855
G1 X112.529 Y107.633 E6.07109
G1 X113.214 Y107.412 E6.09503
G1 X113.386 Y107.359 E6.10101
G1 X113.473 Y107.334 E6.10402
G1 X114.126 Y107.188 E6.12628
G1 X114.792 Y107.121 E6.14854
G1 X115.316 Y107.124 E6.16597
G1 X116.185 Y107.17 E6.19491
G1 X118.931 Y107.278 E6.28632
G1 X121.608 Y107.308 E6.37536
G1 X122.073 Y107.302 E6.39083
G1 X122.17 Y107.302 E6.39405
G1 X122.852 Y107.305 E6.41674
G1 X125.583 Y107.278 E6.50757
G1 X126.331 Y107.249 E6.53247
G1 X126.42 Y107.246 E6.53543
G1 X127.35 Y107.225 E6.56637
G1 X128.018 Y107.25 E6.58861
G1 X128.612 Y107.341 E6.60859
G1 X128.916 Y107.404 E6.61892
G1 X129.562 Y107.578 E6.64117
G1 X130.183 Y107.829 E6.66345
G1 X130.769 Y108.151 E6.68569
G1 X131.346 Y108.569 E6.70938
G1 X131.744 Y108.898 E6.72656
G1 X132.515 Y109.512 E6.75934
G1 X132.583 Y109.568 E6.76227
G1 X133.678 Y110.469 E6.80944
G1 X134.168 Y110.924 E6.83168
G1 X134.601 Y111.434 E6.85393
G1 X134.97 Y111.993 E6.87621
G1 X135.269 Y112.591 E6.89844
G1 X135.569 Y113.502 E6.93034
G1 X135.673 Y113.941 E6.94535
G1 X135.788 Y114.6 E6.9676
G1 X135.821 Y115.062 E6.983
G1 X135.844 Y115.82 E7.00823
G1 X135.846 Y116.119 E7.01817
G1 X135.816 Y117.428 E7.06172
G1 X135.836 Y120.005 E7.14743
G1 X135.836 Y120.076 E7.1498
G1 X135.834 Y120.496 E7.16376
G1 X135.832 Y120.632 E7.16829
G1 X135.824 Y120.907 E7.17744
G1 X135.82 Y120.996 E7.1804
G1 X135.805 Y121.329 E7.19149
G1 X135.735 Y121.994 E7.21373
G1 X135.587 Y122.647 E7.236
G1 X135.361 Y123.276 E7.25823
G1 X135.131 Y123.751 E7.27578
G1 X135.081 Y123.843 E7.27926
G1 X134.727 Y124.411 E7.30153
G1 X134.308 Y124.932 E7.32376
G1 X133.728 Y125.486 E7.35044
G1 X133.371 Y125.781 E7.36584
G1 X133.336 Y125.809 E7.36733
G1 X132.278 Y126.669 E7.41268
G1 X132.238 Y126.702 E7.41441
G1 X131.437 Y127.341 E7.44849
G1 X130.89 Y127.726 E7.47073
G1 X130.301 Y128.043 E7.49298
G1 X129.679 Y128.288 E7.51522
G1 X129.031 Y128.457 E7.53749
G1 X128.673 Y128.516 E7.54956
G1 X128.467 Y128.543 E7.55647
G1 X128.176 Y128.573 E7.5662
G1 X126.721 Y128.687 E7.61474
G1 X124.046 Y128.934 E7.70409
G1 X123.846 Y128.957 E7.71078
G1 X123.723 Y128.97 E7.7149
G1 X123.305 Y129.009 E7.72886
G1 X122.909 Y129.032 E7.74206
G1 X119.795 Y129.101 E7.84565
G1 X119.574 Y129.101 E7.853
G1 X117.057 Y129.057 E7.93673
G1 X115.068 Y129.069 E8.00289
G1 X114.748 Y129.062 E8.01353
G1 X114.241 Y129.036 E8.03042
G1 X113.576 Y128.962 E8.05267
G1 X112.925 Y128.809 E8.07491
G1 X112.297 Y128.579 E8.09716
G1 X111.7 Y128.276 E8.11943
G1 X111.144 Y127.905 E8.14166
G1 X110.709 Y127.539 E8.16057
G1 X110.546 Y127.387 E8.16798
G1 X110.085 Y126.902 E8.19023
G1 X109.852 Y126.606 E8.20276
G1 X109.77 Y126.495 E8.20735
G1 X107.987 Y124.163 E8.30499
G1 X107.613 Y123.608 E8.32725
G1 X107.308 Y123.013 E8.34949
G1 X107.133 Y122.563 E8.36555
G1 X107.063 Y122.357 E8.37278
G1 X106.886 Y121.712 E8.39503
G1 X106.787 Y121.05 E8.41729
G1 X106.766 Y120.665 E8.43012
G1 X106.715 Y118.1 E8.51544
G1 X106.651 Y116.709 E8.56176
G1 X106.648 Y116.618 E8.56479
G1 X106.633 Y116.118 E8.58142
G1 X106.652 Y115.449 E8.60368
G1 X106.752 Y114.788 E8.62592
G1 X106.93 Y114.143 E8.64817
G1 X107.19 Y113.509 E8.67097
G1 X107.282 Y113.319 E8.67799
G1 X107.41 Y113.07 E8.6873
G1 X107.669 Y112.597 E8.70524
G1 X107.986 Y112.085 E8.72526
G1 X108.14 Y111.864 E8.73422
G1 X108.19 Y111.794 E8.73708
G1 X109.676 Y109.73 E8.82167
G1 X109.68 Y109.733 E8.82184
G1 X110.013 Y109.298 E8.84006
G1 X110.48 Y108.819 E8.86231
G0 F3600 X110.784 Y109.083
G1 F300 X111.291 Y108.685 E8.88375
G1 X111.843 Y108.352 E8.90519
G1 X112.651 Y108.013 E8.93433
G1 X113.336 Y107.792 E8.95827
G1 X113.497 Y107.743 E8.96387
G1 X113.584 Y107.718 E8.96688
G1 X114.213 Y107.579 E8.98831
G1 X114.855 Y107.519 E9.00975
G1 X115.295 Y107.523 E9.02439
G1 X116.225 Y107.572 E9.05536
G1 X118.911 Y107.678 E9.14477
G1 X121.609 Y107.708 E9.23451
G1 X122.078 Y107.702 E9.25011
G1 X122.168 Y107.702 E9.25311
G1 X122.854 Y107.705 E9.27592
G1 X125.602 Y107.678 E9.36733
G1 X126.346 Y107.649 E9.39209
G1 X126.429 Y107.646 E9.39485
G1 X127.359 Y107.625 E9.42579
G1 X128.003 Y107.651 E9.44723
G1 X128.531 Y107.732 E9.465
G1 X128.835 Y107.795 E9.47532
G1 X129.457 Y107.965 E9.49677
G1 X130.053 Y108.21 E9.5182
G1 X130.615 Y108.527 E9.53966
G1 X131.091 Y108.878 E9.55933
G1 X131.49 Y109.207 E9.57653
G1 X132.265 Y109.825 E9.6095
G1 X132.329 Y109.877 E9.61224
G1 X133.424 Y110.778 E9.65941
G1 X133.895 Y111.217 E9.68082
G1 X134.309 Y111.712 E9.70229
G1 X134.658 Y112.254 E9.72373
G1 X134.937 Y112.835 E9.74516
G1 X135.18 Y113.594 E9.77167
G1 X135.284 Y114.033 E9.78668
G1 X135.393 Y114.669 E9.80814
G1 X135.422 Y115.074 E9.82164
G1 X135.445 Y115.832 E9.84686
G1 X135.446 Y116.11 E9.85611
G1 X135.416 Y117.422 E9.89976
G1 X135.436 Y120.008 E9.98577
G1 X135.436 Y120.074 E9.98797
G1 X135.434 Y120.494 E10.00194
G1 X135.432 Y120.62 E10.00613
G1 X135.424 Y120.895 E10.01528
G1 X135.421 Y120.978 E10.01804
G1 X135.406 Y121.311 E10.02913
G1 X135.337 Y121.952 E10.05057
G1 X135.189 Y122.58 E10.07203
G1 X134.965 Y123.184 E10.09346
G1 X134.78 Y123.56 E10.10739
G1 X134.73 Y123.652 E10.11088
G1 X134.387 Y124.198 E10.13232
G1 X133.98 Y124.698 E10.15377
G1 X133.473 Y125.178 E10.17699
G1 X133.116 Y125.473 E10.19239
G1 X133.084 Y125.499 E10.19376
G1 X132.026 Y126.359 E10.23911
G1 X131.989 Y126.389 E10.2407
G1 X131.188 Y127.028 E10.27478
G1 X130.66 Y127.398 E10.29622
G1 X130.09 Y127.7 E10.31767
G1 X129.488 Y127.929 E10.3391
G1 X128.621 Y128.119 E10.36862
G1 X128.415 Y128.146 E10.37553
G1 X128.145 Y128.174 E10.38456
G1 X126.722 Y128.285 E10.43203
G1 X124.007 Y128.536 E10.52272
G1 X123.8 Y128.56 E10.52965
G1 X123.686 Y128.572 E10.53346
G1 X123.268 Y128.611 E10.54742
G1 X122.9 Y128.632 E10.55968
G1 X119.786 Y128.701 E10.66328
G1 X119.581 Y128.701 E10.6701
G1 X117.062 Y128.657 E10.75389
G1 X115.066 Y128.669 E10.82028
G1 X114.769 Y128.662 E10.83016
G1 X114.262 Y128.636 E10.84705
G1 X113.621 Y128.563 E10.8685
G1 X112.995 Y128.412 E10.88992
G1 X112.392 Y128.184 E10.91136
G1 X111.821 Y127.883 E10.93283
G1 X111.293 Y127.514 E10.95426
G1 X110.982 Y127.246 E10.96791
G1 X110.819 Y127.094 E10.97533
G1 X110.375 Y126.626 E10.99678
G1 X110.174 Y126.369 E11.00763
G1 X110.102 Y126.271 E11.01168
G1 X108.304 Y123.92 E11.11012
G1 X107.945 Y123.385 E11.13155
G1 X107.655 Y122.809 E11.153
G1 X107.511 Y122.434 E11.16636
G1 X107.441 Y122.228 E11.17359
G1 X107.272 Y121.606 E11.19503
G1 X107.166 Y120.658 E11.22676
G1 X107.115 Y118.073 E11.31275
G1 X107.051 Y116.69 E11.3588
G1 X107.047 Y116.606 E11.3616
G1 X107.032 Y116.106 E11.37824
G1 X107.053 Y115.462 E11.39967
G1 X107.153 Y114.825 E11.42111
G1 X107.331 Y114.205 E11.44257
G1 X107.55 Y113.684 E11.46136
G1 X107.642 Y113.494 E11.46839
G1 X107.761 Y113.263 E11.47703
G1 X108.02 Y112.79 E11.49496
G1 X108.315 Y112.314 E11.51359
G1 X108.469 Y112.093 E11.52255
G1 X108.515 Y112.028 E11.5252
G1 X110.001 Y109.964 E11.60979
G1 X110.005 Y109.967 E11.60995
G1 X110.331 Y109.542 E11.62777
G1 X110.784 Y109.083 E11.64922
G0 F3600 X114.375 Y113.126
;TYPE:SUPPORT
G1 F300 X114.946 Y112.979 E11.66883
G1 X115.022 Y112.934 E11.67177
G1 X117.124 Y114.022 E11.75049
G1 X117.618 Y114.022 E11.76692
G1 X119.07 Y113.279 E11.82117
G1 X119.047 Y113.338 E11.82328
G1 X118.848 Y113.55 E11.83295
G1 X118.671 Y113.867 E11.84502
G1 X118.631 Y114.171 E11.85522
G1 X118.759 Y114.483 E11.86644
G1 X119.149 Y114.703 E11.88133
G1 X119.46 Y114.732 E11.89172
G1 X119.795 Y114.943 E11.90489
G1 X120.537 Y115.055 E11.92985
G1 X121.292 Y115.056 E11.95496
G1 X122.252 Y114.936 E11.98713
G1 X122.883 Y114.644 E12.01026
