;FLAVOR:Marlin
;TIME:2178
;Filament used: 0.319798m
;Layer height: 0.15
;MINX:107.157
;MINY:103.509
;MINZ:0.2
;MAXX:128.264
;MAXY:131.358
;MAXZ:17.9
;Generated with Cura_SteamEngine 4.1.0
M140 S60
M105
M190 S60
M104 S215
M105
M109 S215
M82 ;absolute extrusion mode
; Ender 3 Custom Start G-code
G28 ; Home all axes
G92 E0 ; Reset Extruder
G1 Z2.0 F3000 ; Move Z Axis up little to prevent scratching of Heat Bed
G1 X0.1 Y20 Z0.3 F5000.0 ; Move to start position
G1 X0.1 Y200.0 Z0.3 F1500.0 E15 ; Draw the first line
G1 X0.4 Y200.0 Z0.3 F5000.0 ; Move to side a little
G1 X0.4 Y20 Z0.3 F1500.0 E30 ; Draw the second line
G92 E0 ; Reset Extruder
G1 Z2.0 F3000 ; Move Z Axis up little to prevent scratching of Heat Bed
; End of custom start GCode
G92 E0
G92 E0
G1 F2400 E-5
;LAYER_COUNT:119
;LAYER:0
M107
M204 S500
M205 X10 Y10
G0 F3600 X110.209 Y105.909 Z0.2
;TYPE:SKIRT
G1 F2400 E0
G1 F300 X110.704 Y105.393 E0.02378
G1 X111.253 Y104.935 E0.04756
G1 X111.851 Y104.541 E0.07138
G1 X112.488 Y104.217 E0.09515
G1 X113.158 Y103.966 E0.11895
G1 X113.8 Y103.801 E0.14099
G1 X114.072 Y103.746 E0.15022
G1 X114.297 Y103.705 E0.15783
G1 X114.533 Y103.666 E0.16579
G1 X115.478 Y103.581 E0.19734
G1 X118.946 Y103.528 E0.3127
G1 X119.555 Y103.509 E0.33297
G1 X120.231 Y103.524 E0.35546
G1 X120.768 Y103.564 E0.37337
G1 X121.478 Y103.657 E0.39718
G1 X122.172 Y103.828 E0.42096
G1 X122.843 Y104.076 E0.44475
G1 X123.482 Y104.397 E0.46854
G1 X124.081 Y104.788 E0.49233
G1 X124.869 Y105.471 E0.52701
G1 X125.268 Y105.879 E0.54599
G1 X125.377 Y105.994 E0.55126
G1 X126.328 Y107.016 E0.59769
G1 X126.786 Y107.566 E0.6215
G1 X127.317 Y108.416 E0.65483
G1 X127.437 Y108.646 E0.66346
G1 X127.732 Y109.297 E0.68723
G1 X127.956 Y109.99 E0.71146
G1 X128.04 Y110.312 E0.72252
G1 X128.181 Y111.014 E0.74634
G1 X128.235 Y111.53 E0.7636
G1 X128.258 Y111.899 E0.77589
G1 X128.264 Y112.574 E0.79834
G1 X128.222 Y113.544 E0.83064
G1 X128.145 Y116.185 E0.91851
G1 X128.141 Y118.831 E1.00652
G1 X128.203 Y120.662 E1.06745
G1 X128.205 Y120.728 E1.06965
G1 X128.238 Y122.14 E1.11663
G1 X128.215 Y122.855 E1.14042
G1 X128.112 Y123.563 E1.16422
G1 X127.931 Y124.255 E1.18801
G1 X127.528 Y125.223 E1.22288
G1 X127.297 Y125.671 E1.23965
G1 X127.185 Y125.88 E1.24753
G1 X126.981 Y126.242 E1.26135
G1 X126.595 Y126.845 E1.28517
G1 X126.145 Y127.4 E1.30893
G1 X125.885 Y127.671 E1.32142
G1 X125.735 Y127.818 E1.32841
G1 X125.197 Y128.289 E1.35219
G1 X124.761 Y128.601 E1.37002
G1 X124.17 Y128.988 E1.39352
G1 X124.081 Y129.046 E1.39705
G1 X123.628 Y129.332 E1.41487
G1 X123.572 Y129.366 E1.41705
G1 X122.389 Y130.096 E1.46328
G1 X121.76 Y130.438 E1.4871
G1 X121.41 Y130.59 E1.49979
G1 X120.976 Y130.764 E1.51534
G1 X120.81 Y130.828 E1.52126
G1 X120.447 Y130.962 E1.53413
G1 X119.764 Y131.172 E1.55789
G1 X119.061 Y131.304 E1.58168
G1 X118.169 Y131.358 E1.6114
G1 X116.825 Y131.345 E1.65611
G1 X116.756 Y131.344 E1.6584
G1 X116.123 Y131.331 E1.67946
G1 X115.48 Y131.285 E1.7009
G1 X114.511 Y131.167 E1.73337
G1 X114.323 Y131.141 E1.73968
G1 X114.198 Y131.122 E1.74389
G1 X113.498 Y130.975 E1.76768
G1 X112.819 Y130.751 E1.79146
G1 X112.169 Y130.453 E1.81524
G1 X111.556 Y130.084 E1.83904
G1 X111.048 Y129.7 E1.86022
G1 X110.015 Y128.834 E1.90505
G1 X109.923 Y128.755 E1.90909
G1 X109.628 Y128.498 E1.9221
G1 X109.116 Y127.998 E1.9459
G1 X108.662 Y127.445 E1.9697
G1 X108.337 Y126.952 E1.98934
G1 X108.103 Y126.56 E2.00452
G1 X107.771 Y125.927 E2.0283
G1 X107.512 Y125.26 E2.05209
G1 X107.317 Y124.507 E2.07797
G1 X107.275 Y124.292 E2.08525
G1 X107.177 Y123.583 E2.10906
G1 X107.157 Y122.947 E2.13022
G1 X107.163 Y122.623 E2.141
G1 X107.169 Y122.441 E2.14706
G1 X107.197 Y121.847 E2.16683
G1 X107.284 Y119.128 E2.25731
G1 X107.296 Y116.504 E2.34459
G1 X107.21 Y113.305 E2.45103
G1 X107.166 Y112.291 E2.48479
G1 X107.175 Y111.576 E2.50857
G1 X107.264 Y110.866 E2.53237
G1 X107.431 Y110.17 E2.55617
G1 X107.692 Y109.459 E2.58136
G1 X107.766 Y109.289 E2.58753
G1 X108.088 Y108.65 E2.61133
G1 X108.667 Y107.807 E2.64535
G1 X109.499 Y106.783 E2.68923
G1 X110.01 Y106.146 E2.71639
G1 X110.143 Y105.986 E2.72331
G1 X110.209 Y105.909 E2.72668
G0 F3600 X110.512 Y106.169
G1 F300 X110.993 Y105.67 E2.74974
G1 X111.527 Y105.23 E2.77275
G1 X112.109 Y104.854 E2.79579
G1 X112.73 Y104.548 E2.81882
G1 X113.383 Y104.316 E2.84187
G1 X113.879 Y104.193 E2.85887
G1 X114.151 Y104.138 E2.8681
G1 X114.362 Y104.099 E2.87523
G1 X114.598 Y104.06 E2.88319
G1 X115.485 Y103.981 E2.91281
G1 X118.962 Y103.928 E3.02847
G1 X119.567 Y103.909 E3.0486
G1 X120.202 Y103.923 E3.06972
G1 X120.739 Y103.963 E3.08763
G1 X121.425 Y104.054 E3.11065
G1 X122.097 Y104.224 E3.1337
G1 X122.744 Y104.469 E3.15672
G1 X123.359 Y104.788 E3.17976
G1 X123.933 Y105.176 E3.2028
G1 X124.583 Y105.751 E3.23167
G1 X124.982 Y106.159 E3.25065
G1 X125.084 Y106.267 E3.25559
G1 X126.035 Y107.289 E3.30202
G1 X126.477 Y107.822 E3.32505
G1 X126.963 Y108.601 E3.35559
G1 X127.083 Y108.831 E3.36422
G1 X127.367 Y109.462 E3.38723
G1 X127.569 Y110.091 E3.4092
G1 X127.653 Y110.413 E3.42027
G1 X127.789 Y111.093 E3.44334
G1 X127.835 Y111.555 E3.45878
G1 X127.858 Y111.924 E3.47108
G1 X127.864 Y112.557 E3.49213
G1 X127.824 Y113.489 E3.52316
G1 X127.745 Y116.172 E3.61243
G1 X127.741 Y118.815 E3.70034
G1 X127.804 Y120.675 E3.76224
G1 X127.805 Y120.738 E3.76434
G1 X127.838 Y122.15 E3.81131
G1 X127.815 Y122.842 E3.83434
G1 X127.711 Y123.527 E3.85738
G1 X127.53 Y124.195 E3.8804
G1 X127.173 Y125.04 E3.91091
G1 X126.942 Y125.488 E3.92768
G1 X126.836 Y125.684 E3.93509
G1 X126.632 Y126.046 E3.94891
G1 X126.258 Y126.628 E3.97192
G1 X125.605 Y127.385 E4.00517
G1 X125.455 Y127.532 E4.01216
G1 X124.933 Y127.988 E4.03521
G1 X124.542 Y128.267 E4.05119
G1 X123.951 Y128.654 E4.07468
G1 X123.867 Y128.707 E4.07798
G1 X123.414 Y128.993 E4.0958
G1 X123.362 Y129.026 E4.09785
G1 X122.179 Y129.756 E4.14409
G1 X121.261 Y130.219 E4.17828
G1 X120.827 Y130.393 E4.19384
G1 X120.672 Y130.453 E4.19936
G1 X120.309 Y130.587 E4.21223
G1 X119.646 Y130.789 E4.23529
G1 X118.965 Y130.913 E4.25831
G1 X118.173 Y130.958 E4.28469
G1 X116.829 Y130.945 E4.3294
G1 X116.764 Y130.944 E4.33156
G1 X116.131 Y130.931 E4.35262
G1 X115.529 Y130.888 E4.37269
G1 X114.56 Y130.77 E4.40516
G1 X114.383 Y130.746 E4.4111
G1 X114.258 Y130.727 E4.4153
G1 X113.581 Y130.583 E4.43832
G1 X112.924 Y130.363 E4.46137
G1 X112.298 Y130.068 E4.48439
G1 X111.709 Y129.703 E4.50743
G1 X111.305 Y129.393 E4.52437
G1 X110.272 Y128.527 E4.5692
G1 X110.186 Y128.453 E4.57298
G1 X109.891 Y128.196 E4.58599
G1 X109.396 Y127.712 E4.60902
G1 X108.96 Y127.174 E4.63205
G1 X108.68 Y126.747 E4.64903
G1 X108.446 Y126.355 E4.66422
G1 X108.126 Y125.741 E4.68724
G1 X107.879 Y125.094 E4.71028
G1 X107.709 Y124.43 E4.73308
G1 X107.667 Y124.215 E4.74036
G1 X107.574 Y123.529 E4.76339
G1 X107.557 Y122.954 E4.78252
G1 X107.563 Y122.63 E4.7933
G1 X107.569 Y122.459 E4.79899
G1 X107.596 Y121.876 E4.8184
G1 X107.684 Y119.143 E4.90935
G1 X107.696 Y116.495 E4.99742
G1 X107.609 Y113.255 E5.10522
G1 X107.566 Y112.273 E5.13792
G1 X107.576 Y111.581 E5.16093
G1 X107.665 Y110.894 E5.18397
G1 X107.833 Y110.222 E5.20701
G1 X108.059 Y109.618 E5.22846
G1 X108.133 Y109.448 E5.23463
G1 X108.445 Y108.83 E5.25765
G1 X108.977 Y108.059 E5.28881
G1 X109.809 Y107.035 E5.33269
G1 X110.322 Y106.396 E5.35995
G1 X110.446 Y106.246 E5.36642
G1 X110.512 Y106.169 E5.36979
G0 F3600 X110.816 Y106.43
G1 F300 X111.281 Y105.949 E5.39205
G1 X111.8 Y105.526 E5.41432
G1 X112.366 Y105.169 E5.43657
G1 X112.97 Y104.882 E5.45881
G1 X113.604 Y104.669 E5.48106
G1 X113.958 Y104.585 E5.49316
G1 X114.23 Y104.53 E5.50239
G1 X114.427 Y104.494 E5.50905
G1 X114.663 Y104.455 E5.51701
G1 X115.491 Y104.381 E5.54466
G1 X118.982 Y104.328 E5.66078
G1 X119.58 Y104.309 E5.68068
G1 X120.172 Y104.321 E5.70037
G1 X120.709 Y104.361 E5.71828
G1 X121.372 Y104.451 E5.74054
G1 X122.02 Y104.619 E5.7628
G1 X122.643 Y104.863 E5.78506
G1 X123.232 Y105.179 E5.80729
G1 X123.78 Y105.564 E5.82956
G1 X124.297 Y106.031 E5.85274
G1 X124.696 Y106.439 E5.87172
G1 X124.792 Y106.539 E5.87633
G1 X125.743 Y107.561 E5.92276
G1 X126.168 Y108.077 E5.94499
G1 X126.608 Y108.786 E5.97275
G1 X126.728 Y109.016 E5.98137
G1 X127.001 Y109.626 E6.0036
G1 X127.182 Y110.192 E6.02337
G1 X127.266 Y110.514 E6.03444
G1 X127.396 Y111.171 E6.05671
G1 X127.436 Y111.58 E6.07038
G1 X127.459 Y111.949 E6.08268
G1 X127.465 Y112.539 E6.1023
G1 X127.426 Y113.431 E6.132
G1 X127.345 Y116.195 E6.22397
G1 X127.341 Y118.828 E6.31154
G1 X127.404 Y120.689 E6.37347
G1 X127.405 Y120.747 E6.3754
G1 X127.438 Y122.159 E6.42238
G1 X127.414 Y122.828 E6.44464
G1 X127.31 Y123.489 E6.4669
G1 X127.128 Y124.132 E6.48913
G1 X126.817 Y124.856 E6.51533
G1 X126.586 Y125.304 E6.5321
G1 X126.488 Y125.487 E6.539
G1 X126.284 Y125.849 E6.55282
G1 X125.921 Y126.411 E6.57508
G1 X125.325 Y127.1 E6.60538
G1 X125.175 Y127.247 E6.61236
G1 X124.67 Y127.685 E6.6346
G1 X124.323 Y127.932 E6.64876
G1 X123.732 Y128.319 E6.67226
G1 X123.654 Y128.369 E6.67534
G1 X123.201 Y128.655 E6.69316
G1 X123.152 Y128.686 E6.69509
G1 X121.969 Y129.416 E6.74132
G1 X121.112 Y129.848 E6.77324
G1 X120.678 Y130.022 E6.78879
G1 X120.533 Y130.077 E6.79395
G1 X120.17 Y130.211 E6.80682
G1 X119.53 Y130.405 E6.82907
G1 X118.871 Y130.521 E6.85132
G1 X118.177 Y130.558 E6.87444
G1 X116.833 Y130.545 E6.91914
G1 X116.772 Y130.544 E6.92117
G1 X116.139 Y130.531 E6.94223
G1 X115.577 Y130.491 E6.96097
G1 X114.608 Y130.373 E6.99343
G1 X114.443 Y130.35 E6.99897
G1 X114.318 Y130.331 E7.00318
G1 X113.664 Y130.192 E7.02542
G1 X113.031 Y129.975 E7.04767
G1 X112.429 Y129.684 E7.06991
G1 X111.865 Y129.323 E7.09219
G1 X111.562 Y129.086 E7.10498
G1 X110.529 Y128.22 E7.14981
G1 X110.449 Y128.151 E7.15333
G1 X110.154 Y127.894 E7.16634
G1 X109.676 Y127.426 E7.18859
G1 X109.258 Y126.903 E7.21086
G1 X109.024 Y126.542 E7.22517
G1 X108.79 Y126.15 E7.24035
G1 X108.482 Y125.556 E7.26261
G1 X108.247 Y124.93 E7.28485
G1 X108.102 Y124.354 E7.3046
G1 X108.06 Y124.139 E7.31189
G1 X107.971 Y123.476 E7.33414
G1 X107.957 Y122.961 E7.35127
G1 X107.963 Y122.637 E7.36205
G1 X107.968 Y122.478 E7.36734
G1 X107.999 Y121.818 E7.38932
G1 X108.084 Y119.158 E7.47783
G1 X108.096 Y116.487 E7.56667
G1 X108.011 Y113.307 E7.67248
G1 X107.965 Y112.256 E7.70747
G1 X107.976 Y111.587 E7.72972
G1 X108.067 Y110.924 E7.75198
G1 X108.236 Y110.277 E7.77422
G1 X108.425 Y109.778 E7.79197
G1 X108.499 Y109.608 E7.79814
G1 X108.803 Y109.012 E7.82039
G1 X109.288 Y108.312 E7.84871
G1 X110.099 Y107.314 E7.89148
G1 X110.098 Y107.314 E7.89152
G1 X110.634 Y106.646 E7.92
G1 X110.75 Y106.507 E7.92602
G1 X110.816 Y106.43 E7.9294
G0 F3600 X111.12 Y106.69
G1 F300 X111.569 Y106.227 E7.95085
G1 X112.072 Y105.824 E7.97229
G1 X112.621 Y105.486 E7.99373
G1 X113.207 Y105.218 E8.01516
G1 X114.037 Y104.977 E8.04391
G1 X114.309 Y104.922 E8.05314
G1 X114.492 Y104.889 E8.05932
G1 X114.728 Y104.85 E8.06728
G1 X115.497 Y104.781 E8.09296
G1 X119.001 Y104.728 E8.20951
G1 X119.593 Y104.709 E8.22921
G1 X120.142 Y104.72 E8.24748
G1 X120.679 Y104.76 E8.26539
G1 X121.318 Y104.848 E8.28684
G1 X121.941 Y105.014 E8.30829
G1 X122.538 Y105.256 E8.32971
G1 X123.102 Y105.57 E8.35118
G1 X123.622 Y105.951 E8.37262
G1 X124.011 Y106.31 E8.39023
G1 X124.41 Y106.718 E8.40921
G1 X124.499 Y106.812 E8.41351
G1 X125.45 Y107.834 E8.45995
G1 X125.859 Y108.332 E8.48138
G1 X126.253 Y108.971 E8.50635
G1 X126.373 Y109.201 E8.51498
G1 X126.635 Y109.79 E8.53642
G1 X126.795 Y110.293 E8.55397
G1 X126.879 Y110.615 E8.56504
G1 X127.002 Y111.248 E8.58649
G1 X127.037 Y111.605 E8.59842
G1 X127.06 Y111.974 E8.61072
G1 X127.065 Y112.522 E8.62894
G1 X127.026 Y113.42 E8.65884
G1 X126.945 Y116.184 E8.75081
G1 X126.941 Y118.841 E8.83918
G1 X127.004 Y120.702 E8.90112
G1 X127.006 Y120.757 E8.90295
G1 X127.039 Y122.169 E8.94992
G1 X127.014 Y122.813 E8.97136
G1 X126.909 Y123.449 E8.9928
G1 X126.727 Y124.067 E9.01423
G1 X126.462 Y124.673 E9.03622
G1 X126.231 Y125.121 E9.05299
G1 X126.139 Y125.291 E9.05942
G1 X125.935 Y125.653 E9.07324
G1 X125.584 Y126.194 E9.09469
G1 X125.045 Y126.814 E9.12201
G1 X124.895 Y126.961 E9.129
G1 X124.407 Y127.383 E9.15045
G1 X124.104 Y127.597 E9.16279
G1 X123.513 Y127.984 E9.18629
G1 X123.44 Y128.031 E9.18918
G1 X122.987 Y128.317 E9.20699
G1 X122.942 Y128.345 E9.20876
G1 X121.759 Y129.075 E9.25499
G1 X120.963 Y129.477 E9.28465
G1 X120.529 Y129.651 E9.3002
G1 X120.395 Y129.702 E9.30497
G1 X120.032 Y129.836 E9.31784
G1 X119.414 Y130.022 E9.33931
G1 X118.779 Y130.129 E9.36073
G1 X118.181 Y130.158 E9.38064
G1 X116.837 Y130.145 E9.42534
G1 X116.78 Y130.144 E9.42724
G1 X116.147 Y130.131 E9.4483
G1 X115.625 Y130.094 E9.4657
G1 X114.656 Y129.976 E9.49817
G1 X114.504 Y129.955 E9.50327
G1 X114.379 Y129.936 E9.50748
G1 X113.748 Y129.8 E9.52895
G1 X113.14 Y129.587 E9.55037
G1 X112.563 Y129.3 E9.57181
G1 X111.819 Y128.78 E9.602
G1 X110.786 Y127.914 E9.64683
G1 X110.711 Y127.85 E9.65011
G1 X110.416 Y127.593 E9.66313
G1 X109.957 Y127.14 E9.68457
G1 X109.558 Y126.634 E9.70601
G1 X109.367 Y126.337 E9.71775
G1 X109.133 Y125.945 E9.73294
G1 X108.838 Y125.372 E9.75437
G1 X108.615 Y124.767 E9.77582
G1 X108.494 Y124.277 E9.7926
G1 X108.452 Y124.062 E9.79989
G1 X108.368 Y123.423 E9.82133
G1 X108.357 Y122.969 E9.83643
G1 X108.363 Y122.645 E9.84721
G1 X108.368 Y122.497 E9.85213
G1 X108.397 Y121.872 E9.87294
G1 X108.484 Y119.172 E9.96279
G1 X108.496 Y116.477 E10.05243
G1 X108.41 Y113.267 E10.15923
G1 X108.365 Y112.239 E10.19346
G1 X108.377 Y111.594 E10.21491
G1 X108.469 Y110.956 E10.23635
G1 X108.638 Y110.334 E10.25779
G1 X108.792 Y109.938 E10.27192
G1 X108.866 Y109.768 E10.27809
G1 X109.16 Y109.194 E10.29954
G1 X109.598 Y108.564 E10.32506
G1 X110.43 Y107.54 E10.36894
G1 X110.946 Y106.897 E10.39636
G1 X111.054 Y106.767 E10.40199
G1 X111.12 Y106.69 E10.40536
G0 F3600 X115.213 Y110.324
;TYPE:SUPPORT
G1 F300 X115.251 Y110.337 E10.4067
G1 X115.607 Y110.184 E10.41958
G1 X115.74 Y110.25 E10.42452
G1 X115.761 Y110.245 E10.42524
G1 X115.897 Y110.378 E10.43157
G1 X116.843 Y110.643 E10.46424
G1 X118.941 Y110.58 E10.53405
G1 X119.333 Y110.365 E10.54892
G1 X119.441 Y110.365 E10.55251
G1 X119.802 Y110.113 E10.56716
G1 X120.153 Y110.202 E10.5792
G1 X120.25 Y110.17 E10.5826
G1 X120.613 Y110.58 E10.60081
G1 X120.706 Y111.003 E10.61522
G1 X121.041 Y111.378 E10.63194
G1 X121.514 Y111.538 E10.64855
G1 X121.592 Y111.692 E10.65429
G1 X121.661 Y111.969 E10.66379
G1 X121.679 Y112.291 E10.67451
G1 X121.638 Y112.53 E10.68258
G1 X120.92 Y114.391 E10.74892
G1 X121.274 Y115.259 E10.7801
G1 X121.229 Y115.224 E10.782
G1 X121.146 Y115.254 E10.78493
G1 X120.788 Y115.129 E10.79754
G1 X120.529 Y115.19 E10.80639
G1 X120.33 Y115.364 E10.81519
G1 X120.262 Y115.583 E10.82281
G1 X120.256 Y115.585 E10.82302
G1 X119.916 Y116.34 E10.85056
G1 X119.854 Y117.045 E10.8741
G1 X119.861 Y117.65 E10.89423
G1 X119.924 Y118.313 E10.91638
G1 X120.104 Y118.927 E10.93766
G1 X120.35 Y119.224 E10.95048
G1 X120.444 Y119.517 E10.96072
G1 X120.636 Y119.73 E10.97026
G1 X120.987 Y119.805 E10.98219
G1 X121.322 Y119.665 E10.99427
G1 X121.426 Y119.567 E10.99902
G1 X120.981 Y120.349 E11.02895
G1 X120.96 Y120.843 E11.04539
G1 X121.559 Y122.135 E11.09276
G1 X121.627 Y122.295 E11.09854
G1 X121.246 Y122.993 E11.12499
G1 X121.135 Y123.104 E11.13021
G1 X120.954 Y123.178 E11.13672
G1 X119.669 Y123.208 E11.17947
G1 X119.247 Y123.522 E11.19696
G1 X118.941 Y124.459 E11.22975
G1 X118.918 Y124.489 E11.231
G1 X118.197 Y124.767 E11.25671
G1 X118.086 Y124.761 E11.2604
G1 X116.658 Y124.642 E11.30806
G1 X116.27 Y124.74 E11.32137
G1 X115.668 Y124.525 E11.34263
G1 X115.319 Y124.578 E11.35438
G1 X115.212 Y124.001 E11.37389
G1 X114.838 Y123.633 E11.39135
