;FLAVOR:Marlin
;TIME:3363
;Filament used: 0.54615m
;Layer height: 0.15
;MINX:101.509
;MINY:105.794
;MINZ:0.2
;MAXX:133.407
;MAXY:128.65
;MAXZ:22.4
;Generated with Cura_SteamEngine 4.1.0
M140 S60
M105
M190 S60
M104 S215
M105
M109 S215
M82 ;absolute extrusion mode
; Ender 3 Custom Start G-code
G28 ; Home all axes
G92 E0 ; Reset Extruder
G1 Z2.0 F3000 ; Move Z Axis up little to prevent scratching of Heat Bed
G1 X0.1 Y20 Z0.3 F5000.0 ; Move to start position
G1 X0.1 Y200.0 Z0.3 F1500.0 E15 ; Draw the first line
G1 X0.4 Y200.0 Z0.3 F5000.0 ; Move to side a little
G1 X0.4 Y20 Z0.3 F1500.0 E30 ; Draw the second line
G92 E0 ; Reset Extruder
G1 Z2.0 F3000 ; Move Z Axis up little to prevent scratching of Heat Bed
; End of custom start GCode
G92 E0
G92 E0
G1 F2400 E-5
;LAYER_COUNT:149
;LAYER:0
M107
M204 S500
M205 X10 Y10
G0 F3600 X103.402 Y109.347 Z0.2
;TYPE:SKIRT
G1 F2400 E0
G1 F300 X103.927 Y108.862 E0.02377
G1 X104.465 Y108.463 E0.04605
G1 X105.287 Y107.918 E0.07885
G1 X105.365 Y107.867 E0.08195
G1 X105.762 Y107.612 E0.09765
G1 X106.776 Y106.944 E0.13803
G1 X107.394 Y106.585 E0.1618
G1 X108.049 Y106.296 E0.18562
G1 X108.68 Y106.096 E0.20763
G1 X109.044 Y106.001 E0.22014
G1 X109.745 Y105.86 E0.24393
G1 X110.682 Y105.794 E0.27517
G1 X111.253 Y105.796 E0.29416
G1 X111.575 Y105.805 E0.30487
G1 X114.799 Y105.979 E0.41226
G1 X117.42 Y106.042 E0.49946
G1 X120.067 Y106.03 E0.5875
G1 X121.776 Y105.97 E0.64438
G1 X121.844 Y105.968 E0.64664
G1 X122.814 Y105.944 E0.67891
G1 X123.529 Y105.966 E0.7027
G1 X124.237 Y106.068 E0.7265
G1 X124.595 Y106.151 E0.73872
G1 X124.904 Y106.232 E0.74934
G1 X125.05 Y106.272 E0.75438
G1 X126.062 Y106.563 E0.7894
G1 X126.737 Y106.799 E0.81319
G1 X127.382 Y107.109 E0.83699
G1 X127.988 Y107.488 E0.86076
G1 X128.315 Y107.736 E0.87441
G1 X128.617 Y107.98 E0.88732
G1 X129.321 Y108.642 E0.91946
G1 X130.154 Y109.554 E0.96055
G1 X130.204 Y109.61 E0.96304
G1 X130.433 Y109.867 E0.97449
G1 X130.963 Y110.431 E1.00023
G1 X131.038 Y110.513 E1.00393
G1 X131.487 Y111.008 E1.02616
G1 X131.938 Y111.564 E1.04997
G1 X132.323 Y112.167 E1.07376
G1 X132.716 Y112.999 E1.10437
G1 X132.757 Y113.105 E1.10815
G1 X132.977 Y113.786 E1.13195
G1 X133.12 Y114.487 E1.15575
G1 X133.185 Y115.215 E1.18006
G1 X133.209 Y115.994 E1.20598
G1 X133.334 Y118.777 E1.29864
G1 X133.384 Y119.557 E1.32463
G1 X133.396 Y119.85 E1.33438
G1 X133.407 Y120.459 E1.35464
G1 X133.407 Y120.698 E1.36259
G1 X133.405 Y120.802 E1.36605
G1 X133.351 Y121.515 E1.38983
G1 X133.218 Y122.218 E1.41363
G1 X133.008 Y122.902 E1.43743
G1 X132.722 Y123.557 E1.4612
G1 X132.365 Y124.177 E1.485
G1 X131.941 Y124.754 E1.50881
G1 X131.456 Y125.279 E1.53258
G1 X131.029 Y125.656 E1.55153
G1 X130.862 Y125.791 E1.55867
G1 X130.259 Y126.224 E1.58336
G1 X129.756 Y126.542 E1.60316
G1 X128.579 Y127.298 E1.64968
G1 X128.283 Y127.477 E1.66119
G1 X127.787 Y127.759 E1.68016
G1 X127.147 Y128.077 E1.70393
G1 X126.475 Y128.322 E1.72772
G1 X125.451 Y128.541 E1.76255
G1 X125.121 Y128.584 E1.77362
G1 X124.16 Y128.637 E1.80563
G1 X123.616 Y128.626 E1.82373
G1 X120.28 Y128.604 E1.93469
G1 X119.206 Y128.616 E1.97041
G1 X119.036 Y128.615 E1.97607
G1 X116.988 Y128.583 E2.04419
G1 X115.812 Y128.571 E2.08331
G1 X113.132 Y128.583 E2.17245
G1 X111.915 Y128.624 E2.21295
G1 X111.843 Y128.626 E2.21534
G1 X110.785 Y128.65 E2.25054
G1 X110.07 Y128.627 E2.27433
G1 X109.363 Y128.523 E2.2981
G1 X108.975 Y128.432 E2.31136
G1 X108.667 Y128.349 E2.32197
G1 X107.988 Y128.124 E2.34576
G1 X107.338 Y127.825 E2.36955
G1 X106.725 Y127.456 E2.39335
G1 X106.158 Y127.02 E2.41714
G1 X105.643 Y126.524 E2.44092
G1 X105.281 Y126.1 E2.45946
G1 X105.116 Y125.888 E2.4684
G1 X104.686 Y125.261 E2.49369
G1 X103.03 Y122.514 E2.60037
G1 X102.695 Y121.882 E2.62416
G1 X102.434 Y121.216 E2.64795
G1 X102.248 Y120.526 E2.67172
G1 X102.167 Y120.055 E2.68762
G1 X101.57 Y115.574 E2.83797
G1 X101.514 Y114.773 E2.86468
G1 X101.509 Y114.042 E2.88899
G1 X101.544 Y113.327 E2.9128
G1 X101.659 Y112.621 E2.93659
G1 X101.851 Y111.933 E2.96035
G1 X102.101 Y111.311 E2.98265
G1 X102.194 Y111.11 E2.99001
G1 X102.53 Y110.478 E3.01382
G1 X102.934 Y109.888 E3.0376
G1 X103.402 Y109.347 E3.06139
G0 F3600 X103.736 Y109.578
G1 F300 X104.25 Y109.115 E3.0844
G1 X104.686 Y108.796 E3.10237
G1 X105.508 Y108.251 E3.13517
G1 X105.581 Y108.204 E3.13806
G1 X105.945 Y107.97 E3.15246
G1 X106.996 Y107.278 E3.19431
G1 X107.595 Y106.931 E3.21733
G1 X108.231 Y106.656 E3.24038
G1 X108.781 Y106.483 E3.25956
G1 X109.145 Y106.388 E3.27207
G1 X109.824 Y106.253 E3.29509
G1 X110.681 Y106.194 E3.32366
G1 X111.252 Y106.196 E3.34266
G1 X111.554 Y106.205 E3.35271
G1 X114.77 Y106.378 E3.45982
G1 X117.412 Y106.442 E3.54772
G1 X120.083 Y106.43 E3.63656
G1 X121.79 Y106.37 E3.69337
G1 X121.854 Y106.368 E3.6955
G1 X122.824 Y106.344 E3.72777
G1 X123.516 Y106.367 E3.7508
G1 X124.493 Y106.538 E3.78379
G1 X124.802 Y106.619 E3.79442
G1 X124.939 Y106.657 E3.79915
G1 X125.951 Y106.948 E3.83417
G1 X126.605 Y107.177 E3.85722
G1 X127.227 Y107.48 E3.88023
G1 X128.064 Y108.047 E3.91385
G1 X128.366 Y108.291 E3.92677
G1 X129.025 Y108.912 E3.95688
G1 X129.858 Y109.824 E3.99796
G1 X129.906 Y109.876 E4.00032
G1 X130.164 Y110.165 E4.0132
G1 X130.671 Y110.705 E4.03784
G1 X130.742 Y110.782 E4.04132
G1 X131.191 Y111.277 E4.06355
G1 X131.626 Y111.816 E4.08659
G1 X131.996 Y112.401 E4.10961
G1 X132.343 Y113.144 E4.13689
G1 X132.384 Y113.25 E4.14067
G1 X132.596 Y113.909 E4.16369
G1 X132.731 Y114.588 E4.18672
G1 X132.785 Y115.227 E4.20804
G1 X132.809 Y116.012 E4.23417
G1 X132.933 Y118.77 E4.32599
G1 X132.985 Y119.583 E4.35309
G1 X132.996 Y119.858 E4.36224
G1 X133.007 Y120.467 E4.3825
G1 X133.007 Y120.69 E4.38992
G1 X133.005 Y120.794 E4.39338
G1 X132.952 Y121.485 E4.41643
G1 X132.819 Y122.165 E4.43947
G1 X132.609 Y122.825 E4.46251
G1 X132.325 Y123.456 E4.48552
G1 X131.969 Y124.05 E4.50855
G1 X131.548 Y124.6 E4.53159
G1 X131.066 Y125.097 E4.55462
G1 X130.778 Y125.345 E4.56726
G1 X130.611 Y125.48 E4.5744
G1 X130.045 Y125.885 E4.59755
G1 X129.542 Y126.203 E4.61734
G1 X128.362 Y126.961 E4.66399
G1 X128.086 Y127.129 E4.67474
G1 X127.59 Y127.411 E4.69371
G1 X126.969 Y127.718 E4.71675
G1 X126.317 Y127.951 E4.73978
G1 X125.399 Y128.145 E4.77099
G1 X125.069 Y128.188 E4.78206
G1 X124.168 Y128.237 E4.81207
G1 X123.626 Y128.226 E4.8301
G1 X120.279 Y128.204 E4.94143
G1 X119.202 Y128.216 E4.97725
G1 X119.042 Y128.215 E4.98257
G1 X116.992 Y128.183 E5.05076
G1 X115.814 Y128.171 E5.08994
G1 X113.151 Y128.183 E5.17852
G1 X111.902 Y128.225 E5.22008
G1 X111.834 Y128.226 E5.22234
G1 X110.776 Y128.25 E5.25754
G1 X110.084 Y128.226 E5.28057
G1 X109.079 Y128.045 E5.31454
G1 X108.771 Y127.962 E5.32515
G1 X108.114 Y127.744 E5.34817
G1 X107.486 Y127.451 E5.37122
G1 X106.896 Y127.088 E5.39426
G1 X106.352 Y126.659 E5.4173
G1 X105.862 Y126.171 E5.4403
G1 X105.597 Y125.854 E5.45405
G1 X105.432 Y125.642 E5.46298
G1 X105.028 Y125.055 E5.48668
G1 X103.372 Y122.308 E5.59336
G1 X103.05 Y121.695 E5.61639
G1 X102.8 Y121.049 E5.63943
G1 X102.626 Y120.379 E5.66246
G1 X102.564 Y120.002 E5.67516
G1 X101.967 Y115.521 E5.82552
G1 X101.914 Y114.77 E5.85056
G1 X101.909 Y114.039 E5.87487
G1 X101.944 Y113.347 E5.89792
G1 X102.059 Y112.664 E5.92096
G1 X102.252 Y111.999 E5.94399
G1 X102.464 Y111.478 E5.9627
G1 X102.557 Y111.277 E5.97006
G1 X102.883 Y110.667 E5.99307
G1 X103.278 Y110.098 E6.0161
G1 X103.736 Y109.578 E6.03915
G0 F3600 X104.068 Y109.811
G1 F300 X104.572 Y109.371 E6.0614
G1 X104.907 Y109.13 E6.07513
G1 X105.729 Y108.585 E6.10793
G1 X105.798 Y108.54 E6.11067
G1 X106.16 Y108.307 E6.12499
G1 X107.216 Y107.612 E6.16704
G1 X107.796 Y107.278 E6.1893
G1 X108.411 Y107.016 E6.21153
G1 X108.882 Y106.871 E6.22792
G1 X109.246 Y106.776 E6.24044
G1 X109.902 Y106.646 E6.26268
G1 X110.68 Y106.594 E6.28861
G1 X111.251 Y106.596 E6.3076
G1 X111.532 Y106.604 E6.31695
G1 X114.771 Y106.778 E6.42484
G1 X117.404 Y106.842 E6.51244
G1 X120.067 Y106.83 E6.60101
G1 X121.804 Y106.769 E6.65882
G1 X121.863 Y106.768 E6.66078
G1 X122.833 Y106.744 E6.69305
G1 X123.502 Y106.767 E6.71532
G1 X124.392 Y106.925 E6.74538
G1 X124.701 Y107.006 E6.75601
G1 X124.829 Y107.041 E6.76042
G1 X125.841 Y107.332 E6.79544
G1 X126.471 Y107.555 E6.81767
G1 X127.071 Y107.852 E6.83994
G1 X127.812 Y108.358 E6.86978
G1 X128.114 Y108.602 E6.8827
G1 X128.73 Y109.181 E6.91082
G1 X129.563 Y110.093 E6.9519
G1 X129.607 Y110.143 E6.95411
G1 X129.838 Y110.402 E6.96565
G1 X130.38 Y110.979 E6.99198
G1 X130.446 Y111.051 E6.99523
G1 X130.895 Y111.546 E7.01746
G1 X131.314 Y112.067 E7.0397
G1 X131.668 Y112.635 E7.06196
G1 X131.97 Y113.288 E7.08589
G1 X132.011 Y113.394 E7.08967
G1 X132.215 Y114.031 E7.11191
G1 X132.341 Y114.688 E7.13416
G1 X132.385 Y115.24 E7.15258
G1 X132.411 Y116.074 E7.18034
G1 X132.531 Y118.749 E7.2694
G1 X132.586 Y119.608 E7.29802
G1 X132.596 Y119.865 E7.30658
G1 X132.607 Y120.474 E7.32684
G1 X132.607 Y120.683 E7.33379
G1 X132.605 Y120.787 E7.33725
G1 X132.552 Y121.454 E7.3595
G1 X132.42 Y122.11 E7.38176
G1 X132.211 Y122.745 E7.40399
G1 X131.927 Y123.351 E7.42625
G1 X131.574 Y123.919 E7.4485
G1 X131.155 Y124.44 E7.47073
G1 X130.527 Y125.034 E7.49948
G1 X130.36 Y125.169 E7.50663
G1 X129.831 Y125.547 E7.52825
G1 X129.362 Y125.844 E7.54671
G1 X128.146 Y126.625 E7.59478
G1 X127.888 Y126.781 E7.60481
G1 X127.392 Y127.063 E7.62379
G1 X126.791 Y127.359 E7.64607
G1 X126.16 Y127.58 E7.66831
G1 X125.348 Y127.748 E7.69589
G1 X125.018 Y127.791 E7.70695
G1 X124.177 Y127.837 E7.73497
G1 X123.638 Y127.826 E7.7529
G1 X120.276 Y127.804 E7.86472
G1 X119.197 Y127.816 E7.90061
G1 X119.048 Y127.815 E7.90557
G1 X116.996 Y127.783 E7.97383
G1 X115.817 Y127.771 E8.01304
G1 X113.135 Y127.783 E8.10225
G1 X111.888 Y127.825 E8.14374
G1 X111.825 Y127.827 E8.14584
G1 X110.767 Y127.851 E8.18104
G1 X110.098 Y127.826 E8.20331
G1 X109.183 Y127.659 E8.23424
G1 X108.875 Y127.576 E8.24485
G1 X108.24 Y127.364 E8.26712
G1 X107.636 Y127.077 E8.28936
G1 X107.07 Y126.721 E8.3116
G1 X106.55 Y126.299 E8.33387
G1 X105.913 Y125.609 E8.36511
G1 X105.748 Y125.397 E8.37404
G1 X105.371 Y124.848 E8.39619
G1 X103.715 Y122.101 E8.50288
G1 X103.404 Y121.509 E8.52512
G1 X103.167 Y120.883 E8.54738
G1 X102.96 Y119.95 E8.57917
G1 X102.363 Y115.469 E8.72952
G1 X102.314 Y114.767 E8.75293
G1 X102.309 Y114.036 E8.77724
G1 X102.345 Y113.368 E8.79949
G1 X102.459 Y112.709 E8.82174
G1 X102.652 Y112.068 E8.844
G1 X102.827 Y111.646 E8.8592
G1 X102.92 Y111.445 E8.86656
G1 X103.236 Y110.856 E8.88879
G1 X103.621 Y110.309 E8.91104
G1 X104.068 Y109.811 E8.9333
G0 F3600 X104.4 Y110.047
G1 F300 X105.129 Y109.463 E8.96437
G1 X105.951 Y108.918 E8.99717
G1 X106.014 Y108.877 E8.99967
G1 X106.361 Y108.654 E9.01339
G1 X107.436 Y107.946 E9.0562
G1 X107.995 Y107.626 E9.07762
G1 X108.59 Y107.377 E9.09908
G1 X108.983 Y107.258 E9.11273
G1 X109.347 Y107.163 E9.12525
G1 X109.98 Y107.039 E9.1467
G1 X110.678 Y106.994 E9.16996
G1 X111.249 Y106.996 E9.18896
G1 X111.511 Y107.004 E9.19767
G1 X114.741 Y107.178 E9.30526
G1 X117.396 Y107.242 E9.39359
G1 X120.082 Y107.23 E9.48293
G1 X121.818 Y107.169 E9.5407
G1 X121.873 Y107.168 E9.54253
G1 X122.843 Y107.144 E9.57481
G1 X123.488 Y107.168 E9.59627
G1 X124.291 Y107.312 E9.62341
G1 X124.6 Y107.393 E9.63403
G1 X124.718 Y107.426 E9.63811
G1 X125.73 Y107.717 E9.67313
G1 X126.337 Y107.933 E9.69456
G1 X126.913 Y108.222 E9.71599
G1 X127.561 Y108.669 E9.74218
G1 X127.863 Y108.913 E9.75509
G1 X128.434 Y109.451 E9.78118
G1 X129.267 Y110.363 E9.82226
G1 X129.309 Y110.409 E9.82434
G1 X129.569 Y110.7 E9.83732
G1 X130.088 Y111.253 E9.86254
G1 X130.15 Y111.319 E9.86555
G1 X130.599 Y111.814 E9.88778
G1 X131.001 Y112.318 E9.90922
G1 X131.339 Y112.867 E9.93067
G1 X131.597 Y113.432 E9.95132
G1 X131.638 Y113.538 E9.9551
G1 X131.833 Y114.153 E9.97656
G1 X131.95 Y114.787 E9.99801
G1 X131.985 Y115.252 E10.01351
G1 X132.01 Y116.048 E10.04
G1 X132.136 Y118.856 E10.13349
G1 X132.186 Y119.634 E10.15942
G1 X132.196 Y119.872 E10.16734
G1 X132.207 Y120.481 E10.1876
G1 X132.207 Y120.675 E10.19406
G1 X132.205 Y120.779 E10.19752
G1 X132.153 Y121.422 E10.21897
G1 X132.021 Y122.053 E10.24041
G1 X131.813 Y122.663 E10.26185
G1 X131.53 Y123.242 E10.28328
G1 X131.178 Y123.782 E10.30472
G1 X130.762 Y124.275 E10.32618
G1 X130.275 Y124.723 E10.34819
G1 X130.108 Y124.858 E10.35533
G1 X129.618 Y125.209 E10.37538
G1 X129.115 Y125.527 E10.39517
G1 X127.93 Y126.288 E10.44201
G1 X127.69 Y126.433 E10.45134
G1 X127.194 Y126.715 E10.47031
G1 X126.615 Y126.999 E10.49176
G1 X126.005 Y127.208 E10.51321
G1 X125.296 Y127.351 E10.53726
G1 X124.966 Y127.394 E10.54833
G1 X124.185 Y127.437 E10.57435
G1 X123.648 Y127.426 E10.59221
G1 X120.275 Y127.404 E10.7044
G1 X119.193 Y127.416 E10.74039
G1 X119.055 Y127.415 E10.74498
G1 X117 Y127.382 E10.81334
G1 X117 Y127.383 E10.81337
G1 X115.819 Y127.371 E10.85266
G1 X113.12 Y127.383 E10.94243
G1 X111.875 Y127.425 E10.98386
G1 X111.816 Y127.427 E10.98582
G1 X110.758 Y127.451 E11.02102
G1 X110.114 Y127.425 E11.04246
G1 X109.287 Y127.273 E11.07042
G1 X108.979 Y127.19 E11.08103
G1 X108.368 Y126.984 E11.10248
G1 X107.787 Y126.704 E11.12393
G1 X107.246 Y126.354 E11.14536
G1 X106.752 Y125.94 E11.1668
G1 X106.228 Y125.363 E11.19272
G1 X106.063 Y125.151 E11.20166
G1 X105.714 Y124.642 E11.22218
G1 X104.058 Y121.895 E11.32887
G1 X103.76 Y121.323 E11.35032
G1 X103.535 Y120.719 E11.37176
G1 X103.357 Y119.897 E11.39973
G1 X102.76 Y115.416 E11.55009
G1 X102.714 Y114.765 E11.57179
G1 X102.709 Y114.034 E11.59611
G1 X102.745 Y113.39 E11.61756
G1 X102.86 Y112.756 E11.63899
G1 X103.052 Y112.14 E11.66045
G1 X103.19 Y111.814 E11.67223
G1 X103.283 Y111.613 E11.67959
G1 X103.589 Y111.046 E11.70102
G1 X103.963 Y110.521 E11.72246
G1 X104.4 Y110.047 E11.7439
G0 F3600 X108.127 Y113.976
;TYPE:SUPPORT
G1 F300 X109.473 Y113.834 E11.78892
G1 X109.883 Y113.549 E11.80553
G1 X110.436 Y112.447 E11.84654
G1 X110.727 Y112.375 E11.85651
G1 X111.246 Y112.387 E11.87377
G1 X112.303 Y112.781 E11.91129
G1 X112.884 Y113.097 E11.93329
G1 X114.014 Y113.527 E11.9735
G1 X114.999 Y113.242 E12.00761
G1 X115.305 Y113.102 E12.0188
G1 X115.304 Y113.11 E12.01907
G1 X115.177 Y113.209 E12.02442
G1 X114.977 Y113.5 E12.03617
G1 X114.895 Y113.842 E12.04787
G1 X114.976 Y114.119 E12.05746
G1 X115.272 Y114.365 E12.07027
G1 X115.703 Y114.474 E12.08505
G1 X115.707 Y114.474 E12.08519
G1 X115.847 Y114.626 E12.09206
G1 X116.693 Y114.84 E12.12108
G1 X117.183 Y114.876 E12.13742
G1 X117.767 Y114.885 E12.15685
G1 X118.462 Y114.833 E12.18003
G1 X119.095 Y114.627 E12.20217
G1 X119.218 Y114.516 E12.20768
G1 X119.298 Y114.515 E12.21034
G1 X119.763 Y114.376 E12.22648
G1 X119.998 Y114.119 E12.23807
G1 X120.046 Y113.819 E12.24817
G1 X119.904 Y113.444 E12.26151
G1 X119.69 Y113.226 E12.27167
G1 X119.692 Y113.197 E12.27264
G1 X119.735 Y113.206 E12.2741
G1 X120.466 Y113.627 E12.30215
G1 X120.968 Y113.635 E12.31885
G1 X122.972 Y112.562 E12.39446
G1 X123.286 Y112.755 E12.40672
G1 X124.26 Y112.905 E12.4395
G1 X124.412 Y113.038 E12.44621
G1 X124.535 Y113.322 E12.45651
G1 X124.626 Y114.828 E12.50669
G1 X125.012 Y115.218 E12.52494
G1 X126.478 Y115.318 E12.57381
G1 X126.568 Y115.394 E12.57773
G1 X126.318 Y115.768 E12.59269
G1 X126.336 Y115.927 E12.59801
G1 X126.032 Y116.388 E12.61638
G1 X126.032 Y118.905 E12.7001
G1 X126.317 Y119.338 E12.71734
G1 X126.304 Y119.553 E12.7245
G1 X126.51 Y120.007 E12.74108
G1 X126.816 Y120.243 E12.75394
G1 X126.816 Y120.592 E12.76554
G1 X126.791 Y120.611 E12.76659
G1 X125.807 Y120.443 E12.79979
G1 X125.339 Y120.728 E12.81802
G1 X125.019 Y121.712 E12.85243
G1 X124.845 Y121.861 E12.86005
G1 X124.571 Y122.01 E12.87042
G1 X124.281 Y122.048 E12.88015
G1 X124.016 Y122.039 E12.88897
