;FLAVOR:Marlin
;TIME:2123
;Filament used: 0.295251m
;Layer height: 0.15
;MINX:105.677
;MINY:106.163
;MINZ:0.2
;MAXX:129.418
;MAXY:128.839
;MAXZ:22.4
;Generated with Cura_SteamEngine 4.1.0
M140 S60
M105
M190 S60
M104 S215
M105
M109 S215
M82 ;absolute extrusion mode
; Ender 3 Custom Start G-code
G28 ; Home all axes
G92 E0 ; Reset Extruder
G1 Z2.0 F3000 ; Move Z Axis up little to prevent scratching of Heat Bed
G1 X0.1 Y20 Z0.3 F5000.0 ; Move to start position
G1 X0.1 Y200.0 Z0.3 F1500.0 E15 ; Draw the first line
G1 X0.4 Y200.0 Z0.3 F5000.0 ; Move to side a little
G1 X0.4 Y20 Z0.3 F1500.0 E30 ; Draw the second line
G92 E0 ; Reset Extruder
G1 Z2.0 F3000 ; Move Z Axis up little to prevent scratching of Heat Bed
; End of custom start GCode
G92 E0
G92 E0
G1 F2400 E-5
;LAYER_COUNT:149
;LAYER:0
M107
M204 S500
M205 X10 Y10
G0 F3600 X111.499 Y108.492 Z0.2
;TYPE:SKIRT
G1 F2400 E0
G1 F300 X112.046 Y107.998 E0.02451
G1 X112.908 Y107.404 E0.05933
G1 X113.092 Y107.297 E0.06641
G1 X113.525 Y107.065 E0.08275
G1 X113.742 Y106.959 E0.09078
G1 X114.421 Y106.672 E0.1153
G1 X115.349 Y106.41 E0.14737
G1 X115.866 Y106.303 E0.16493
G1 X116.595 Y106.193 E0.18945
G1 X117.367 Y106.163 E0.21515
G1 X117.863 Y106.172 E0.23165
G1 X118.599 Y106.225 E0.25619
G1 X119.479 Y106.397 E0.28602
G1 X119.959 Y106.524 E0.30253
G1 X120.661 Y106.751 E0.32707
G1 X121.213 Y106.992 E0.3471
G1 X121.519 Y107.142 E0.35844
G1 X122.163 Y107.502 E0.38298
G1 X122.763 Y107.93 E0.40749
G1 X123.305 Y108.41 E0.43157
G1 X123.469 Y108.572 E0.43924
G1 X123.565 Y108.669 E0.44378
G1 X123.636 Y108.742 E0.44716
G1 X124.12 Y109.298 E0.47168
G1 X124.542 Y109.902 E0.49619
G1 X124.896 Y110.549 E0.52072
G1 X125.177 Y111.231 E0.54525
G1 X125.383 Y111.939 E0.56977
G1 X125.542 Y112.976 E0.60467
G1 X125.645 Y114.353 E0.6506
G1 X125.651 Y114.432 E0.65323
G1 X125.741 Y115.859 E0.70079
G1 X125.754 Y116.317 E0.71603
G1 X125.752 Y116.778 E0.73136
G1 X125.749 Y116.945 E0.73691
G1 X125.67 Y119.674 E0.82772
G1 X125.668 Y120.685 E0.86135
G1 X125.667 Y120.783 E0.86461
G1 X125.655 Y121.522 E0.88919
G1 X125.603 Y122.258 E0.91373
G1 X125.472 Y122.983 E0.93823
G1 X125.154 Y123.977 E0.97294
G1 X125.064 Y124.198 E0.98088
G1 X124.749 Y124.864 E1.00538
G1 X124.364 Y125.493 E1.02991
G1 X123.913 Y126.077 E1.05445
G1 X123.402 Y126.608 E1.07897
G1 X122.971 Y126.977 E1.09784
G1 X122.713 Y127.18 E1.10876
G1 X122.11 Y127.604 E1.13327
G1 X121.153 Y128.101 E1.16914
G1 X120.864 Y128.223 E1.17957
G1 X120.17 Y128.472 E1.2041
G1 X119.189 Y128.689 E1.23751
G1 X118.599 Y128.774 E1.25734
G1 X117.864 Y128.839 E1.28188
G1 X117.352 Y128.837 E1.29891
G1 X117.008 Y128.823 E1.31036
G1 X116.275 Y128.754 E1.33485
G1 X115.728 Y128.648 E1.35338
G1 X115.205 Y128.525 E1.37125
G1 X114.498 Y128.318 E1.39575
G1 X113.895 Y128.072 E1.41741
G1 X113.695 Y127.979 E1.42475
G1 X113.044 Y127.632 E1.44928
G1 X112.225 Y127.051 E1.48268
G1 X111.946 Y126.82 E1.49473
G1 X111.405 Y126.319 E1.51925
G1 X110.921 Y125.763 E1.54377
G1 X110.499 Y125.158 E1.56831
G1 X110.146 Y124.511 E1.59282
G1 X109.885 Y123.884 E1.61541
G1 X109.799 Y123.645 E1.62386
G1 X109.587 Y122.939 E1.64837
G1 X109.453 Y122.214 E1.6729
G1 X109.406 Y121.685 E1.69056
G1 X109.395 Y121.457 E1.69815
G1 X109.266 Y119.43 E1.76571
G1 X109.26 Y119.321 E1.76934
G1 X109.242 Y118.942 E1.78196
G1 X109.238 Y118.399 E1.80002
G1 X109.279 Y117.132 E1.84218
G1 X109.283 Y117.021 E1.84588
G1 X109.293 Y116.819 E1.8526
G1 X109.354 Y113.378 E1.96707
G1 X109.407 Y112.643 E1.99158
G1 X109.539 Y111.917 E2.01612
G1 X109.75 Y111.211 E2.04063
G1 X110.035 Y110.531 E2.06515
G1 X110.392 Y109.886 E2.08967
G1 X110.836 Y109.26 E2.1152
G1 X111.009 Y109.043 E2.12443
G1 X111.499 Y108.492 E2.14895
G0 F3600 X111.798 Y108.759
G1 F300 X112.331 Y108.282 E2.17274
G1 X113.109 Y107.749 E2.20411
G1 X113.293 Y107.642 E2.21119
G1 X113.701 Y107.424 E2.22657
G1 X113.918 Y107.318 E2.23461
G1 X114.577 Y107.041 E2.25838
G1 X115.43 Y106.802 E2.28785
G1 X115.947 Y106.695 E2.30541
G1 X116.654 Y106.589 E2.32918
G1 X117.36 Y106.563 E2.35268
G1 X117.856 Y106.572 E2.36918
G1 X118.569 Y106.625 E2.39296
G1 X119.377 Y106.784 E2.42035
G1 X119.857 Y106.911 E2.43687
G1 X120.537 Y107.132 E2.46065
G1 X121.037 Y107.351 E2.4788
G1 X121.343 Y107.501 E2.49014
G1 X121.967 Y107.852 E2.51395
G1 X122.547 Y108.269 E2.53771
G1 X123.024 Y108.695 E2.55898
G1 X123.188 Y108.857 E2.56665
G1 X123.278 Y108.948 E2.5709
G1 X123.349 Y109.021 E2.57429
G1 X123.818 Y109.561 E2.59808
G1 X124.224 Y110.149 E2.62184
G1 X124.562 Y110.78 E2.64565
G1 X124.828 Y111.444 E2.66944
G1 X125.017 Y112.134 E2.69324
G1 X125.143 Y113.006 E2.72254
G1 X125.246 Y114.383 E2.76847
G1 X125.251 Y114.457 E2.77094
G1 X125.341 Y115.884 E2.81849
G1 X125.354 Y116.315 E2.83284
G1 X125.352 Y116.776 E2.84817
G1 X125.349 Y116.934 E2.85342
G1 X125.27 Y119.662 E2.9442
G1 X125.268 Y120.685 E2.97822
G1 X125.267 Y120.777 E2.98128
G1 X125.255 Y121.516 E3.00586
G1 X125.204 Y122.229 E3.02964
G1 X125.073 Y122.933 E3.05346
G1 X124.783 Y123.826 E3.08468
G1 X124.693 Y124.047 E3.09262
G1 X124.387 Y124.693 E3.1164
G1 X124.01 Y125.301 E3.14019
G1 X123.568 Y125.864 E3.164
G1 X123.066 Y126.373 E3.18777
G1 X122.724 Y126.663 E3.20269
G1 X122.466 Y126.866 E3.21361
G1 X121.88 Y127.276 E3.23739
G1 X120.997 Y127.732 E3.27045
G1 X120.708 Y127.854 E3.28088
G1 X120.035 Y128.095 E3.30466
G1 X119.132 Y128.293 E3.33541
G1 X118.542 Y128.378 E3.35523
G1 X117.829 Y128.44 E3.37904
G1 X117.369 Y128.438 E3.39433
G1 X117.025 Y128.424 E3.40579
G1 X116.313 Y128.355 E3.42958
G1 X115.82 Y128.259 E3.44628
G1 X115.297 Y128.136 E3.46415
G1 X114.611 Y127.934 E3.48794
G1 X114.063 Y127.709 E3.50764
G1 X113.863 Y127.616 E3.51498
G1 X113.233 Y127.279 E3.53874
G1 X112.48 Y126.743 E3.56948
G1 X112.201 Y126.512 E3.58153
G1 X111.677 Y126.025 E3.60532
G1 X111.21 Y125.484 E3.62909
G1 X110.806 Y124.893 E3.6529
G1 X110.471 Y124.261 E3.67669
G1 X110.261 Y123.749 E3.6951
G1 X110.175 Y123.51 E3.70355
G1 X109.971 Y122.824 E3.72735
G1 X109.844 Y122.12 E3.75115
G1 X109.805 Y121.665 E3.76633
G1 X109.789 Y121.347 E3.77692
G1 X109.665 Y119.404 E3.84168
G1 X109.659 Y119.302 E3.84508
G1 X109.641 Y118.923 E3.8577
G1 X109.637 Y118.412 E3.8747
G1 X109.678 Y117.145 E3.91686
G1 X109.683 Y117.041 E3.92032
G1 X109.692 Y116.846 E3.92681
G1 X109.754 Y113.385 E4.04195
G1 X109.807 Y112.672 E4.06573
G1 X109.939 Y111.969 E4.08952
G1 X110.148 Y111.285 E4.1133
G1 X110.433 Y110.629 E4.13709
G1 X110.789 Y110.008 E4.1609
G1 X111.149 Y109.509 E4.18137
G1 X111.322 Y109.292 E4.1906
G1 X111.798 Y108.759 E4.21436
G0 F3600 X112.097 Y109.026
G1 F300 X112.615 Y108.567 E4.23738
G1 X113.31 Y108.095 E4.26533
G1 X113.494 Y107.988 E4.27241
G1 X113.877 Y107.784 E4.28684
G1 X114.094 Y107.678 E4.29487
G1 X114.732 Y107.41 E4.31789
G1 X115.511 Y107.194 E4.34477
G1 X116.028 Y107.087 E4.36233
G1 X116.713 Y106.986 E4.38536
G1 X117.353 Y106.963 E4.40666
G1 X117.849 Y106.972 E4.42316
G1 X118.539 Y107.024 E4.44618
G1 X119.275 Y107.171 E4.47114
G1 X119.755 Y107.298 E4.48766
G1 X120.413 Y107.513 E4.51068
G1 X120.861 Y107.71 E4.52696
G1 X121.167 Y107.86 E4.53829
G1 X121.77 Y108.201 E4.56133
G1 X122.33 Y108.608 E4.58436
G1 X122.743 Y108.979 E4.60282
G1 X122.907 Y109.141 E4.61049
G1 X122.991 Y109.227 E4.61449
G1 X123.062 Y109.3 E4.61787
G1 X123.516 Y109.823 E4.64091
G1 X123.906 Y110.395 E4.66394
G1 X124.227 Y111.009 E4.68698
G1 X124.476 Y111.655 E4.71001
G1 X124.648 Y112.326 E4.73305
G1 X124.744 Y113.035 E4.75684
G1 X124.847 Y114.412 E4.80277
G1 X124.852 Y114.482 E4.8051
G1 X124.942 Y115.909 E4.85266
G1 X124.954 Y116.313 E4.8661
G1 X124.952 Y116.774 E4.88144
G1 X124.949 Y116.922 E4.88636
G1 X124.87 Y119.65 E4.97713
G1 X124.868 Y120.684 E5.01152
G1 X124.867 Y120.77 E5.01438
G1 X124.855 Y121.509 E5.03897
G1 X124.804 Y122.2 E5.06201
G1 X124.674 Y122.88 E5.08504
G1 X124.413 Y123.675 E5.11287
G1 X124.323 Y123.896 E5.1208
G1 X124.025 Y124.521 E5.14383
G1 X123.657 Y125.108 E5.16688
G1 X123.224 Y125.648 E5.1899
G1 X122.476 Y126.348 E5.22397
G1 X122.218 Y126.551 E5.23489
G1 X121.65 Y126.947 E5.25792
G1 X120.841 Y127.364 E5.28819
G1 X120.552 Y127.486 E5.29863
G1 X119.9 Y127.718 E5.32164
G1 X119.075 Y127.897 E5.34972
G1 X118.485 Y127.982 E5.36955
G1 X117.795 Y128.041 E5.39258
G1 X117.385 Y128.038 E5.40622
G1 X117.041 Y128.024 E5.41767
G1 X116.352 Y127.956 E5.4407
G1 X115.911 Y127.87 E5.45564
G1 X115.388 Y127.747 E5.47351
G1 X114.725 Y127.549 E5.49652
G1 X114.232 Y127.347 E5.51424
G1 X114.032 Y127.254 E5.52158
G1 X113.422 Y126.926 E5.54462
G1 X112.736 Y126.435 E5.57267
G1 X112.457 Y126.204 E5.58472
G1 X111.95 Y125.732 E5.60776
G1 X111.5 Y125.205 E5.63081
G1 X111.115 Y124.63 E5.65383
G1 X110.798 Y124.014 E5.67687
G1 X110.637 Y123.613 E5.69124
G1 X110.551 Y123.374 E5.69969
G1 X110.355 Y122.71 E5.72271
G1 X110.236 Y122.028 E5.74574
G1 X110.205 Y121.645 E5.75852
G1 X110.193 Y121.406 E5.76648
G1 X110.064 Y119.379 E5.83404
G1 X110.059 Y119.283 E5.83723
G1 X110.041 Y118.904 E5.84985
G1 X110.037 Y118.425 E5.86578
G1 X110.078 Y117.158 E5.90795
G1 X110.082 Y117.06 E5.91121
G1 X110.093 Y116.84 E5.91854
G1 X110.154 Y113.392 E6.03323
G1 X110.206 Y112.702 E6.05625
G1 X110.338 Y112.022 E6.07929
G1 X110.547 Y111.362 E6.10231
G1 X110.83 Y110.73 E6.12535
G1 X111.185 Y110.135 E6.14839
G1 X111.461 Y109.759 E6.1639
G1 X111.634 Y109.542 E6.17313
G1 X112.097 Y109.026 E6.19619
G0 F3600 X112.395 Y109.294
G1 F300 X112.898 Y108.853 E6.21844
G1 X113.511 Y108.441 E6.24301
G1 X113.695 Y108.334 E6.25009
G1 X114.052 Y108.143 E6.26355
G1 X114.269 Y108.037 E6.27159
G1 X114.887 Y107.78 E6.29385
G1 X115.592 Y107.585 E6.31818
G1 X116.109 Y107.478 E6.33574
G1 X116.771 Y107.382 E6.35798
G1 X117.346 Y107.363 E6.37712
G1 X117.842 Y107.372 E6.39362
G1 X118.509 Y107.424 E6.41587
G1 X119.172 Y107.557 E6.43836
G1 X119.652 Y107.684 E6.45488
G1 X120.288 Y107.894 E6.47715
G1 X120.685 Y108.07 E6.4916
G1 X120.991 Y108.22 E6.50293
G1 X121.573 Y108.549 E6.52517
G1 X122.112 Y108.946 E6.54743
G1 X122.461 Y109.264 E6.56314
G1 X122.625 Y109.426 E6.5708
G1 X122.704 Y109.506 E6.57454
G1 X122.775 Y109.579 E6.57793
G1 X123.212 Y110.085 E6.60017
G1 X123.586 Y110.64 E6.62243
G1 X123.89 Y111.236 E6.64468
G1 X124.122 Y111.864 E6.66695
G1 X124.277 Y112.515 E6.6892
G1 X124.345 Y113.065 E6.70764
G1 X124.448 Y114.442 E6.75356
G1 X124.453 Y114.508 E6.75576
G1 X124.543 Y115.935 E6.80332
G1 X124.554 Y116.311 E6.81583
G1 X124.552 Y116.772 E6.83117
G1 X124.55 Y116.91 E6.83576
G1 X124.47 Y119.674 E6.92773
G1 X124.468 Y120.683 E6.96128
G1 X124.467 Y120.764 E6.96398
G1 X124.455 Y121.503 E6.98856
G1 X124.404 Y122.17 E7.01081
G1 X124.274 Y122.826 E7.03305
G1 X124.042 Y123.524 E7.05752
G1 X123.952 Y123.745 E7.06545
G1 X123.664 Y124.349 E7.08771
G1 X123.305 Y124.913 E7.10995
G1 X122.881 Y125.431 E7.13221
G1 X122.229 Y126.034 E7.16175
G1 X121.971 Y126.237 E7.17267
G1 X121.421 Y126.619 E7.19494
G1 X120.686 Y126.995 E7.2224
G1 X120.397 Y127.117 E7.23283
G1 X119.766 Y127.34 E7.25509
G1 X119.018 Y127.501 E7.28054
G1 X118.428 Y127.586 E7.30037
G1 X117.761 Y127.641 E7.32263
G1 X117.401 Y127.638 E7.3346
G1 X117.057 Y127.624 E7.34605
G1 X116.392 Y127.557 E7.36828
G1 X116.003 Y127.48 E7.38147
G1 X115.48 Y127.357 E7.39934
G1 X114.839 Y127.165 E7.4216
G1 X114.401 Y126.984 E7.43736
G1 X114.201 Y126.891 E7.4447
G1 X113.612 Y126.573 E7.46696
G1 X112.991 Y126.126 E7.49241
G1 X112.712 Y125.895 E7.50446
G1 X112.223 Y125.439 E7.52669
G1 X111.792 Y124.927 E7.54895
G1 X111.425 Y124.368 E7.57119
G1 X111.014 Y123.478 E7.6038
G1 X110.928 Y123.239 E7.61225
G1 X110.739 Y122.597 E7.63451
G1 X110.604 Y121.624 E7.66718
G1 X110.592 Y121.381 E7.67527
G1 X110.463 Y119.354 E7.74283
G1 X110.458 Y119.264 E7.74582
G1 X110.44 Y118.885 E7.75844
G1 X110.437 Y118.438 E7.77331
G1 X110.478 Y117.171 E7.81547
G1 X110.482 Y117.08 E7.8185
G1 X110.492 Y116.867 E7.8256
G1 X110.554 Y113.399 E7.94096
G1 X110.606 Y112.732 E7.96321
G1 X110.737 Y112.076 E7.98546
G1 X110.945 Y111.441 E8.00769
G1 X111.228 Y110.834 E8.02996
G1 X111.774 Y110.008 E8.06289
G1 X111.947 Y109.791 E8.07212
G1 X112.395 Y109.294 E8.09438
G0 F3600 X112.692 Y109.562
G1 F300 X113.181 Y109.141 E8.11584
G1 X113.712 Y108.787 E8.13707
G1 X113.896 Y108.68 E8.14415
G1 X114.228 Y108.503 E8.15666
G1 X114.445 Y108.397 E8.16469
G1 X115.04 Y108.15 E8.18612
G1 X115.673 Y107.977 E8.20795
G1 X116.19 Y107.87 E8.22551
G1 X116.828 Y107.779 E8.24694
G1 X117.338 Y107.763 E8.26391
G1 X117.834 Y107.772 E8.28041
G1 X118.477 Y107.823 E8.30186
G1 X119.07 Y107.944 E8.32199
G1 X119.55 Y108.071 E8.33851
G1 X120.162 Y108.274 E8.35995
G1 X120.509 Y108.429 E8.37259
G1 X120.815 Y108.579 E8.38393
G1 X121.375 Y108.898 E8.40536
G1 X121.891 Y109.284 E8.4268
G1 X122.18 Y109.549 E8.43984
G1 X122.344 Y109.711 E8.44751
G1 X122.418 Y109.784 E8.45096
G1 X122.489 Y109.857 E8.45435
G1 X122.909 Y110.347 E8.47582
G1 X123.265 Y110.884 E8.49724
G1 X123.552 Y111.461 E8.51868
G1 X123.765 Y112.069 E8.54011
G1 X123.902 Y112.7 E8.56158
G1 X123.947 Y113.095 E8.5748
G1 X124.05 Y114.472 E8.62073
G1 X124.054 Y114.533 E8.62276
G1 X124.144 Y115.96 E8.67032
G1 X124.154 Y116.31 E8.68197
G1 X124.152 Y116.771 E8.6973
G1 X124.15 Y116.899 E8.70156
G1 X124.07 Y119.662 E8.79349
G1 X124.068 Y120.682 E8.82742
G1 X124.067 Y120.757 E8.82991
G1 X124.055 Y121.496 E8.8545
G1 X124.005 Y122.139 E8.87595
G1 X123.875 Y122.771 E8.89741
G1 X123.672 Y123.373 E8.91854
G1 X123.582 Y123.594 E8.92648
G1 X123.302 Y124.175 E8.94793
G1 X122.953 Y124.717 E8.96937
G1 X122.539 Y125.211 E8.9908
G1 X121.981 Y125.72 E9.01593
G1 X121.723 Y125.923 E9.02684
G1 X121.193 Y126.289 E9.04827
G1 X120.53 Y126.627 E9.07302
G1 X120.241 Y126.749 E9.08345
G1 X119.633 Y126.962 E9.10488
G1 X118.96 Y127.105 E9.12776
G1 X118.37 Y127.19 E9.14759
G1 X117.418 Y127.239 E9.17929
G1 X117.074 Y127.225 E9.19075
G1 X116.432 Y127.159 E9.21221
G1 X116.095 Y127.091 E9.22365
G1 X115.572 Y126.968 E9.24152
G1 X114.954 Y126.782 E9.26298
G1 X114.569 Y126.621 E9.27686
G1 X114.369 Y126.528 E9.2842
G1 X113.803 Y126.221 E9.30561
G1 X113.246 Y125.818 E9.32848
G1 X112.967 Y125.587 E9.34053
G1 X112.497 Y125.146 E9.36196
G1 X112.085 Y124.65 E9.38341
G1 X111.737 Y124.107 E9.40486
G1 X111.39 Y123.343 E9.43277
G1 X111.304 Y123.104 E9.44122
G1 X111.124 Y122.485 E9.46266
G1 X111.004 Y121.604 E9.49223
G1 X110.991 Y121.355 E9.50052
G1 X110.862 Y119.328 E9.56808
G1 X110.858 Y119.245 E9.57084
G1 X110.84 Y118.866 E9.58346
G1 X110.837 Y118.451 E9.59727
G1 X110.878 Y117.184 E9.63943
G1 X110.881 Y117.099 E9.64226
G1 X110.893 Y116.86 E9.65022
G1 X110.954 Y113.407 E9.76508
G1 X111.005 Y112.764 E9.78653
G1 X111.136 Y112.133 E9.80797
G1 X111.343 Y111.522 E9.82943
G1 X111.625 Y110.942 E9.85088
G1 X112.087 Y110.257 E9.87836
G1 X112.26 Y110.04 E9.88759
G1 X112.692 Y109.562 E9.90902
G1 F2400 E4.90902
;MESH:Alliance_10.stl
G0 F3600 X115.805 Y112.855
G0 X116.475 Y113.43
G0 X118.22 Y113.648
G0 X118.224 Y113.747
;TYPE:WALL-OUTER
G1 F2400 E9.90902
G1 F300 X117.73 Y113.785 E9.9255
G1 X117.229 Y113.776 E9.94216
G1 X116.874 Y113.751 E9.954
G1 X116.657 Y113.7 E9.96141
G1 X116.437 Y113.65 E9.96892
G1 X116.347 Y113.575 E9.97281
G1 X116.346 Y113.551 E9.97361
G1 X116.463 Y113.415 E9.97958
G1 X116.665 Y113.314 E9.98564
G1 X116.8 Y113.245 E9.99068
G1 X117.265 Y113.151 E10.00646
G1 X117.724 Y113.161 E10.02173
G1 X118.211 Y113.294 E10.03852
G1 X118.374 Y113.379 E10.04463
G1 X118.406 Y113.395 E10.04582
G1 X118.508 Y113.499 E10.05067
G1 X118.586 Y113.578 E10.05436
G1 X118.591 Y113.605 E10.05527
G1 X118.549 Y113.648 E10.05727
G1 X118.497 Y113.665 E10.05741
G1 X118.259 Y113.745 E10.06362
G1 X118.224 Y113.747 E10.06475
G0 F3600 X118.025 Y113.762
G0 X117.924 Y113.63
G1 F2400 E5.06475
G0 F3600 X116.631 Y116.331
