;FLAVOR:Marlin
;TIME:660
;Filament used: 0.154175m
;Layer height: 0.2
;MINX:81.626
;MINY:117.902
;MINZ:0.2
;MAXX:105.106
;MAXY:141.562
;MAXZ:9
;Generated with Cura_SteamEngine 4.1.0
M140 S60
M105
M190 S60
M104 S215
M105
M109 S215
M82 ;absolute extrusion mode
; Ender 3 Custom Start G-code
G28 ; Home all axes
G92 E0 ; Reset Extruder
G1 Z2.0 F3000 ; Move Z Axis up little to prevent scratching of Heat Bed
G1 X0.1 Y20 Z0.3 F5000.0 ; Move to start position
G1 X0.1 Y200.0 Z0.3 F1500.0 E15 ; Draw the first line
G1 X0.4 Y200.0 Z0.3 F5000.0 ; Move to side a little
G1 X0.4 Y20 Z0.3 F1500.0 E30 ; Draw the second line
G92 E0 ; Reset Extruder
G1 Z2.0 F3000 ; Move Z Axis up little to prevent scratching of Heat Bed
; End of custom start GCode
G92 E0
G92 E0
G1 F1500 E-2
;LAYER_COUNT:45
;LAYER:0
M107
M204 S500
M205 X10 Y10
G0 F3600 X84.625 Y127.115 Z0.2
;TYPE:SKIRT
G1 F1500 E0
G1 F1800 X85.261 Y126.702 E0.02522
G1 X85.937 Y126.358 E0.05045
G1 X86.646 Y126.087 E0.0757
G1 X87.379 Y125.893 E0.10091
G1 X88.129 Y125.776 E0.12616
G1 X88.887 Y125.739 E0.1514
G1 X89.644 Y125.782 E0.17662
G1 X90.393 Y125.904 E0.20186
G1 X91.124 Y126.105 E0.22708
G1 X91.831 Y126.381 E0.25232
G1 X92.504 Y126.731 E0.27755
G1 X93.068 Y127.098 E0.29993
G1 X93.494 Y127.405 E0.3174
G1 X93.677 Y127.542 E0.325
G1 X93.999 Y127.79 E0.33852
G1 X94.786 Y128.493 E0.37361
G1 X95.176 Y128.897 E0.39229
G1 X95.698 Y129.501 E0.41884
G1 X95.853 Y129.702 E0.42729
G1 X96.016 Y129.922 E0.43639
G1 X96.162 Y130.127 E0.44476
G1 X96.569 Y130.768 E0.47002
G1 X96.906 Y131.447 E0.49523
G1 X97.17 Y132.158 E0.52045
G1 X97.357 Y132.894 E0.54571
G1 X97.467 Y133.644 E0.57092
G1 X97.491 Y134.586 E0.60227
G1 X97.489 Y134.637 E0.60396
G1 X97.42 Y135.393 E0.62921
G1 X97.271 Y136.137 E0.65445
G1 X97.045 Y136.861 E0.67968
G1 X96.744 Y137.557 E0.7049
G1 X96.371 Y138.218 E0.73014
G1 X95.931 Y138.836 E0.75537
G1 X95.428 Y139.404 E0.78061
G1 X94.868 Y139.916 E0.80584
G1 X94.258 Y140.366 E0.83106
G1 X93.603 Y140.75 E0.85631
G1 X92.912 Y141.063 E0.88154
G1 X92.191 Y141.301 E0.90679
G1 X91.573 Y141.441 E0.92787
G1 X91.512 Y141.452 E0.92993
G1 X90.759 Y141.547 E0.95517
G1 X90.001 Y141.562 E0.98039
G1 X89.245 Y141.498 E1.00562
G1 X88.5 Y141.354 E1.03086
G1 X87.774 Y141.133 E1.0561
G1 X87.172 Y140.882 E1.0778
G1 X86.806 Y140.71 E1.09125
G1 X86.137 Y140.352 E1.11648
G1 X85.511 Y139.926 E1.14167
G1 X85.34 Y139.796 E1.14881
G1 X85.083 Y139.591 E1.15975
G1 X84.744 Y139.308 E1.17443
G1 X84.188 Y138.792 E1.19966
G1 X83.905 Y138.482 E1.21362
G1 X83.58 Y138.105 E1.23018
G1 X83.115 Y137.505 E1.25543
G1 X82.77 Y136.956 E1.27699
G1 X82.563 Y136.591 E1.29095
G1 X82.224 Y135.912 E1.31619
G1 X81.958 Y135.201 E1.34144
G1 X81.769 Y134.467 E1.36665
G1 X81.658 Y133.716 E1.3919
G1 X81.626 Y132.958 E1.41713
G1 X81.675 Y132.201 E1.44236
G1 X81.803 Y131.453 E1.4676
G1 X81.969 Y130.845 E1.48857
G1 X82.001 Y130.745 E1.49206
G1 X82.27 Y130.035 E1.51731
G1 X82.612 Y129.358 E1.54254
G1 X83.023 Y128.721 E1.56775
G1 X83.499 Y128.13 E1.59299
G1 X84.035 Y127.593 E1.61823
G1 X84.625 Y127.115 E1.64348
G0 F3600 X84.961 Y127.366
G1 F1800 X85.588 Y126.977 E1.66802
G1 X86.252 Y126.658 E1.69252
G1 X86.948 Y126.413 E1.71707
G1 X87.665 Y126.244 E1.74157
G1 X88.397 Y126.155 E1.76609
G1 X89.134 Y126.145 E1.79061
G1 X89.868 Y126.214 E1.81513
G1 X90.59 Y126.363 E1.83965
G1 X91.292 Y126.59 E1.86419
G1 X91.965 Y126.89 E1.88869
G1 X92.834 Y127.422 E1.92258
G1 X93.26 Y127.729 E1.94005
G1 X93.433 Y127.859 E1.94725
G1 X93.755 Y128.107 E1.96076
G1 X94.498 Y128.771 E1.99391
G1 X94.888 Y129.175 E2.01258
G1 X95.381 Y129.745 E2.03765
G1 X95.536 Y129.946 E2.04609
G1 X95.69 Y130.154 E2.0547
G1 X95.836 Y130.359 E2.06307
G1 X96.23 Y130.982 E2.08759
G1 X96.555 Y131.644 E2.11212
G1 X96.806 Y132.337 E2.13663
G1 X96.981 Y133.053 E2.16114
G1 X97.077 Y133.785 E2.1857
G1 X97.092 Y134.57 E2.21181
G1 X97.09 Y134.621 E2.21351
G1 X97.021 Y135.356 E2.23806
G1 X96.873 Y136.078 E2.26258
G1 X96.648 Y136.78 E2.2871
G1 X96.348 Y137.453 E2.3116
G1 X95.977 Y138.091 E2.33615
G1 X95.539 Y138.684 E2.36067
G1 X95.04 Y139.226 E2.38517
G1 X94.484 Y139.711 E2.40971
G1 X93.88 Y140.133 E2.43422
G1 X93.233 Y140.487 E2.45875
G1 X92.552 Y140.769 E2.48327
G1 X91.502 Y141.047 E2.51939
G1 X91.441 Y141.058 E2.52145
G1 X90.709 Y141.149 E2.54599
G1 X89.972 Y141.161 E2.5705
G1 X89.238 Y141.093 E2.59502
G1 X88.515 Y140.945 E2.61957
G1 X87.813 Y140.721 E2.64408
G1 X87.342 Y140.52 E2.66111
G1 X86.976 Y140.348 E2.67456
G1 X86.327 Y139.999 E2.69907
G1 X85.753 Y139.607 E2.72219
G1 X85.582 Y139.477 E2.72933
G1 X85.339 Y139.284 E2.73965
G1 X85 Y139.001 E2.75434
G1 X84.461 Y138.499 E2.77884
G1 X84.208 Y138.221 E2.79134
G1 X83.883 Y137.844 E2.80789
G1 X83.432 Y137.26 E2.83244
G1 X83.118 Y136.759 E2.8521
G1 X82.911 Y136.394 E2.86606
G1 X82.583 Y135.733 E2.8906
G1 X82.328 Y135.042 E2.9151
G1 X82.149 Y134.326 E2.93965
G1 X82.049 Y133.596 E2.96415
G1 X82.028 Y132.859 E2.98868
G1 X82.088 Y132.124 E3.0132
G1 X82.227 Y131.4 E3.03772
G1 X82.35 Y130.967 E3.05269
G1 X82.382 Y130.867 E3.05619
G1 X82.644 Y130.178 E3.0807
G1 X82.979 Y129.521 E3.10523
G1 X83.384 Y128.905 E3.12975
G1 X83.853 Y128.336 E3.15428
G1 X84.381 Y127.821 E3.17881
G1 X84.961 Y127.366 E3.20333
G0 F3600 X85.296 Y127.622
G1 F1800 X85.912 Y127.257 E3.22714
G1 X86.564 Y126.964 E3.25092
G1 X87.245 Y126.746 E3.2747
G1 X87.946 Y126.604 E3.29849
G1 X88.659 Y126.542 E3.32229
G1 X89.374 Y126.56 E3.34608
G1 X90.083 Y126.657 E3.36988
G1 X90.776 Y126.833 E3.39366
G1 X91.445 Y127.085 E3.41744
G1 X92.082 Y127.411 E3.44124
G1 X92.6 Y127.747 E3.46178
G1 X93.026 Y128.054 E3.47924
G1 X93.189 Y128.176 E3.48601
G1 X93.511 Y128.424 E3.49953
G1 X94.211 Y129.049 E3.53074
G1 X94.601 Y129.453 E3.54942
G1 X95.064 Y129.99 E3.573
G1 X95.219 Y130.191 E3.58144
G1 X95.364 Y130.386 E3.58953
G1 X95.51 Y130.591 E3.5979
G1 X95.892 Y131.196 E3.62169
G1 X96.204 Y131.84 E3.6455
G1 X96.442 Y132.514 E3.66927
G1 X96.603 Y133.211 E3.69306
G1 X96.686 Y133.922 E3.71687
G1 X96.692 Y134.555 E3.73793
G1 X96.69 Y134.606 E3.73962
G1 X96.622 Y135.318 E3.76341
G1 X96.475 Y136.018 E3.7872
G1 X96.251 Y136.697 E3.81098
G1 X95.953 Y137.347 E3.83477
G1 X95.583 Y137.96 E3.85858
G1 X95.148 Y138.527 E3.88235
G1 X94.652 Y139.043 E3.90615
G1 X94.102 Y139.5 E3.92994
G1 X93.504 Y139.892 E3.95372
G1 X92.866 Y140.216 E3.97752
G1 X92.196 Y140.466 E4.00131
G1 X91.431 Y140.653 E4.0275
G1 X91.37 Y140.664 E4.02956
G1 X90.66 Y140.752 E4.05336
G1 X89.945 Y140.759 E4.07714
G1 X89.233 Y140.687 E4.10094
G1 X88.534 Y140.536 E4.12472
G1 X87.856 Y140.308 E4.14852
G1 X87.512 Y140.158 E4.161
G1 X87.146 Y139.986 E4.17445
G1 X86.517 Y139.646 E4.19823
G1 X85.995 Y139.289 E4.21926
G1 X85.824 Y139.159 E4.22641
G1 X85.596 Y138.977 E4.23611
G1 X85.257 Y138.694 E4.2508
G1 X84.511 Y137.96 E4.28561
G1 X84.186 Y137.583 E4.30216
G1 X83.75 Y137.016 E4.32595
G1 X83.466 Y136.561 E4.34379
G1 X83.259 Y136.196 E4.35775
G1 X82.941 Y135.555 E4.38155
G1 X82.697 Y134.883 E4.40532
G1 X82.53 Y134.188 E4.4291
G1 X82.441 Y133.478 E4.4529
G1 X82.432 Y132.763 E4.47668
G1 X82.503 Y132.051 E4.50048
G1 X82.73 Y131.088 E4.53339
G1 X82.762 Y130.988 E4.53688
G1 X83.018 Y130.32 E4.56067
G1 X83.347 Y129.685 E4.58446
G1 X83.744 Y129.091 E4.60822
G1 X84.206 Y128.544 E4.63204
G1 X84.725 Y128.052 E4.65582
G1 X85.296 Y127.622 E4.6796
G0 F3600 X85.068 Y128.287
G1 F1800 X85.629 Y127.882 E4.70261
G1 X86.234 Y127.543 E4.72568
G1 X86.873 Y127.277 E4.7487
G1 X87.539 Y127.086 E4.77174
G1 X88.222 Y126.973 E4.79477
G1 X88.914 Y126.939 E4.81781
G1 X89.604 Y126.986 E4.84081
G1 X90.286 Y127.111 E4.86387
G1 X90.948 Y127.315 E4.88691
G1 X91.582 Y127.593 E4.90994
G1 X92.366 Y128.071 E4.94048
G1 X92.792 Y128.378 E4.95794
G1 X92.945 Y128.492 E4.96429
G1 X93.267 Y128.74 E4.97781
G1 X93.923 Y129.327 E5.00709
G1 X94.313 Y129.731 E5.02576
G1 X94.747 Y130.234 E5.04786
G1 X94.902 Y130.435 E5.0563
G1 X95.038 Y130.618 E5.06389
G1 X95.184 Y130.823 E5.07226
G1 X95.553 Y131.41 E5.09532
G1 X95.851 Y132.035 E5.11835
G1 X96.076 Y132.69 E5.14138
G1 X96.223 Y133.366 E5.16439
G1 X96.292 Y134.055 E5.18742
G1 X96.292 Y134.539 E5.20352
G1 X96.29 Y134.59 E5.20522
G1 X96.223 Y135.279 E5.22824
G1 X96.077 Y135.956 E5.25128
G1 X95.854 Y136.612 E5.27432
G1 X95.557 Y137.238 E5.29737
G1 X95.19 Y137.825 E5.32039
G1 X94.758 Y138.366 E5.34342
G1 X94.266 Y138.853 E5.36644
G1 X93.721 Y139.281 E5.38949
G1 X93.131 Y139.643 E5.41251
G1 X92.502 Y139.934 E5.43557
G1 X91.845 Y140.151 E5.45858
G1 X91.36 Y140.26 E5.47511
G1 X91.299 Y140.271 E5.47717
G1 X90.611 Y140.354 E5.50022
G1 X89.919 Y140.358 E5.52324
G1 X89.23 Y140.281 E5.5463
G1 X88.555 Y140.126 E5.56933
G1 X87.682 Y139.796 E5.60037
G1 X87.316 Y139.624 E5.61382
G1 X86.707 Y139.294 E5.63686
G1 X86.237 Y138.97 E5.65585
G1 X86.066 Y138.84 E5.66299
G1 X85.852 Y138.67 E5.67208
G1 X85.513 Y138.387 E5.68677
G1 X84.814 Y137.699 E5.71939
G1 X84.489 Y137.322 E5.73595
G1 X84.067 Y136.772 E5.759
G1 X83.814 Y136.364 E5.77497
G1 X83.607 Y135.999 E5.78893
G1 X83.301 Y135.378 E5.81195
G1 X83.068 Y134.725 E5.83501
G1 X82.912 Y134.051 E5.85802
G1 X82.835 Y133.363 E5.88105
G1 X82.837 Y132.67 E5.9041
G1 X82.92 Y131.982 E5.92715
G1 X83.111 Y131.21 E5.9536
G1 X83.143 Y131.11 E5.95709
G1 X83.392 Y130.464 E5.98012
G1 X83.714 Y129.851 E6.00315
G1 X84.104 Y129.279 E6.02617
G1 X84.557 Y128.755 E6.04921
G1 X85.068 Y128.287 E6.07226
G0 F3600 X85.41 Y128.527
G1 F1800 X85.96 Y128.147 E6.09449
G1 X86.553 Y127.836 E6.11677
G1 X87.178 Y127.597 E6.13902
G1 X87.827 Y127.435 E6.16127
G1 X88.49 Y127.351 E6.1835
G1 X89.159 Y127.347 E6.20575
G1 X89.824 Y127.423 E6.22801
G1 X90.475 Y127.578 E6.25027
G1 X91.103 Y127.809 E6.27252
G1 X91.699 Y128.113 E6.29478
G1 X92.132 Y128.396 E6.31198
G1 X92.558 Y128.703 E6.32945
G1 X92.701 Y128.809 E6.33537
G1 X93.023 Y129.057 E6.34888
G1 X93.635 Y129.605 E6.37621
G1 X94.025 Y130.009 E6.39488
G1 X94.431 Y130.478 E6.41552
G1 X94.586 Y130.679 E6.42396
G1 X94.712 Y130.85 E6.43102
G1 X94.858 Y131.055 E6.43939
G1 X95.213 Y131.623 E6.46167
G1 X95.498 Y132.228 E6.48391
G1 X95.708 Y132.863 E6.50616
G1 X95.842 Y133.519 E6.52843
G1 X95.896 Y134.186 E6.55069
G1 X95.893 Y134.523 E6.5619
G1 X95.891 Y134.574 E6.56359
G1 X95.825 Y135.24 E6.58585
G1 X95.68 Y135.893 E6.6081
G1 X95.458 Y136.524 E6.63035
G1 X95.162 Y137.125 E6.65263
G1 X94.797 Y137.685 E6.67486
G1 X94.368 Y138.198 E6.69711
G1 X93.88 Y138.657 E6.71939
G1 X93.342 Y139.054 E6.74163
G1 X92.76 Y139.383 E6.76386
G1 X92.142 Y139.641 E6.78614
G1 X91.289 Y139.866 E6.81548
G1 X91.228 Y139.877 E6.81754
G1 X90.563 Y139.956 E6.83981
G1 X89.894 Y139.956 E6.86206
G1 X89.23 Y139.875 E6.88431
G1 X88.58 Y139.716 E6.90657
G1 X87.852 Y139.434 E6.93254
G1 X87.486 Y139.262 E6.94599
G1 X86.899 Y138.942 E6.96822
G1 X86.479 Y138.652 E6.9852
G1 X86.308 Y138.522 E6.99234
G1 X86.108 Y138.363 E7.00084
G1 X85.769 Y138.08 E7.01553
G1 X85.117 Y137.437 E7.04599
G1 X84.792 Y137.06 E7.06254
G1 X84.386 Y136.529 E7.08477
G1 X84.162 Y136.167 E7.09893
G1 X83.955 Y135.802 E7.11289
G1 X83.66 Y135.201 E7.13516
G1 X83.439 Y134.569 E7.15742
G1 X83.295 Y133.916 E7.17966
G1 X83.23 Y133.25 E7.20192
G1 X83.245 Y132.581 E7.22418
G1 X83.339 Y131.919 E7.24642
G1 X83.492 Y131.332 E7.26659
G1 X83.524 Y131.232 E7.27009
G1 X83.766 Y130.608 E7.29235
G1 X84.08 Y130.018 E7.31458
G1 X84.463 Y129.469 E7.33684
G1 X84.908 Y128.969 E7.3591
G1 X85.41 Y128.527 E7.38135
G0 F3600 X85.749 Y128.771
G1 F1800 X86.289 Y128.418 E7.40281
G1 X86.868 Y128.135 E7.42424
G1 X87.478 Y127.926 E7.44569
G1 X88.109 Y127.793 E7.46714
G1 X88.751 Y127.74 E7.48856
G1 X89.395 Y127.767 E7.51
G1 X90.031 Y127.873 E7.53144
G1 X90.649 Y128.057 E7.55289
G1 X91.239 Y128.316 E7.57432
G1 X91.898 Y128.72 E7.60003
G1 X92.324 Y129.027 E7.6175
G1 X92.457 Y129.126 E7.62301
G1 X92.779 Y129.374 E7.63653
G1 X93.347 Y129.882 E7.66187
G1 X93.737 Y130.286 E7.68055
G1 X94.114 Y130.723 E7.69975
G1 X94.269 Y130.924 E7.70819
G1 X94.387 Y131.082 E7.71475
G1 X94.533 Y131.287 E7.72312
G1 X94.873 Y131.835 E7.74457
G1 X95.144 Y132.42 E7.76601
G1 X95.34 Y133.034 E7.78745
G1 X95.458 Y133.668 E7.8089
G1 X95.493 Y134.508 E7.83686
G1 X95.491 Y134.559 E7.83856
G1 X95.426 Y135.2 E7.85999
G1 X95.282 Y135.829 E7.88145
G1 X95.061 Y136.434 E7.90287
G1 X94.767 Y137.008 E7.92432
G1 X94.405 Y137.541 E7.94575
G1 X93.979 Y138.025 E7.9672
G1 X93.496 Y138.453 E7.98866
G1 X92.965 Y138.817 E8.01007
G1 X92.392 Y139.113 E8.03152
G1 X91.787 Y139.336 E8.05297
G1 X91.218 Y139.472 E8.07243
G1 X91.157 Y139.483 E8.07449
G1 X90.517 Y139.558 E8.09592
G1 X89.872 Y139.553 E8.11738
G1 X89.233 Y139.469 E8.13881
G1 X88.609 Y139.306 E8.16026
G1 X88.022 Y139.072 E8.18128
G1 X87.656 Y138.9 E8.19473
G1 X87.091 Y138.59 E8.21616
G1 X86.721 Y138.334 E8.23113
G1 X86.55 Y138.204 E8.23827
G1 X86.365 Y138.056 E8.24615
G1 X86.026 Y137.773 E8.26084
G1 X85.419 Y137.176 E8.28916
G1 X85.094 Y136.799 E8.30571
G1 X84.705 Y136.286 E8.32713
G1 X84.51 Y135.969 E8.33951
G1 X84.303 Y135.604 E8.35346
G1 X84.02 Y135.025 E8.3749
G1 X83.811 Y134.415 E8.39634
G1 X83.68 Y133.784 E8.41778
G1 X83.627 Y133.141 E8.43924
G1 X83.654 Y132.497 E8.46068
G1 X83.761 Y131.861 E8.48213
G1 X83.873 Y131.454 E8.49617
G1 X83.905 Y131.354 E8.49966
G1 X84.14 Y130.754 E8.52109
G1 X84.446 Y130.186 E8.54255
G1 X84.821 Y129.662 E8.56398
G1 X85.257 Y129.187 E8.58543
G1 X85.749 Y128.771 E8.60685
G1 F1500 E6.60685
;MESH:Alliance_10.stl
G0 F3600 X90.004 Y132.95
G0 X89.485 Y133.636
;TYPE:WALL-OUTER
G1 F1500 E8.60685
G1 F1800 X89.525 Y133.67 E8.6086
G1 X89.484 Y133.639
G1 X89.469 Y133.622 E8.60932
G1 X89.485 Y133.636
G0 F3600 X89.525 Y133.67
G0 X89.484 Y133.639
G0 X89.469 Y133.622
G0 X89.485 Y133.636
G0 X89.525 Y133.67
G0 X89.524 Y133.669
G1 F1500 E6.60932
;MESH:NONMESH
G0 F3600 X90.017 Y132.959
G0 X89.907 Y120.874
;TIME_ELAPSED:13.755338
;LAYER:1
M140 S60
M106 S255
;MESH:Alliance_10.stl
G0 F5400 X89.907 Y120.874 Z0.4
;TYPE:WALL-OUTER
G1 F1500 E8.60932
G1 F600 X89.982 Y120.815 E8.6125
G1 X90.301 Y120.636 E8.62466
G1 X90.408 Y120.576 E8.62874
G1 X90.35 Y120.723 E8.63015
G1 X90.212 Y120.953 E8.63355
G1 X90.106 Y121.129 E8.6391
G1 X89.886 Y121.397 E8.65063
G1 X89.719 Y121.599 E8.65935
G1 X89.371 Y121.908 E8.67482
G1 X89.267 Y122.001 E8.67946
G1 X88.931 Y122.255 E8.69347
G1 X88.755 Y122.388 E8.70081
G1 X88.501 Y122.57 E8.7112
G1 X88.437 Y122.616 E8.71383
G1 X88.466 Y122.522
G1 X88.601 Y122.297 E8.71595
G1 X88.761 Y122.03 E8.72261
G1 X88.973 Y121.766 E8.73165
G1 X89.06 Y121.657 E8.73615
G1 X89.159 Y121.533 E8.74142
G1 X89.537 Y121.162 E8.75904
G1 X89.633 Y121.087 E8.76309
G1 X89.907 Y120.874 E8.77353
G0 F5400 X89.982 Y120.815
G0 X90.073 Y120.764
G0 X89.657 Y121.343
;TYPE:SKIN
G1 F600 X89.393 Y121.607 E8.77974
G0 F5400 X89.527 Y121.732
G1 F1500 E6.77974
G0 F5400 X89.48 Y121.679
G0 X88.744 Y122.372
G0 X89.26 Y123.089
G0 X87.791 Y125.908
G0 X87.011 Y126.241
G0 X87.116 Y127.078
G0 X87.214 Y127.06
;TYPE:WALL-OUTER
G1 F1500 E8.77974
G1 F600 X87.224 Y127.11 E8.78144
G1 X87.233 Y127.694 E8.80086
G1 X87.208 Y127.926 E8.80862
G1 X87.194 Y128.064 E8.81324
G1 X87.166 Y128.322 E8.82187
G1 X87.127 Y128.567 E8.83012
G1 X87.055 Y129.004 E8.84485
G1 X87.048 Y129.044 E8.8462
G1 X87.023 Y128.999 E8.84653
G1 X86.892 Y128.529 E8.85273
G1 X86.868 Y128.368 E8.85593
G1 X86.815 Y128.024 E8.86603
G1 X86.811 Y127.885 E8.87057
G1 X86.796 Y127.42 E8.88604
G1 X86.821 Y127.122 E8.89599
G1 X86.844 Y126.836 E8.90553
G1 X86.919 Y126.478 E8.9177
G1 X86.942 Y126.369 E8.9214
G1 X87.012 Y126.222 E8.92682
G1 X87.05 Y126.331 E8.92698
G1 X87.115 Y126.519 E8.93056
G1 X87.162 Y126.778 E8.93576
G1 X87.214 Y127.06 E8.94439
G0 F5400 X87.224 Y127.11
G0 X87.226 Y127.26
G0 X87.004 Y127.389
;TYPE:SKIN
